%
(1965)
(T4  D=3.175 CR=0 - ZMIN=-18.495 - flat end mill)
G90 G94
G17
G21
G28 G91 Z0
G90

(Adaptive2)
M9
T4 M6
S15000 M3
G54
M9
G0 X230.832 Y-3.186
Z15
Z5
Z-4.365
G1 Z-4.682 F1000
X230.828 Y-3.18 Z-4.753
X230.815 Y-3.16 Z-4.82
X230.794 Y-3.129 Z-4.88
X230.766 Y-3.087 Z-4.931
X230.732 Y-3.037 Z-4.969
X230.695 Y-2.981 Z-4.992
X230.655 Y-2.923 Z-5
G3 X229.53 Y-1.587 I-6.725 J-4.525
G1 X229.422 Y-1.491 F800
X229.27 Y-1.324
X229.247 Y-1.294
X229.151 Y-1.178
X229.032 Y-1.088
X228.882 Y-0.992
X228.69 Y-0.891
X228.44 Y-0.783
X228.107 Y-0.671
X227.64 Y-0.553
X226.917 Y-0.433
X226.182 Y-0.37
X225.445 Y-0.337
X224.707 Y-0.32
X223.97 Y-0.311
X223.232 Y-0.307
X222.845 Y-0.305
X222.63 Y-0.336
X222.432 Y-0.428
X222.269 Y-0.572
X222.153 Y-0.757
G3 X222.131 Y-0.878 I0.295 J-0.117 F1000
X222.419 Y-1.19 I0.317 J0.005
G1 X228.958 Y-1.792
G3 X229.297 Y-1.407 I0.029 J0.316
X229.247 Y-1.294 I-0.31 J-0.068
G1 X229.195 Y-1.224 F800
X229.147 Y-1.156
X229.045 Y-0.988
X228.965 Y-0.821
X228.931 Y-0.729
X228.872 Y-0.591
X228.795 Y-0.462
X228.704 Y-0.343
X228.602 Y-0.233
X228.474 Y-0.115
X228.306 Y0.015
X228.119 Y0.138
X227.886 Y0.265
X227.581 Y0.401
X227.21 Y0.532
X226.697 Y0.667
X225.971 Y0.798
X225.237 Y0.872
X224.5 Y0.914
X223.763 Y0.938
X223.428 Y0.924
X223.128 Y0.887
X222.908 Y0.842
X222.831 Y0.82
X222.657 Y0.744
X222.507 Y0.626
X222.393 Y0.474
X222.321 Y0.298
X222.297 Y0.109
X222.296 Y0.017
G3 X222.569 Y-0.286 I0.317 J0.011 F1000
G1 X228.585 Y-1.143
G3 X228.946 Y-0.852 I0.045 J0.314
X228.931 Y-0.729 I-0.317 J0.023
G1 X228.903 Y-0.653 F800
X228.859 Y-0.515
X228.82 Y-0.318
X228.803 Y-0.15
X228.8 Y-0.099
X228.785 Y0.05
X228.746 Y0.195
X228.689 Y0.333
X228.617 Y0.465
X228.533 Y0.589
X228.428 Y0.721
X228.304 Y0.853
X228.139 Y1.003
X227.954 Y1.145
X227.72 Y1.297
X227.416 Y1.461
X227.08 Y1.609
X226.629 Y1.766
X226.04 Y1.919
X225.313 Y2.046
X224.599 Y2.122
X224.033 Y2.136
X223.649 Y2.114
X223.338 Y2.072
X223.099 Y2.019
X222.878 Y1.951
X222.765 Y1.907
X222.575 Y1.796
X222.425 Y1.634
X222.33 Y1.436
X222.297 Y1.218
Y0.109
G3 X222.602 Y-0.197 I0.317 J0.011 F1000
G1 X228.471 Y-0.422
G3 X228.778 Y-0.221 I0.012 J0.317
X228.8 Y-0.099 I-0.295 J0.116
G1 X228.794 Y0.017 F800
X228.793 Y0.739
X228.786 Y0.889
X228.759 Y1.036
X228.715 Y1.18
X228.656 Y1.318
X228.584 Y1.453
X228.493 Y1.595
X228.377 Y1.748
X228.238 Y1.902
X228.058 Y2.073
X227.858 Y2.235
X227.587 Y2.42
X227.295 Y2.586
X226.894 Y2.774
X226.452 Y2.94
X225.897 Y3.098
X225.306 Y3.216
X224.747 Y3.281
X224.243 Y3.3
X223.816 Y3.281
X223.477 Y3.239
X223.175 Y3.176
X222.956 Y3.112
X222.743 Y3.031
X222.719 Y3.019
X222.546 Y2.904
X222.411 Y2.746
X222.326 Y2.556
X222.297 Y2.35
Y1.218
G3 X222.588 Y0.913 I0.317 J0.011 F1000
G1 X228.45 Y0.433
G3 X228.793 Y0.739 I0.026 J0.316
G1 Y1.786 F800
X228.786 Y1.936
X228.756 Y2.083
X228.71 Y2.226
X228.652 Y2.364
X228.572 Y2.517
X228.478 Y2.666
X228.349 Y2.839
X228.201 Y3.007
X228.008 Y3.194
X227.79 Y3.373
X227.505 Y3.571
X227.194 Y3.752
X226.796 Y3.942
X226.354 Y4.112
X225.874 Y4.253
X225.354 Y4.362
X224.83 Y4.428
X224.341 Y4.45
X223.908 Y4.435
X223.521 Y4.39
X223.232 Y4.333
X222.981 Y4.262
X222.782 Y4.187
X222.724 Y4.161
X222.549 Y4.046
X222.413 Y3.887
X222.327 Y3.696
X222.297 Y3.489
Y2.35
G3 X222.584 Y2.046 I0.317 J0.011 F1000
G1 X228.446 Y1.481
G3 X228.793 Y1.786 I0.03 J0.316
G1 Y2.868 F800
X228.786 Y3.017
X228.756 Y3.165
X228.712 Y3.308
X228.654 Y3.449
X228.577 Y3.603
X228.478 Y3.766
X228.353 Y3.937
X228.196 Y4.121
X228.009 Y4.307
X227.781 Y4.5
X227.505 Y4.698
X227.197 Y4.883
X226.819 Y5.071
X226.392 Y5.242
X225.94 Y5.383
X225.446 Y5.493
X224.938 Y5.565
X224.439 Y5.595
X223.994 Y5.586
X223.594 Y5.545
X223.295 Y5.49
X223.026 Y5.418
X222.823 Y5.346
X222.734 Y5.306
X222.555 Y5.192
X222.416 Y5.033
X222.327 Y4.84
X222.297 Y4.63
Y3.489
G3 X222.581 Y3.185 I0.317 J0.011 F1000
G1 X228.443 Y2.563
G3 X228.793 Y2.868 I0.033 J0.316
G1 Y3.966 F800
X228.786 Y4.116
X228.759 Y4.263
X228.717 Y4.407
X228.661 Y4.55
X228.587 Y4.705
X228.49 Y4.87
X228.37 Y5.043
X228.217 Y5.227
X228.035 Y5.415
X227.814 Y5.609
X227.543 Y5.81
X227.248 Y5.995
X226.887 Y6.182
X226.472 Y6.357
X226.035 Y6.501
X225.552 Y6.618
X225.05 Y6.697
X224.548 Y6.736
X224.091 Y6.734
X223.682 Y6.7
X223.364 Y6.648
X223.079 Y6.576
X222.869 Y6.506
X222.746 Y6.453
X222.563 Y6.34
X222.419 Y6.18
X222.328 Y5.985
X222.297 Y5.772
Y4.63
G3 X222.579 Y4.326 I0.317 J0.011 F1000
G1 X228.44 Y3.661
G3 X228.793 Y3.966 I0.036 J0.315
G1 Y5.047 F800
X228.786 Y5.197
X228.765 Y5.346
X228.729 Y5.491
X228.679 Y5.633
X228.612 Y5.784
X228.525 Y5.946
X228.414 Y6.115
X228.274 Y6.298
X228.105 Y6.483
X227.899 Y6.677
X227.648 Y6.876
X227.37 Y7.063
X227.028 Y7.255
X226.64 Y7.434
X226.224 Y7.586
X225.754 Y7.717
X225.257 Y7.812
X224.756 Y7.868
X224.278 Y7.882
X223.842 Y7.86
X223.489 Y7.813
X223.183 Y7.748
X222.953 Y7.678
X222.742 Y7.596
X222.714 Y7.583
X222.543 Y7.467
X222.41 Y7.309
X222.326 Y7.121
X222.297 Y6.916
Y5.772
G3 X222.575 Y5.468 I0.317 J0.011 F1000
G1 X228.437 Y4.743
G3 X228.793 Y5.047 I0.039 J0.315
G1 Y6.221 F800
X228.786 Y6.371
X228.761 Y6.519
X228.721 Y6.663
X228.667 Y6.808
X228.595 Y6.963
X228.502 Y7.127
X228.382 Y7.303
X228.237 Y7.484
X228.056 Y7.675
X227.839 Y7.871
X227.59 Y8.061
X227.28 Y8.26
X226.942 Y8.441
X226.552 Y8.612
X226.107 Y8.765
X225.625 Y8.888
X225.127 Y8.974
X224.639 Y9.018
X224.172 Y9.022
X223.743 Y8.992
X223.405 Y8.941
X223.119 Y8.873
X222.897 Y8.802
X222.693 Y8.718
X222.63 Y8.685
X222.472 Y8.576
X222.347 Y8.43
X222.263 Y8.257
X222.228 Y8.068
X222.242 Y7.876
X222.272 Y7.73
X222.281 Y7.562
X222.296 Y7.227
X222.297 Y6.981
Y6.916
G3 X222.577 Y6.612 I0.317 J0.011 F1000
G1 X228.439 Y5.917
G3 X228.793 Y6.221 I0.037 J0.315
G1 Y7.059 F800
X228.795 Y7.227
X228.799 Y7.319
X228.798 Y7.469
X228.777 Y7.618
X228.741 Y7.763
X228.692 Y7.905
X228.623 Y8.061
X228.536 Y8.222
X228.423 Y8.397
X228.285 Y8.575
X228.111 Y8.767
X227.912 Y8.955
X227.656 Y9.158
X227.379 Y9.345
X227.041 Y9.535
X226.645 Y9.718
X226.223 Y9.873
X225.763 Y10.001
X225.27 Y10.097
X224.764 Y10.153
X224.281 Y10.168
X223.852 Y10.147
X223.461 Y10.096
X223.161 Y10.031
X222.9 Y9.953
X222.694 Y9.873
X222.496 Y9.777
X222.339 Y9.685
X222.181 Y9.574
X222.11 Y9.515
X221.966 Y9.356
X221.874 Y9.162
X221.842 Y8.95
X221.871 Y8.738
X221.96 Y8.543
X221.986 Y8.503
X222.047 Y8.4
X222.128 Y8.233
X222.153 Y8.17
X222.189 Y8.065
X222.237 Y7.897
X222.242 Y7.876
G3 X222.294 Y7.763 I0.309 J0.075 F1000
X222.518 Y7.635 I0.256 J0.187
G1 X228.45 Y7.028
G3 X228.765 Y7.2 I0.032 J0.316
X228.799 Y7.319 I-0.283 J0.144
G1 X228.81 Y7.562 F800
X228.819 Y7.73
X228.859 Y7.927
X228.902 Y8.065
X228.946 Y8.208
X228.957 Y8.358
X228.949 Y8.508
X228.925 Y8.656
X228.888 Y8.801
X228.835 Y8.954
X228.763 Y9.117
X228.67 Y9.289
X228.55 Y9.474
X228.405 Y9.662
X228.221 Y9.866
X228.011 Y10.062
X227.748 Y10.273
X227.452 Y10.473
X227.112 Y10.664
X226.712 Y10.849
X226.262 Y11.015
X225.787 Y11.147
X225.288 Y11.244
X224.778 Y11.301
X224.29 Y11.316
X223.844 Y11.294
X223.435 Y11.241
X223.062 Y11.161
X222.732 Y11.063
X222.456 Y10.955
X222.208 Y10.835
X222.014 Y10.721
X221.847 Y10.604
X221.689 Y10.473
X221.566 Y10.354
X221.449 Y10.22
X221.347 Y10.082
X221.317 Y10.033
X221.231 Y9.837
X221.205 Y9.625
X221.24 Y9.414
X221.334 Y9.222
X221.48 Y9.065
X221.65 Y8.922
X221.819 Y8.736
X221.944 Y8.568
X221.96 Y8.543
G3 X222.194 Y8.408 I0.261 J0.181 F1000
G1 X228.582 Y7.87
G3 X228.902 Y8.065 I0.027 J0.316
G1 X228.964 Y8.233 F800
X229.05 Y8.4
X229.143 Y8.568
X229.172 Y8.609
X229.251 Y8.736
X229.296 Y8.879
X229.321 Y9.027
X229.328 Y9.177
X229.32 Y9.327
X229.299 Y9.475
X229.262 Y9.637
X229.21 Y9.805
X229.134 Y9.992
X229.04 Y10.18
X228.913 Y10.39
X228.766 Y10.595
X228.58 Y10.814
X228.353 Y11.041
X228.097 Y11.259
X227.782 Y11.486
X227.417 Y11.707
X227.026 Y11.903
X226.579 Y12.084
X226.083 Y12.239
X225.559 Y12.358
X225.027 Y12.435
X224.5 Y12.468
X223.988 Y12.459
X223.501 Y12.411
X223.052 Y12.33
X222.656 Y12.226
X222.3 Y12.1
X221.972 Y11.954
X221.683 Y11.796
X221.424 Y11.626
X221.215 Y11.465
X221.028 Y11.293
X220.882 Y11.136
X220.763 Y10.986
X220.652 Y10.82
X220.57 Y10.672
X220.501 Y10.521
X220.442 Y10.359
X220.42 Y10.279
X220.394 Y10.058
X220.435 Y9.839
X220.538 Y9.642
X220.696 Y9.485
X220.893 Y9.382
X220.98 Y9.352
X221.147 Y9.278
X221.315 Y9.184
X221.472 Y9.071
X221.48 Y9.065
G3 X221.648 Y9.002 I0.191 J0.254 F1000
G1 X228.894 Y8.482
G3 X229.172 Y8.609 I0.023 J0.317
G1 X229.195 Y8.642 F800
X229.269 Y8.736
X229.362 Y8.844
X229.422 Y8.903
X229.508 Y8.981
X229.615 Y9.086
X229.699 Y9.211
X229.763 Y9.346
X229.809 Y9.489
X229.838 Y9.636
X229.853 Y9.785
X229.855 Y9.936
X229.844 Y10.096
X229.816 Y10.276
X229.773 Y10.46
X229.707 Y10.668
X229.621 Y10.876
X229.507 Y11.101
X229.359 Y11.341
X229.187 Y11.577
X228.966 Y11.832
X228.705 Y12.089
X228.415 Y12.332
X228.066 Y12.58
X227.659 Y12.823
X227.204 Y13.047
X226.721 Y13.238
X226.189 Y13.4
X225.624 Y13.524
X225.041 Y13.604
X224.456 Y13.636
X223.882 Y13.622
X223.337 Y13.564
X222.833 Y13.47
X222.368 Y13.343
X221.936 Y13.187
X221.542 Y13.008
X221.185 Y12.81
X220.876 Y12.604
X220.607 Y12.391
X220.369 Y12.171
X220.16 Y11.943
X219.983 Y11.716
X219.85 Y11.514
X219.732 Y11.299
X219.653 Y11.122
X219.587 Y10.937
X219.539 Y10.755
X219.51 Y10.597
X219.493 Y10.429
X219.49 Y10.262
X219.495 Y10.191
X219.54 Y9.976
X219.647 Y9.784
X219.804 Y9.632
X220 Y9.533
X220.216 Y9.495
X220.309 Y9.493
X220.477 Y9.483
X220.645 Y9.455
X220.823 Y9.406
X220.893 Y9.382
G3 X220.968 Y9.369 I0.093 J0.304 F1000
G1 X221.016 Y9.366
X229.287 Y8.907
G3 X229.508 Y8.981 I0.018 J0.317
G1 X229.611 Y9.071 F800
X229.698 Y9.132
X229.869 Y9.239
X229.918 Y9.264
X230.049 Y9.337
X230.163 Y9.435
X230.258 Y9.551
X230.337 Y9.678
X230.4 Y9.814
X230.45 Y9.956
X230.485 Y10.102
X230.509 Y10.254
X230.521 Y10.422
X230.52 Y10.608
X230.504 Y10.802
X230.467 Y11.019
X230.411 Y11.242
X230.33 Y11.482
X230.217 Y11.745
X230.08 Y12.003
X229.905 Y12.277
X229.685 Y12.567
X229.433 Y12.851
X229.133 Y13.136
X228.775 Y13.427
X228.361 Y13.711
X227.902 Y13.975
X227.408 Y14.207
X226.856 Y14.416
X226.257 Y14.588
X225.625 Y14.716
X224.977 Y14.793
X224.328 Y14.819
X223.694 Y14.792
X223.085 Y14.718
X222.505 Y14.599
X221.96 Y14.441
X221.462 Y14.252
X221.011 Y14.038
X220.6 Y13.8
X220.225 Y13.542
X219.888 Y13.267
X219.595 Y12.986
X219.348 Y12.707
X219.263 Y12.595
X219.181 Y12.458
X219.131 Y12.307
X219.114 Y12.149
Y9.909
Y9.825
X219.117 Y9.784
X219.127 Y9.742
X219.136 Y9.715
X219.152 Y9.68
X219.174 Y9.645
X219.21 Y9.604
X219.245 Y9.574
X219.303 Y9.537
X219.345 Y9.519
X219.387 Y9.508
X219.429 Y9.503
X219.806
X219.974 Y9.501
X220.216 Y9.495
G3 X220.257 Y9.498 I-0.003 J0.317 F1000
G2 X220.288 Y9.501 I0.045 J-0.314
G1 X220.34 Y9.503
X229.609 Y9.908
G2 X229.847 Y9.366 I0.014 J-0.317
G3 X229.829 Y9.319 I0.045 J-0.045
X229.918 Y9.264 I0.063 J0.002
G1 X230.033 Y9.321 F800
X230.201 Y9.384
X230.265 Y9.406
X230.368 Y9.436
X230.396 Y9.442
X230.541 Y9.481
X230.674 Y9.551
X230.793 Y9.642
X230.898 Y9.749
X230.989 Y9.868
X231.068 Y9.996
X231.134 Y10.131
X231.19 Y10.276
X231.236 Y10.43
X231.274 Y10.608
X231.298 Y10.798
X231.308 Y11.006
X231.301 Y11.237
X231.274 Y11.474
X231.224 Y11.732
X231.144 Y12.016
X231.04 Y12.299
X230.9 Y12.6
X230.719 Y12.921
X230.498 Y13.248
X230.241 Y13.569
X229.925 Y13.905
X229.55 Y14.244
X229.121 Y14.574
X228.652 Y14.877
X228.133 Y15.157
X227.549 Y15.413
X226.911 Y15.634
X226.23 Y15.81
X225.522 Y15.934
X224.802 Y16.001
X224.083 Y16.01
X223.378 Y15.961
X222.696 Y15.859
X222.046 Y15.708
X221.437 Y15.513
X220.87 Y15.28
X220.346 Y15.015
X219.873 Y14.724
X219.449 Y14.415
X219.371 Y14.348
X219.232 Y14.188
X219.144 Y13.996
X219.114 Y13.786
Y12.149
G3 X219.363 Y11.85 I0.317 J0.011 F1000
G1 X230.272 Y9.444
G3 X230.396 Y9.442 I0.068 J0.31
G1 X230.536 Y9.472 F800
X230.704 Y9.484
X230.922 Y9.495
X231.071 Y9.51
X231.215 Y9.553
X231.349 Y9.619
X231.474 Y9.703
X231.587 Y9.801
X231.69 Y9.911
X231.782 Y10.029
X231.867 Y10.161
X231.874 Y10.174
X231.922 Y10.286
X231.952 Y10.403
X231.962 Y10.525
G3 X231.424 Y10.742 I-0.317 J-0.011 F1000
G1 X230.697 Y10.041
G3 X230.922 Y9.495 I0.22 J-0.229
G1 X231.039 Y9.501 F800
X231.206 Y9.503
X231.626
X231.668 Y9.505
X231.709 Y9.512
X231.74 Y9.522
X231.771 Y9.535
X231.802 Y9.552
X231.832 Y9.574
X231.877 Y9.615
X231.903 Y9.647
X231.923 Y9.678
X231.938 Y9.71
X231.949 Y9.742
X231.958 Y9.784
X231.962 Y9.825
Y11.921
X231.949 Y12.185
X231.919 Y12.416
X231.862 Y12.681
X231.778 Y12.96
X231.664 Y13.253
X231.505 Y13.581
X231.311 Y13.91
X231.069 Y14.254
X230.764 Y14.622
X230.4 Y14.995
X229.996 Y15.348
X229.532 Y15.691
X228.994 Y16.026
X228.387 Y16.339
X227.719 Y16.618
X227.017 Y16.847
X226.3 Y17.021
X225.572 Y17.142
X224.838 Y17.208
X224.1 Y17.218
X223.363 Y17.173
X222.632 Y17.072
X221.911 Y16.917
X221.208 Y16.706
X220.548 Y16.449
X219.942 Y16.156
X219.536 Y15.917
X219.429 Y15.842
X219.297 Y15.723
X219.197 Y15.577
X219.135 Y15.411
X219.114 Y15.235
Y13.786
G3 X219.383 Y13.484 I0.317 J0.011 F1000
G1 X231.597 Y11.618
G3 X231.962 Y11.921 I0.048 J0.314
G1 Y13.765 F800
X231.952 Y13.957
X231.93 Y14.128
X231.892 Y14.303
X231.829 Y14.514
X231.743 Y14.735
X231.623 Y14.983
X231.467 Y15.248
X231.261 Y15.541
X231.015 Y15.837
X230.687 Y16.174
X230.316 Y16.497
X229.861 Y16.834
X229.309 Y17.178
X228.676 Y17.504
X227.995 Y17.789
X227.295 Y18.02
X226.579 Y18.198
X225.852 Y18.324
X225.118 Y18.401
X224.381 Y18.429
X223.643 Y18.407
X222.909 Y18.336
X222.181 Y18.217
X221.462 Y18.048
X220.758 Y17.83
X220.097 Y17.57
X219.668 Y17.36
X219.477 Y17.247
X219.326 Y17.129
X219.211 Y16.976
X219.138 Y16.799
X219.114 Y16.609
Y15.235
G3 X219.393 Y14.931 I0.317 J0.011 F1000
G1 X231.607 Y13.461
G3 X231.962 Y13.765 I0.038 J0.315
G1 Y15.274 F800
X231.953 Y15.45
X231.934 Y15.599
X231.897 Y15.769
X231.845 Y15.942
X231.765 Y16.148
X231.662 Y16.358
X231.521 Y16.597
X231.343 Y16.85
X231.113 Y17.126
X230.829 Y17.417
X230.456 Y17.742
X230.044 Y18.045
X229.516 Y18.373
X228.894 Y18.693
X228.213 Y18.977
X227.512 Y19.207
X226.796 Y19.388
X226.07 Y19.519
X225.337 Y19.602
X224.6 Y19.64
X223.863 Y19.634
X223.126 Y19.583
X222.395 Y19.488
X221.67 Y19.349
X220.955 Y19.166
X220.259 Y18.939
X219.802 Y18.748
X219.523 Y18.604
X219.463 Y18.567
X219.318 Y18.449
X219.207 Y18.298
X219.137 Y18.124
X219.114 Y17.938
Y16.609
G3 X219.397 Y16.305 I0.317 J0.011 F1000
G1 X231.61 Y14.97
G3 X231.962 Y15.274 I0.035 J0.316
G1 Y16.708 F800
X231.954 Y16.858
X231.933 Y17.006
X231.899 Y17.155
X231.843 Y17.332
X231.766 Y17.523
X231.663 Y17.727
X231.522 Y17.957
X231.354 Y18.19
X231.121 Y18.462
X230.855 Y18.727
X230.498 Y19.029
X230.073 Y19.334
X229.574 Y19.635
X228.961 Y19.94
X228.276 Y20.214
X227.572 Y20.436
X226.855 Y20.609
X226.128 Y20.736
X225.395 Y20.82
X224.658 Y20.86
X223.92 Y20.857
X223.184 Y20.814
X222.451 Y20.73
X221.723 Y20.606
X221.004 Y20.442
X220.296 Y20.235
X219.874 Y20.074
X219.575 Y19.932
X219.484 Y19.88
X219.331 Y19.762
X219.213 Y19.609
X219.139 Y19.43
X219.114 Y19.238
Y17.938
G3 X219.399 Y17.633 I0.317 J0.011 F1000
G1 X231.613 Y16.403
G3 X231.962 Y16.708 I0.032 J0.316
G1 Y18.049 F800
X231.954 Y18.199
X231.933 Y18.347
X231.898 Y18.493
X231.843 Y18.666
X231.768 Y18.847
X231.667 Y19.046
X231.53 Y19.268
X231.364 Y19.494
X231.141 Y19.752
X230.881 Y20.008
X230.539 Y20.294
X230.127 Y20.586
X229.642 Y20.874
X229.039 Y21.17
X228.353 Y21.441
X227.648 Y21.658
X226.93 Y21.828
X226.203 Y21.954
X225.47 Y22.038
X224.733 Y22.081
X223.995 Y22.083
X223.258 Y22.048
X222.524 Y21.974
X221.795 Y21.864
X221.072 Y21.716
X220.36 Y21.527
X219.93 Y21.376
X219.626 Y21.241
X219.5 Y21.172
X219.34 Y21.055
X219.218 Y20.9
X219.14 Y20.718
X219.114 Y20.522
Y19.238
G3 X219.4 Y18.933 I0.317 J0.011 F1000
G1 X231.614 Y17.744
G3 X231.934 Y17.929 I0.031 J0.316
X231.962 Y18.049 I-0.289 J0.132
G1 Y19.39 F800
X231.954 Y19.54
X231.929 Y19.688
X231.89 Y19.84
X231.828 Y20.015
X231.751 Y20.191
X231.638 Y20.398
X231.502 Y20.607
X231.32 Y20.842
X231.101 Y21.083
X230.814 Y21.351
X230.48 Y21.617
X230.035 Y21.916
X229.543 Y22.192
X228.93 Y22.473
X228.237 Y22.727
X227.527 Y22.928
X226.806 Y23.084
X226.077 Y23.197
X225.343 Y23.271
X224.606 Y23.307
X223.868 Y23.306
X223.131 Y23.269
X222.397 Y23.197
X221.667 Y23.089
X220.944 Y22.944
X220.311 Y22.778
X219.901 Y22.635
X219.62 Y22.511
X219.501 Y22.446
X219.341 Y22.329
X219.218 Y22.174
X219.14 Y21.992
X219.114 Y21.795
Y20.522
G3 X219.402 Y20.217 I0.317 J0.011 F1000
G1 X231.615 Y19.085
G3 X231.962 Y19.39 I0.029 J0.316
G1 Y20.639 F800
X231.954 Y20.789
X231.933 Y20.938
X231.898 Y21.084
X231.846 Y21.245
X231.771 Y21.423
X231.676 Y21.608
X231.54 Y21.826
X231.384 Y22.037
X231.167 Y22.286
X230.925 Y22.522
X230.59 Y22.801
X230.223 Y23.059
X229.741 Y23.343
X229.153 Y23.628
X228.465 Y23.896
X227.759 Y24.109
X227.04 Y24.275
X226.312 Y24.397
X225.579 Y24.479
X224.843 Y24.526
X224.105 Y24.537
X223.367 Y24.514
X222.632 Y24.458
X221.899 Y24.368
X221.172 Y24.244
X220.461 Y24.081
X220.02 Y23.942
X219.697 Y23.811
X219.522 Y23.723
X219.354 Y23.607
X219.224 Y23.45
X219.142 Y23.263
X219.114 Y23.061
Y21.795
G3 X219.401 Y21.49 I0.317 J0.011 F1000
G1 X231.615 Y20.334
G3 X231.962 Y20.639 I0.03 J0.316
G1 Y21.905 F800
X231.954 Y22.055
X231.934 Y22.204
X231.899 Y22.35
X231.845 Y22.516
X231.775 Y22.682
X231.675 Y22.878
X231.554 Y23.072
X231.39 Y23.293
X231.191 Y23.522
X230.935 Y23.772
X230.627 Y24.028
X230.226 Y24.31
X229.78 Y24.573
X229.208 Y24.851
X228.521 Y25.119
X227.814 Y25.331
X227.095 Y25.496
X226.367 Y25.619
X225.635 Y25.704
X224.898 Y25.753
X224.161 Y25.768
X223.423 Y25.75
X222.687 Y25.7
X221.954 Y25.618
X221.225 Y25.503
X220.522 Y25.352
X220.057 Y25.212
X219.73 Y25.084
X219.494 Y24.969
X219.478 Y24.96
X219.327 Y24.842
X219.211 Y24.689
X219.139 Y24.512
X219.114 Y24.322
Y23.061
G3 X219.401 Y22.756 I0.317 J0.011 F1000
G1 X231.615 Y21.6
G3 X231.962 Y21.905 I0.03 J0.316
G1 Y23.154 F800
X231.954 Y23.304
X231.935 Y23.453
X231.901 Y23.599
X231.849 Y23.76
X231.782 Y23.924
X231.683 Y24.118
X231.563 Y24.312
X231.403 Y24.532
X231.21 Y24.755
X230.96 Y25.002
X230.663 Y25.25
X230.271 Y25.529
X229.839 Y25.787
X229.28 Y26.061
X228.603 Y26.329
X227.898 Y26.544
X227.179 Y26.712
X226.452 Y26.838
X225.72 Y26.926
X224.984 Y26.979
X224.246 Y26.999
X223.508 Y26.987
X222.772 Y26.944
X222.038 Y26.871
X221.308 Y26.764
X220.584 Y26.619
X220.089 Y26.476
X219.761 Y26.353
X219.528 Y26.243
X219.486 Y26.22
X219.332 Y26.102
X219.214 Y25.949
X219.139 Y25.769
X219.114 Y25.577
Y24.322
G3 X219.401 Y24.017 I0.317 J0.011 F1000
G1 X231.614 Y22.849
G3 X231.962 Y23.154 I0.03 J0.316
G1 Y24.42 F800
X231.954 Y24.57
X231.933 Y24.718
X231.898 Y24.864
X231.847 Y25.02
X231.776 Y25.189
X231.675 Y25.384
X231.555 Y25.575
X231.389 Y25.799
X231.2 Y26.014
X230.938 Y26.269
X230.65 Y26.507
X230.251 Y26.786
X229.812 Y27.043
X229.256 Y27.312
X228.57 Y27.577
X227.863 Y27.787
X227.143 Y27.951
X226.416 Y28.073
X225.683 Y28.159
X224.947 Y28.211
X224.209 Y28.231
X223.472 Y28.221
X222.735 Y28.18
X222 Y28.109
X221.27 Y28.005
X220.572 Y27.865
X220.089 Y27.728
X219.76 Y27.605
X219.529 Y27.496
X219.487 Y27.473
X219.333 Y27.355
X219.214 Y27.201
X219.139 Y27.022
X219.114 Y26.829
Y25.577
G3 X219.401 Y25.272 I0.317 J0.011 F1000
G1 X231.615 Y24.115
G3 X231.962 Y24.42 I0.03 J0.316
G1 Y25.669 F800
X231.954 Y25.819
X231.933 Y25.968
X231.898 Y26.113
X231.846 Y26.27
X231.776 Y26.436
X231.675 Y26.63
X231.555 Y26.821
X231.39 Y27.043
X231.2 Y27.259
X230.941 Y27.509
X230.652 Y27.747
X230.252 Y28.026
X229.822 Y28.277
X229.263 Y28.546
X228.577 Y28.81
X227.869 Y29.019
X227.15 Y29.181
X226.422 Y29.303
X225.689 Y29.389
X224.953 Y29.442
X224.216 Y29.465
X223.478 Y29.457
X222.741 Y29.42
X222.006 Y29.352
X221.276 Y29.251
X220.582 Y29.116
X220.099 Y28.98
X219.769 Y28.858
X219.537 Y28.751
X219.49 Y28.724
X219.334 Y28.607
X219.215 Y28.452
X219.139 Y28.272
X219.114 Y28.079
Y26.829
G3 X219.401 Y26.524 I0.317 J0.011 F1000
G1 X231.615 Y25.364
G3 X231.962 Y25.669 I0.03 J0.316
G1 Y26.935 F800
X231.954 Y27.085
X231.931 Y27.233
X231.893 Y27.381
X231.839 Y27.537
X231.764 Y27.707
X231.659 Y27.902
X231.534 Y28.095
X231.362 Y28.319
X231.167 Y28.534
X230.898 Y28.788
X230.602 Y29.025
X230.196 Y29.299
X229.739 Y29.557
X229.171 Y29.821
X228.479 Y30.076
X227.769 Y30.277
X227.047 Y30.432
X226.319 Y30.548
X225.585 Y30.629
X224.849 Y30.679
X224.112 Y30.699
X223.374 Y30.689
X222.637 Y30.651
X221.902 Y30.583
X221.172 Y30.481
X220.518 Y30.348
X220.065 Y30.217
X219.742 Y30.095
X219.515 Y29.988
X219.485 Y29.971
X219.331 Y29.853
X219.213 Y29.699
X219.139 Y29.52
X219.114 Y29.328
Y28.079
G3 X219.401 Y27.774 I0.317 J0.011 F1000
G1 X231.615 Y26.63
G3 X231.934 Y26.814 I0.03 J0.316
X231.962 Y26.935 I-0.289 J0.132
G1 Y28.184 F800
X231.954 Y28.334
X231.93 Y28.482
X231.891 Y28.627
X231.834 Y28.789
X231.761 Y28.955
X231.654 Y29.15
X231.528 Y29.344
X231.356 Y29.565
X231.155 Y29.785
X230.889 Y30.033
X230.584 Y30.274
X230.171 Y30.551
X229.723 Y30.801
X229.143 Y31.066
X228.449 Y31.318
X227.738 Y31.516
X227.017 Y31.669
X226.288 Y31.784
X225.554 Y31.864
X224.818 Y31.914
X224.081 Y31.934
X223.343 Y31.926
X222.606 Y31.889
X221.871 Y31.822
X221.141 Y31.72
X220.501 Y31.589
X220.054 Y31.46
X219.735 Y31.339
X219.51 Y31.233
X219.485 Y31.218
X219.331 Y31.1
X219.213 Y30.947
X219.139 Y30.768
X219.114 Y30.576
Y29.328
G3 X219.401 Y29.023 I0.317 J0.011 F1000
G1 X231.615 Y27.879
G3 X231.934 Y28.064 I0.03 J0.316
X231.962 Y28.184 I-0.289 J0.132
G1 Y29.358 F800
X231.954 Y29.522
X231.934 Y29.671
X231.901 Y29.817
X231.85 Y29.976
X231.783 Y30.137
X231.69 Y30.32
X231.567 Y30.518
X231.416 Y30.724
X231.221 Y30.95
X230.988 Y31.179
X230.688 Y31.43
X230.33 Y31.684
X229.889 Y31.946
X229.336 Y32.217
X228.668 Y32.48
X227.962 Y32.694
X227.243 Y32.861
X226.516 Y32.986
X225.784 Y33.077
X225.049 Y33.135
X224.311 Y33.165
X223.574 Y33.167
X222.836 Y33.141
X222.1 Y33.085
X221.368 Y32.996
X220.646 Y32.866
X220.145 Y32.734
X219.813 Y32.617
X219.572 Y32.51
X219.5 Y32.471
X219.34 Y32.354
X219.218 Y32.198
X219.14 Y32.016
X219.114 Y31.82
Y30.576
G3 X219.4 Y30.271 I0.317 J0.011 F1000
G1 X231.613 Y29.053
G3 X231.962 Y29.358 I0.032 J0.316
G1 Y30.624 F800
X231.954 Y30.773
X231.933 Y30.922
X231.898 Y31.068
X231.848 Y31.22
X231.776 Y31.388
X231.679 Y31.574
X231.56 Y31.764
X231.396 Y31.984
X231.209 Y32.196
X230.951 Y32.446
X230.666 Y32.681
X230.277 Y32.952
X229.836 Y33.209
X229.29 Y33.471
X228.609 Y33.733
X227.902 Y33.942
X227.182 Y34.104
X226.454 Y34.227
X225.722 Y34.315
X224.986 Y34.373
X224.249 Y34.402
X223.511 Y34.403
X222.774 Y34.377
X222.038 Y34.32
X221.306 Y34.23
X220.628 Y34.106
X220.139 Y33.976
X219.802 Y33.856
X219.566 Y33.751
X219.498 Y33.713
X219.339 Y33.596
X219.217 Y33.441
X219.14 Y33.26
X219.114 Y33.064
Y31.82
G3 X219.4 Y31.515 I0.317 J0.011 F1000
G1 X231.614 Y30.319
G3 X231.962 Y30.624 I0.031 J0.316
G1 Y31.873 F800
X231.954 Y32.022
X231.932 Y32.171
X231.895 Y32.317
X231.842 Y32.471
X231.769 Y32.639
X231.667 Y32.831
X231.545 Y33.021
X231.376 Y33.244
X231.185 Y33.457
X230.922 Y33.707
X230.632 Y33.941
X230.233 Y34.214
X229.788 Y34.468
X229.229 Y34.73
X228.538 Y34.989
X227.829 Y35.192
X227.108 Y35.35
X226.38 Y35.469
X225.648 Y35.555
X224.912 Y35.611
X224.174 Y35.639
X223.437
X222.699 Y35.612
X221.964 Y35.554
X221.232 Y35.462
X220.575 Y35.338
X220.109 Y35.21
X219.777 Y35.09
X219.547 Y34.984
X219.494 Y34.955
X219.337 Y34.837
X219.216 Y34.683
X219.14 Y34.502
X219.114 Y34.308
Y33.064
G3 X219.142 Y32.943 I0.317 J0.011 F1000
X219.4 Y32.759 I0.289 J0.132
G1 X231.614 Y31.568
G3 X231.962 Y31.873 I0.031 J0.316
G1 Y33.138 F800
X231.954 Y33.288
X231.928 Y33.436
X231.887 Y33.585
X231.83 Y33.743
X231.752 Y33.914
X231.643 Y34.11
X231.514 Y34.303
X231.335 Y34.529
X231.134 Y34.744
X230.857 Y34.998
X230.553 Y35.234
X230.138 Y35.506
X229.663 Y35.765
X229.08 Y36.025
X228.384 Y36.27
X227.671 Y36.463
X226.949 Y36.612
X226.22 Y36.724
X225.486 Y36.803
X224.75 Y36.854
X224.013 Y36.876
X223.275 Y36.872
X222.538 Y36.84
X221.802 Y36.778
X221.071 Y36.68
X220.431 Y36.546
X220.027 Y36.426
X219.716 Y36.307
X219.493 Y36.2
X219.482 Y36.193
X219.329 Y36.076
X219.212 Y35.923
X219.139 Y35.744
X219.114 Y35.553
Y34.308
G3 X219.142 Y34.187 I0.317 J0.011 F1000
X219.401 Y34.003 I0.289 J0.132
G1 X231.614 Y32.833
G3 X231.934 Y33.018 I0.03 J0.316
X231.962 Y33.138 I-0.289 J0.132
G1 Y34.387 F800
X231.954 Y34.537
X231.927 Y34.685
X231.886 Y34.829
X231.824 Y34.996
X231.747 Y35.162
X231.636 Y35.357
X231.502 Y35.555
X231.325 Y35.775
X231.112 Y36
X230.839 Y36.246
X230.519 Y36.491
X230.094 Y36.765
X229.628 Y37.015
X229.022 Y37.28
X228.324 Y37.52
X227.611 Y37.709
X226.888 Y37.855
X226.158 Y37.965
X225.425 Y38.043
X224.688 Y38.092
X223.951 Y38.114
X223.213 Y38.109
X222.476 Y38.077
X221.741 Y38.013
X221.01 Y37.91
X220.399 Y37.779
X220 Y37.659
X219.697 Y37.542
X219.531 Y37.461
X219.36 Y37.346
X219.227 Y37.188
X219.143 Y36.999
X219.114 Y36.795
Y35.553
G3 X219.401 Y35.248 I0.317 J0.011 F1000
G1 X231.614 Y34.082
G3 X231.962 Y34.387 I0.03 J0.316
G1 Y35.561 F800
X231.954 Y35.711
X231.933 Y35.859
X231.898 Y36.005
X231.846 Y36.162
X231.774 Y36.33
X231.681 Y36.509
X231.551 Y36.714
X231.4 Y36.915
X231.194 Y37.149
X230.963 Y37.371
X230.646 Y37.631
X230.295 Y37.874
X229.833 Y38.142
X229.265 Y38.413
X228.582 Y38.674
X227.874 Y38.881
X227.154 Y39.042
X226.426 Y39.164
X225.694 Y39.254
X224.959 Y39.313
X224.222 Y39.345
X223.484 Y39.351
X222.746 Y39.329
X222.01 Y39.277
X221.278 Y39.19
X220.594 Y39.065
X220.135 Y38.944
X219.796 Y38.823
X219.562 Y38.719
X219.499 Y38.684
X219.34 Y38.567
X219.217 Y38.412
X219.14 Y38.23
X219.114 Y38.034
Y36.795
G3 X219.399 Y36.49 I0.317 J0.011 F1000
G1 X231.613 Y35.256
G3 X231.962 Y35.561 I0.032 J0.316
G1 Y36.827 F800
X231.954 Y36.977
X231.93 Y37.125
X231.89 Y37.274
X231.834 Y37.431
X231.757 Y37.603
X231.654 Y37.791
X231.526 Y37.984
X231.352 Y38.207
X231.153 Y38.423
X230.88 Y38.676
X230.577 Y38.914
X230.169 Y39.185
X229.697 Y39.447
X229.125 Y39.706
X228.43 Y39.956
X227.719 Y40.152
X226.997 Y40.304
X226.268 Y40.42
X225.535 Y40.503
X224.799 Y40.557
X224.062 Y40.585
X223.324
X222.587 Y40.558
X221.851 Y40.501
X221.12 Y40.408
X220.474 Y40.279
X220.057 Y40.16
X219.739 Y40.041
X219.514 Y39.935
X219.487 Y39.92
X219.333 Y39.802
X219.214 Y39.648
X219.139 Y39.469
X219.114 Y39.277
Y38.034
G3 X219.4 Y37.729 I0.317 J0.011 F1000
G1 X231.613 Y36.522
G3 X231.962 Y36.827 I0.031 J0.316
G1 Y38.076 F800
X231.954 Y38.226
X231.928 Y38.373
X231.888 Y38.518
X231.827 Y38.683
X231.751 Y38.849
X231.641 Y39.046
X231.51 Y39.24
X231.335 Y39.462
X231.126 Y39.684
X230.854 Y39.932
X230.541 Y40.175
X230.118 Y40.45
X229.658 Y40.7
X229.06 Y40.965
X228.364 Y41.209
X227.651 Y41.401
X226.929 Y41.55
X226.2 Y41.663
X225.466 Y41.744
X224.731 Y41.797
X223.993 Y41.823
X223.255 Y41.822
X222.518 Y41.794
X221.783 Y41.735
X221.051 Y41.637
X220.433 Y41.509
X220.025 Y41.39
X219.716 Y41.272
X219.495 Y41.167
X219.483 Y41.16
X219.33 Y41.042
X219.213 Y40.888
X219.139 Y40.71
X219.114 Y40.519
Y39.277
G3 X219.4 Y38.972 I0.317 J0.011 F1000
G1 X231.614 Y37.771
G3 X231.934 Y37.955 I0.031 J0.316
X231.962 Y38.076 I-0.289 J0.132
G1 Y39.25 F800
X231.954 Y39.399
X231.934 Y39.548
X231.9 Y39.694
X231.849 Y39.851
X231.779 Y40.016
X231.687 Y40.195
X231.56 Y40.399
X231.411 Y40.6
X231.208 Y40.832
X230.98 Y41.055
X230.668 Y41.313
X230.319 Y41.558
X229.865 Y41.825
X229.303 Y42.097
X228.628 Y42.359
X227.921 Y42.571
X227.202 Y42.735
X226.475 Y42.861
X225.743 Y42.954
X225.007 Y43.017
X224.271 Y43.053
X223.533 Y43.062
X222.795 Y43.045
X222.059 Y42.997
X221.326 Y42.915
X220.632 Y42.794
X220.143 Y42.667
X219.817 Y42.554
X219.577 Y42.449
X219.503 Y42.409
X219.342 Y42.292
X219.219 Y42.137
X219.14 Y41.954
X219.114 Y41.757
Y40.519
G3 X219.398 Y40.214 I0.317 J0.011 F1000
G1 X231.612 Y38.945
G3 X231.962 Y39.25 I0.033 J0.316
G1 Y40.515 F800
X231.954 Y40.665
X231.931 Y40.813
X231.892 Y40.963
X231.838 Y41.117
X231.763 Y41.288
X231.662 Y41.474
X231.536 Y41.668
X231.366 Y41.888
X231.17 Y42.105
X230.902 Y42.356
X230.603 Y42.595
X230.203 Y42.865
X229.735 Y43.128
X229.172 Y43.387
X228.479 Y43.642
X227.769 Y43.842
X227.048 Y43.998
X226.32 Y44.117
X225.587 Y44.204
X224.852 Y44.262
X224.115 Y44.293
X223.377 Y44.298
X222.639 Y44.275
X221.903 Y44.222
X221.171 Y44.134
X220.521 Y44.009
X220.088 Y43.89
X219.763 Y43.771
X219.536 Y43.667
X219.493 Y43.643
X219.336 Y43.526
X219.215 Y43.371
X219.14 Y43.191
X219.114 Y42.997
Y41.757
G3 X219.399 Y41.452 I0.317 J0.011 F1000
G1 X231.613 Y40.211
G3 X231.962 Y40.515 I0.032 J0.316
G1 Y41.764 F800
X231.954 Y41.914
X231.929 Y42.062
X231.89 Y42.208
X231.832 Y42.369
X231.756 Y42.536
X231.648 Y42.732
X231.521 Y42.924
X231.346 Y43.147
X231.143 Y43.367
X230.872 Y43.617
X230.567 Y43.856
X230.15 Y44.132
X229.694 Y44.383
X229.105 Y44.648
X228.41 Y44.897
X227.699 Y45.092
X226.977 Y45.245
X226.248 Y45.361
X225.516 Y45.446
X224.78 Y45.503
X224.043 Y45.532
X223.305 Y45.535
X222.567 Y45.511
X221.832 Y45.456
X221.1 Y45.362
X220.473 Y45.237
X220.053 Y45.118
X219.738 Y45
X219.514 Y44.896
X219.488 Y44.881
X219.333 Y44.763
X219.214 Y44.609
X219.139 Y44.43
X219.114 Y44.237
Y42.997
G3 X219.399 Y42.692 I0.317 J0.011 F1000
G1 X231.613 Y41.46
G3 X231.962 Y41.764 I0.032 J0.316
G1 Y42.938 F800
X231.954 Y43.091
X231.935 Y43.24
X231.902 Y43.386
X231.851 Y43.544
X231.784 Y43.706
X231.692 Y43.886
X231.568 Y44.087
X231.419 Y44.289
X231.221 Y44.518
X230.993 Y44.743
X230.687 Y44.998
X230.338 Y45.246
X229.89 Y45.512
X229.334 Y45.785
X228.661 Y46.05
X227.955 Y46.265
X227.236 Y46.432
X226.51 Y46.561
X225.778 Y46.656
X225.044 Y46.723
X224.307 Y46.762
X223.569 Y46.774
X222.831 Y46.76
X222.095 Y46.715
X221.361 Y46.636
X220.661 Y46.518
X220.165 Y46.392
X219.834 Y46.279
X219.59 Y46.173
X219.506 Y46.129
X219.344 Y46.012
X219.219 Y45.856
X219.141 Y45.673
X219.114 Y45.475
Y44.237
G3 X219.397 Y43.932 I0.317 J0.011 F1000
G1 X231.611 Y42.633
G3 X231.934 Y42.817 I0.034 J0.316
X231.962 Y42.938 I-0.289 J0.132
G1 Y44.204 F800
X231.954 Y44.354
X231.932 Y44.502
X231.895 Y44.651
X231.843 Y44.802
X231.769 Y44.973
X231.671 Y45.157
X231.548 Y45.351
X231.382 Y45.57
X231.189 Y45.785
X230.927 Y46.035
X230.632 Y46.274
X230.238 Y46.544
X229.779 Y46.807
X229.223 Y47.068
X228.533 Y47.328
X227.824 Y47.532
X227.104 Y47.692
X226.376 Y47.815
X225.644 Y47.906
X224.909 Y47.968
X224.172 Y48.002
X223.434 Y48.011
X222.696 Y47.992
X221.96 Y47.943
X221.227 Y47.858
X220.573 Y47.738
X220.119 Y47.617
X219.787 Y47.498
X219.557 Y47.395
X219.498 Y47.362
X219.339 Y47.245
X219.217 Y47.09
X219.14 Y46.909
X219.114 Y46.713
Y45.475
G3 X219.142 Y45.354 I0.317 J0.011 F1000
X219.398 Y45.17 I0.289 J0.132
G1 X231.612 Y43.899
G3 X231.962 Y44.204 I0.033 J0.316
G1 Y45.453 F800
X231.954 Y45.603
X231.93 Y45.751
X231.892 Y45.897
X231.837 Y46.055
X231.762 Y46.222
X231.657 Y46.417
X231.533 Y46.608
X231.359 Y46.832
X231.163 Y47.048
X230.894 Y47.3
X230.597 Y47.536
X230.186 Y47.812
X229.735 Y48.065
X229.156 Y48.331
X228.463 Y48.584
X227.753 Y48.784
X227.032 Y48.94
X226.304 Y49.061
X225.571 Y49.149
X224.836 Y49.209
X224.099 Y49.242
X223.361 Y49.248
X222.623 Y49.227
X221.887 Y49.176
X221.155 Y49.087
X220.518 Y48.965
X220.083 Y48.844
X219.76 Y48.726
X219.534 Y48.622
X219.492 Y48.599
X219.336 Y48.482
X219.215 Y48.327
X219.14 Y48.147
X219.114 Y47.953
Y46.713
G3 X219.398 Y46.409 I0.317 J0.011 F1000
G1 X231.612 Y45.148
G3 X231.962 Y45.453 I0.033 J0.316
G1 Y46.627 F800
X231.954 Y46.793
X231.934 Y46.942
X231.901 Y47.088
X231.849 Y47.247
X231.784 Y47.407
X231.69 Y47.59
X231.569 Y47.787
X231.417 Y47.994
X231.222 Y48.218
X230.988 Y48.448
X230.689 Y48.699
X230.329 Y48.954
X229.888 Y49.216
X229.332 Y49.489
X228.654 Y49.756
X227.948 Y49.971
X227.229 Y50.139
X226.503 Y50.269
X225.772 Y50.366
X225.037 Y50.433
X224.3 Y50.473
X223.563 Y50.487
X222.825 Y50.473
X222.088 Y50.429
X221.355 Y50.351
X220.663 Y50.234
X220.168 Y50.108
X219.834 Y49.995
X219.592 Y49.889
X219.507 Y49.844
X219.345 Y49.727
X219.22 Y49.572
X219.141 Y49.388
X219.114 Y49.19
Y47.953
G3 X219.397 Y47.648 I0.317 J0.011 F1000
G1 X231.61 Y46.322
G3 X231.962 Y46.627 I0.034 J0.316
G1 Y47.892 F800
X231.954 Y48.042
X231.934 Y48.191
X231.898 Y48.337
X231.848 Y48.488
X231.777 Y48.656
X231.68 Y48.842
X231.561 Y49.033
X231.398 Y49.252
X231.211 Y49.464
X230.953 Y49.715
X230.668 Y49.949
X230.276 Y50.223
X229.837 Y50.479
X229.283 Y50.746
X228.595 Y51.011
X227.887 Y51.221
X227.168 Y51.386
X226.441 Y51.514
X225.71 Y51.608
X224.975 Y51.674
X224.238 Y51.712
X223.5 Y51.724
X222.763 Y51.709
X222.026 Y51.663
X221.293 Y51.582
X220.635 Y51.467
X220.154 Y51.342
X219.816 Y51.225
X219.58 Y51.122
X219.503 Y51.08
X219.342 Y50.963
X219.219 Y50.808
X219.14 Y50.625
X219.114 Y50.428
Y49.19
G3 X219.398 Y48.886 I0.317 J0.011 F1000
G1 X231.611 Y47.588
G3 X231.934 Y47.772 I0.034 J0.316
X231.962 Y47.892 I-0.289 J0.132
G1 Y49.141 F800
X231.954 Y49.291
X231.932 Y49.44
X231.895 Y49.586
X231.843 Y49.739
X231.77 Y49.908
X231.668 Y50.1
X231.546 Y50.29
X231.377 Y50.513
X231.186 Y50.726
X230.922 Y50.978
X230.632 Y51.212
X230.23 Y51.488
X229.784 Y51.743
X229.216 Y52.01
X228.525 Y52.269
X227.817 Y52.474
X227.097 Y52.635
X226.369 Y52.76
X225.637 Y52.852
X224.902 Y52.915
X224.165 Y52.952
X223.428 Y52.962
X222.69 Y52.945
X221.954 Y52.896
X221.221 Y52.811
X220.573 Y52.692
X220.117 Y52.57
X219.786 Y52.452
X219.556 Y52.348
X219.497 Y52.316
X219.339 Y52.199
X219.217 Y52.044
X219.14 Y51.862
X219.114 Y51.667
Y50.428
G3 X219.398 Y50.123 I0.317 J0.011 F1000
G1 X231.611 Y48.837
G3 X231.962 Y49.141 I0.033 J0.316
G1 Y50.407 F800
X231.954 Y50.557
X231.929 Y50.705
X231.888 Y50.854
X231.831 Y51.012
X231.753 Y51.183
X231.644 Y51.379
X231.515 Y51.573
X231.336 Y51.799
X231.136 Y52.015
X230.857 Y52.27
X230.553 Y52.507
X230.135 Y52.781
X229.658 Y53.043
X229.064 Y53.308
X228.369 Y53.554
X227.657 Y53.749
X226.935 Y53.901
X226.207 Y54.018
X225.474 Y54.104
X224.738 Y54.162
X224.001 Y54.193
X223.263 Y54.197
X222.526 Y54.174
X221.79 Y54.119
X221.058 Y54.026
X220.429 Y53.897
X220.031 Y53.782
X219.722 Y53.664
X219.499 Y53.559
X219.484 Y53.55
X219.331 Y53.432
X219.213 Y53.279
X219.139 Y53.1
X219.114 Y52.908
Y51.667
G3 X219.398 Y51.362 I0.317 J0.011 F1000
G1 X231.612 Y50.102
G3 X231.962 Y50.407 I0.033 J0.316
G1 Y51.656 F800
X231.954 Y51.806
X231.927 Y51.954
X231.887 Y52.098
X231.825 Y52.265
X231.748 Y52.431
X231.638 Y52.626
X231.504 Y52.825
X231.328 Y53.044
X231.115 Y53.271
X230.844 Y53.517
X230.52 Y53.765
X230.096 Y54.04
X229.625 Y54.294
X229.011 Y54.564
X228.314 Y54.806
X227.602 Y54.997
X226.879 Y55.147
X226.15 Y55.262
X225.417 Y55.346
X224.682 Y55.402
X223.945 Y55.432
X223.207 Y55.435
X222.469 Y55.41
X221.734 Y55.352
X221.002 Y55.254
X220.397 Y55.127
X220.005 Y55.011
X219.703 Y54.895
X219.481 Y54.788
X219.329 Y54.671
X219.212 Y54.517
X219.139 Y54.339
X219.114 Y54.149
Y52.908
G3 X219.399 Y52.604 I0.317 J0.011 F1000
G1 X231.612 Y51.352
G3 X231.962 Y51.656 I0.032 J0.316
G1 Y52.83 F800
X231.954 Y52.98
X231.934 Y53.128
X231.899 Y53.274
X231.847 Y53.431
X231.776 Y53.599
X231.684 Y53.778
X231.554 Y53.984
X231.405 Y54.185
X231.199 Y54.419
X230.969 Y54.642
X230.65 Y54.905
X230.301 Y55.148
X229.837 Y55.42
X229.265 Y55.695
X228.576 Y55.96
X227.869 Y56.17
X227.15 Y56.334
X226.423 Y56.461
X225.691 Y56.556
X224.956 Y56.622
X224.219 Y56.661
X223.482 Y56.674
X222.744 Y56.659
X222.008 Y56.613
X221.274 Y56.531
X220.602 Y56.412
X220.125 Y56.288
X219.804 Y56.176
X219.568 Y56.072
X219.502 Y56.036
X219.342 Y55.919
X219.218 Y55.763
X219.14 Y55.581
X219.114 Y55.384
Y54.149
G3 X219.397 Y53.844 I0.317 J0.011 F1000
G1 X231.611 Y52.525
G3 X231.934 Y52.709 I0.034 J0.316
X231.962 Y52.83 I-0.289 J0.132
G1 Y54.096 F800
X231.954 Y54.246
X231.931 Y54.394
X231.891 Y54.543
X231.837 Y54.699
X231.761 Y54.87
X231.659 Y55.059
X231.532 Y55.252
X231.36 Y55.475
X231.163 Y55.691
X230.891 Y55.946
X230.591 Y56.184
X230.181 Y56.459
X229.714 Y56.721
X229.137 Y56.986
X228.444 Y57.239
X227.734 Y57.439
X227.013 Y57.596
X226.285 Y57.717
X225.552 Y57.807
X224.817 Y57.868
X224.08 Y57.902
X223.342 Y57.91
X222.605 Y57.89
X221.869 Y57.839
X221.136 Y57.751
X220.496 Y57.627
X220.075 Y57.51
X219.755 Y57.393
X219.529 Y57.289
X219.492 Y57.268
X219.335 Y57.151
X219.215 Y56.997
X219.14 Y56.816
X219.114 Y56.622
Y55.384
G3 X219.398 Y55.08 I0.317 J0.011 F1000
G1 X231.611 Y53.791
G3 X231.962 Y54.096 I0.033 J0.316
G1 Y55.345 F800
X231.954 Y55.495
X231.929 Y55.642
X231.89 Y55.787
X231.831 Y55.951
X231.756 Y56.117
X231.648 Y56.313
X231.519 Y56.507
X231.346 Y56.728
X231.14 Y56.951
X230.871 Y57.199
X230.56 Y57.443
X230.141 Y57.72
X229.683 Y57.973
X229.085 Y58.243
X228.39 Y58.491
X227.679 Y58.688
X226.957 Y58.842
X226.229 Y58.961
X225.497 Y59.049
X224.761 Y59.109
X224.024 Y59.141
X223.286 Y59.147
X222.549 Y59.126
X221.813 Y59.073
X221.081 Y58.98
X220.461 Y58.857
X220.047 Y58.739
X219.735 Y58.623
X219.513 Y58.519
X219.488 Y58.505
X219.333 Y58.387
X219.214 Y58.233
X219.139 Y58.054
X219.114 Y57.861
Y56.622
G3 X219.398 Y56.318 I0.317 J0.011 F1000
G1 X231.612 Y55.04
G3 X231.962 Y55.345 I0.033 J0.316
G1 Y56.518 F800
X231.954 Y56.673
X231.935 Y56.821
X231.902 Y56.968
X231.851 Y57.125
X231.783 Y57.289
X231.691 Y57.469
X231.566 Y57.671
X231.418 Y57.874
X231.218 Y58.104
X230.99 Y58.329
X230.681 Y58.587
X230.332 Y58.835
X229.88 Y59.104
X229.318 Y59.379
X228.636 Y59.648
X227.93 Y59.863
X227.212 Y60.031
X226.486 Y60.162
X225.755 Y60.26
X225.02 Y60.329
X224.283 Y60.37
X223.546 Y60.385
X222.808 Y60.373
X222.072 Y60.33
X221.338 Y60.252
X220.649 Y60.136
X220.159 Y60.011
X219.83 Y59.899
X219.588 Y59.794
X219.506 Y59.751
X219.344 Y59.634
X219.219 Y59.478
X219.141 Y59.295
X219.114 Y59.097
Y57.861
G3 X219.396 Y57.556 I0.317 J0.011 F1000
G1 X231.61 Y56.214
G3 X231.962 Y56.518 I0.035 J0.316
G1 Y57.784 F800
X231.954 Y57.934
X231.932 Y58.082
X231.895 Y58.23
X231.844 Y58.383
X231.771 Y58.553
X231.673 Y58.739
X231.55 Y58.931
X231.384 Y59.152
X231.193 Y59.367
X230.929 Y59.619
X230.637 Y59.857
X230.239 Y60.13
X229.785 Y60.392
X229.224 Y60.658
X228.533 Y60.919
X227.825 Y61.125
X227.106 Y61.288
X226.379 Y61.414
X225.647 Y61.508
X224.912 Y61.573
X224.175 Y61.611
X223.437 Y61.622
X222.7 Y61.606
X221.963 Y61.56
X221.23 Y61.477
X220.58 Y61.359
X220.124 Y61.239
X219.792 Y61.121
X219.562 Y61.018
X219.499 Y60.984
X219.34 Y60.867
X219.217 Y60.712
X219.14 Y60.53
X219.114 Y60.334
Y59.097
G3 X219.397 Y58.792 I0.317 J0.011 F1000
G1 X231.611 Y57.48
G3 X231.962 Y57.784 I0.034 J0.316
G1 Y59.033 F800
X231.954 Y59.183
X231.931 Y59.331
X231.893 Y59.477
X231.839 Y59.634
X231.765 Y59.802
X231.661 Y59.997
X231.537 Y60.187
X231.366 Y60.411
X231.17 Y60.627
X230.903 Y60.879
X230.607 Y61.117
X230.197 Y61.394
X229.748 Y61.648
X229.168 Y61.917
X228.476 Y62.173
X227.767 Y62.376
X227.047 Y62.535
X226.319 Y62.659
X225.587 Y62.751
X224.852 Y62.814
X224.115 Y62.85
X223.377 Y62.86
X222.64 Y62.843
X221.904 Y62.794
X221.171 Y62.707
X220.535 Y62.587
X220.094 Y62.467
X219.77 Y62.35
X219.542 Y62.246
X219.495 Y62.22
X219.337 Y62.102
X219.216 Y61.948
X219.14 Y61.767
X219.114 Y61.572
Y60.334
G3 X219.142 Y60.213 I0.317 J0.011 F1000
X219.397 Y60.029 I0.289 J0.132
G1 X231.611 Y58.729
G3 X231.962 Y59.033 I0.034 J0.316
G1 Y60.299 F800
X231.954 Y60.449
X231.928 Y60.596
X231.887 Y60.745
X231.828 Y60.906
X231.749 Y61.076
X231.638 Y61.275
X231.507 Y61.469
X231.327 Y61.696
X231.123 Y61.913
X230.842 Y62.169
X230.533 Y62.408
X230.108 Y62.684
X229.628 Y62.945
X229.023 Y63.213
X228.326 Y63.456
X227.614 Y63.649
X226.892 Y63.8
X226.164 Y63.917
X225.431 Y64.003
X224.695 Y64.06
X223.958 Y64.091
X223.22 Y64.096
X222.483 Y64.072
X221.747 Y64.017
X221.015 Y63.921
X220.397 Y63.792
X220.011 Y63.678
X219.708 Y63.562
X219.482 Y63.453
X219.329 Y63.335
X219.212 Y63.182
X219.139 Y63.004
X219.114 Y62.813
Y61.572
G3 X219.398 Y61.267 I0.317 J0.011 F1000
G1 X231.612 Y59.994
G3 X231.962 Y60.299 I0.033 J0.316
G1 Y61.473 F800
X231.954 Y61.622
X231.934 Y61.771
X231.901 Y61.917
X231.85 Y62.073
X231.781 Y62.24
X231.69 Y62.417
X231.563 Y62.622
X231.415 Y62.823
X231.211 Y63.057
X230.984 Y63.28
X230.668 Y63.543
X230.324 Y63.786
X229.864 Y64.058
X229.298 Y64.334
X228.619 Y64.6
X227.913 Y64.813
X227.194 Y64.981
X226.468 Y65.111
X225.736 Y65.208
X225.002 Y65.277
X224.265 Y65.319
X223.527 Y65.334
X222.79 Y65.321
X222.053 Y65.279
X221.319 Y65.201
X220.636 Y65.084
X220.149 Y64.96
X219.824 Y64.848
X219.582 Y64.743
X219.505 Y64.702
X219.344 Y64.585
X219.219 Y64.43
X219.141 Y64.246
X219.114 Y64.049
Y62.813
G3 X219.396 Y62.509 I0.317 J0.011 F1000
G1 X231.61 Y61.168
G3 X231.962 Y61.473 I0.035 J0.316
G1 Y62.722 F800
X231.954 Y62.872
X231.933 Y63.02
X231.898 Y63.166
X231.846 Y63.32
X231.775 Y63.488
X231.678 Y63.675
X231.559 Y63.864
X231.393 Y64.086
X231.206 Y64.298
X230.945 Y64.551
X230.658 Y64.787
X230.26 Y65.063
X229.822 Y65.318
X229.263 Y65.587
X228.574 Y65.851
X227.867 Y66.061
X227.147 Y66.226
X226.421 Y66.354
X225.689 Y66.45
X224.955 Y66.518
X224.218 Y66.558
X223.48 Y66.572
X222.743 Y66.558
X222.006 Y66.514
X221.273 Y66.433
X220.622 Y66.319
X220.147 Y66.196
X219.812 Y66.08
X219.578 Y65.977
X219.503 Y65.937
X219.342 Y65.82
X219.219 Y65.665
X219.14 Y65.482
X219.114 Y65.285
Y64.049
G3 X219.142 Y63.928 I0.317 J0.011 F1000
X219.397 Y63.744 I0.289 J0.132
G1 X231.61 Y62.417
G3 X231.934 Y62.601 I0.034 J0.316
X231.962 Y62.722 I-0.289 J0.132
G1 Y63.988 F800
X231.954 Y64.137
X231.93 Y64.285
X231.891 Y64.434
X231.836 Y64.589
X231.76 Y64.761
X231.654 Y64.955
X231.527 Y65.149
X231.353 Y65.373
X231.155 Y65.589
X230.883 Y65.843
X230.583 Y66.081
X230.173 Y66.354
X229.702 Y66.617
X229.12 Y66.883
X228.426 Y67.135
X227.716 Y67.335
X226.995 Y67.492
X226.267 Y67.613
X225.535 Y67.703
X224.8 Y67.765
X224.063 Y67.8
X223.325 Y67.808
X222.587 Y67.788
X221.851 Y67.738
X221.119 Y67.65
X220.478 Y67.524
X220.066 Y67.409
X219.748 Y67.291
X219.523 Y67.187
X219.49 Y67.169
X219.334 Y67.051
X219.215 Y66.897
X219.139 Y66.717
X219.114 Y66.524
Y65.285
G3 X219.398 Y64.98 I0.317 J0.011 F1000
G1 X231.611 Y63.683
G3 X231.962 Y63.988 I0.034 J0.316
G1 Y65.237 F800
X231.954 Y65.386
X231.929 Y65.534
X231.889 Y65.679
X231.83 Y65.843
X231.755 Y66.009
X231.647 Y66.205
X231.518 Y66.4
X231.344 Y66.62
X231.137 Y66.844
X230.869 Y67.092
X230.555 Y67.337
X230.136 Y67.614
X229.675 Y67.868
X229.072 Y68.138
X228.377 Y68.386
X227.666 Y68.583
X226.945 Y68.737
X226.217 Y68.857
X225.484 Y68.945
X224.749 Y69.005
X224.012 Y69.039
X223.274 Y69.046
X222.536 Y69.025
X221.801 Y68.972
X221.069 Y68.879
X220.454 Y68.756
X220.042 Y68.639
X219.731 Y68.522
X219.509 Y68.418
X219.487 Y68.406
X219.333 Y68.288
X219.214 Y68.134
X219.139 Y67.955
X219.114 Y67.762
Y66.524
G3 X219.398 Y66.219 I0.317 J0.011 F1000
G1 X231.611 Y64.932
G3 X231.934 Y65.116 I0.033 J0.316
X231.962 Y65.237 I-0.289 J0.132
G1 Y66.41 F800
X231.954 Y66.563
X231.935 Y66.712
X231.902 Y66.858
X231.851 Y67.015
X231.783 Y67.179
X231.691 Y67.359
X231.566 Y67.562
X231.418 Y67.764
X231.218 Y67.996
X230.99 Y68.22
X230.679 Y68.479
X230.331 Y68.726
X229.877 Y68.996
X229.313 Y69.273
X228.63 Y69.542
X227.924 Y69.757
X227.205 Y69.926
X226.479 Y70.057
X225.748 Y70.155
X225.014 Y70.225
X224.277 Y70.267
X223.539 Y70.283
X222.802 Y70.272
X222.065 Y70.229
X221.331 Y70.152
X220.645 Y70.035
X220.157 Y69.911
X219.829 Y69.799
X219.587 Y69.695
X219.506 Y69.652
X219.344 Y69.535
X219.219 Y69.379
X219.141 Y69.196
X219.114 Y68.998
Y67.762
G3 X219.396 Y67.458 I0.317 J0.011 F1000
G1 X231.61 Y66.106
G3 X231.962 Y66.41 I0.035 J0.316
G1 Y67.676 F800
X231.954 Y67.826
X231.932 Y67.974
X231.895 Y68.122
X231.843 Y68.275
X231.77 Y68.446
X231.672 Y68.631
X231.549 Y68.824
X231.382 Y69.045
X231.19 Y69.26
X230.925 Y69.513
X230.632 Y69.751
X230.233 Y70.026
X229.776 Y70.288
X229.212 Y70.554
X228.522 Y70.815
X227.814 Y71.021
X227.094 Y71.184
X226.367 Y71.31
X225.635 Y71.404
X224.901 Y71.47
X224.164 Y71.508
X223.426 Y71.52
X222.688 Y71.505
X221.952 Y71.459
X221.219 Y71.375
X220.57 Y71.258
X220.119 Y71.137
X219.789 Y71.02
X219.559 Y70.917
X219.499 Y70.884
X219.34 Y70.767
X219.217 Y70.612
X219.14 Y70.431
X219.114 Y70.235
Y68.998
G3 X219.397 Y68.693 I0.317 J0.011 F1000
G1 X231.61 Y67.371
G3 X231.934 Y67.555 I0.034 J0.316
X231.962 Y67.676 I-0.289 J0.132
G1 Y68.925 F800
X231.954 Y69.075
X231.931 Y69.223
X231.893 Y69.368
X231.838 Y69.527
X231.765 Y69.694
X231.66 Y69.889
X231.536 Y70.08
X231.365 Y70.304
X231.168 Y70.521
X230.901 Y70.772
X230.603 Y71.011
X230.192 Y71.289
X229.743 Y71.543
X229.16 Y71.813
X228.468 Y72.068
X227.758 Y72.271
X227.038 Y72.431
X226.311 Y72.555
X225.579 Y72.647
X224.844 Y72.711
X224.107 Y72.748
X223.369 Y72.758
X222.632 Y72.741
X221.895 Y72.692
X221.163 Y72.605
X220.529 Y72.486
X220.091 Y72.366
X219.767 Y72.249
X219.541 Y72.146
X219.494 Y72.12
X219.337 Y72.003
X219.216 Y71.848
X219.14 Y71.667
X219.114 Y71.473
Y70.235
G3 X219.397 Y69.93 I0.317 J0.011 F1000
G1 X231.611 Y68.62
G3 X231.962 Y68.925 I0.034 J0.316
G1 Y70.191 F800
X231.954 Y70.341
X231.928 Y70.488
X231.887 Y70.637
X231.827 Y70.798
X231.749 Y70.969
X231.637 Y71.168
X231.506 Y71.362
X231.326 Y71.589
X231.122 Y71.807
X230.84 Y72.062
X230.53 Y72.302
X230.105 Y72.579
X229.624 Y72.839
X229.016 Y73.108
X228.32 Y73.351
X227.608 Y73.544
X226.885 Y73.696
X226.157 Y73.813
X225.424 Y73.899
X224.689 Y73.957
X223.952 Y73.989
X223.214 Y73.994
X222.476 Y73.97
X221.741 Y73.915
X221.009 Y73.82
X220.393 Y73.691
X220.008 Y73.578
X219.706 Y73.461
X219.482 Y73.353
X219.329 Y73.236
X219.212 Y73.082
X219.139 Y72.904
X219.114 Y72.713
Y71.473
G3 X219.398 Y71.168 I0.317 J0.011 F1000
G1 X231.612 Y69.886
G3 X231.934 Y70.07 I0.033 J0.316
X231.962 Y70.191 I-0.289 J0.132
G1 Y71.365 F800
X231.954 Y71.514
X231.934 Y71.663
X231.901 Y71.809
X231.85 Y71.965
X231.781 Y72.132
X231.69 Y72.309
X231.562 Y72.515
X231.415 Y72.715
X231.211 Y72.95
X230.983 Y73.173
X230.667 Y73.436
X230.323 Y73.679
X229.861 Y73.952
X229.295 Y74.228
X228.614 Y74.495
X227.908 Y74.708
X227.19 Y74.876
X226.463 Y75.006
X225.732 Y75.105
X224.998 Y75.174
X224.261 Y75.216
X223.523 Y75.231
X222.786 Y75.219
X222.049 Y75.177
X221.315 Y75.099
X220.634 Y74.983
X220.147 Y74.859
X219.823 Y74.748
X219.582 Y74.643
X219.505 Y74.602
X219.344 Y74.485
X219.219 Y74.329
X219.141 Y74.146
X219.114 Y73.949
Y72.713
G3 X219.396 Y72.409 I0.317 J0.011 F1000
G1 X231.61 Y71.06
G3 X231.962 Y71.365 I0.035 J0.316
G1 Y72.614 F800
X231.954 Y72.763
X231.933 Y72.912
X231.898 Y73.058
X231.846 Y73.212
X231.775 Y73.38
X231.678 Y73.567
X231.559 Y73.756
X231.393 Y73.978
X231.206 Y74.191
X230.945 Y74.443
X230.658 Y74.68
X230.259 Y74.957
X229.822 Y75.212
X229.261 Y75.481
X228.573 Y75.745
X227.865 Y75.955
X227.146 Y76.121
X226.42 Y76.25
X225.688 Y76.346
X224.954 Y76.414
X224.217 Y76.455
X223.479 Y76.469
X222.742 Y76.456
X222.005 Y76.412
X221.272 Y76.332
X220.622 Y76.218
X220.148 Y76.096
X219.813 Y75.98
X219.578 Y75.877
X219.503 Y75.837
X219.343 Y75.72
X219.219 Y75.564
X219.14 Y75.382
X219.114 Y75.185
Y73.949
G3 X219.142 Y73.828 I0.317 J0.011 F1000
X219.397 Y73.644 I0.289 J0.132
G1 X231.61 Y72.309
G3 X231.962 Y72.614 I0.035 J0.316
G1 Y73.879 F800
X231.954 Y74.029
X231.93 Y74.177
X231.891 Y74.326
X231.836 Y74.481
X231.76 Y74.653
X231.654 Y74.847
X231.528 Y75.041
X231.354 Y75.265
X231.157 Y75.481
X230.884 Y75.735
X230.584 Y75.973
X230.174 Y76.247
X229.704 Y76.51
X229.121 Y76.777
X228.428 Y77.029
X227.718 Y77.229
X226.997 Y77.386
X226.269 Y77.508
X225.537 Y77.599
X224.802 Y77.661
X224.065 Y77.697
X223.327 Y77.706
X222.589 Y77.687
X221.853 Y77.637
X221.121 Y77.549
X220.48 Y77.424
X220.068 Y77.309
X219.749 Y77.191
X219.524 Y77.087
X219.491 Y77.068
X219.335 Y76.951
X219.215 Y76.797
X219.139 Y76.617
X219.114 Y76.423
Y75.185
G3 X219.397 Y74.88 I0.317 J0.011 F1000
G1 X231.611 Y73.575
G3 X231.962 Y73.879 I0.034 J0.316
G1 Y75.128 F800
X231.954 Y75.278
X231.929 Y75.426
X231.89 Y75.571
X231.831 Y75.735
X231.756 Y75.901
X231.648 Y76.096
X231.519 Y76.291
X231.346 Y76.512
X231.139 Y76.736
X230.871 Y76.983
X230.557 Y77.229
X230.139 Y77.506
X229.678 Y77.76
X229.076 Y78.031
X228.381 Y78.28
X227.67 Y78.477
X226.948 Y78.632
X226.22 Y78.752
X225.488 Y78.841
X224.753 Y78.902
X224.016 Y78.936
X223.278 Y78.944
X222.54 Y78.923
X221.804 Y78.871
X221.072 Y78.778
X220.458 Y78.656
X220.045 Y78.538
X219.733 Y78.422
X219.511 Y78.318
X219.488 Y78.305
X219.333 Y78.187
X219.214 Y78.034
X219.139 Y77.854
X219.114 Y77.661
Y76.423
G3 X219.398 Y76.118 I0.317 J0.011 F1000
G1 X231.611 Y74.824
G3 X231.962 Y75.128 I0.033 J0.316
G1 Y76.302 F800
X231.954 Y76.456
X231.935 Y76.605
X231.902 Y76.751
X231.851 Y76.909
X231.783 Y77.073
X231.691 Y77.253
X231.566 Y77.456
X231.418 Y77.658
X231.217 Y77.89
X230.989 Y78.114
X230.679 Y78.374
X230.329 Y78.622
X229.875 Y78.891
X229.311 Y79.168
X228.625 Y79.438
X227.92 Y79.653
X227.201 Y79.822
X226.475 Y79.953
X225.744 Y80.052
X225.01 Y80.122
X224.273 Y80.165
X223.536 Y80.181
X222.798 Y80.17
X222.061 Y80.128
X221.327 Y80.05
X220.644 Y79.934
X220.156 Y79.81
X219.828 Y79.698
X219.587 Y79.593
X219.506 Y79.551
X219.344 Y79.434
X219.219 Y79.278
X219.141 Y79.095
X219.114 Y78.897
Y77.661
G3 X219.142 Y77.541 I0.317 J0.011 F1000
X219.396 Y77.357 I0.289 J0.132
G1 X231.61 Y75.998
G3 X231.934 Y76.181 I0.035 J0.316
X231.962 Y76.302 I-0.289 J0.132
G1 Y77.568 F800
X231.954 Y77.718
X231.933 Y77.866
X231.896 Y78.014
X231.844 Y78.167
X231.771 Y78.337
X231.673 Y78.523
X231.551 Y78.716
X231.384 Y78.936
X231.193 Y79.151
X230.929 Y79.404
X230.637 Y79.642
X230.237 Y79.917
X229.784 Y80.179
X229.219 Y80.446
X228.53 Y80.707
X227.821 Y80.915
X227.102 Y81.078
X226.375 Y81.205
X225.643 Y81.3
X224.909 Y81.366
X224.172 Y81.406
X223.434 Y81.418
X222.696 Y81.403
X221.96 Y81.358
X221.227 Y81.275
X220.579 Y81.158
X220.124 Y81.038
X219.793 Y80.921
X219.562 Y80.818
X219.499 Y80.784
X219.34 Y80.667
X219.217 Y80.511
X219.14 Y80.329
X219.114 Y80.133
Y78.897
G3 X219.397 Y78.592 I0.317 J0.011 F1000
G1 X231.61 Y77.263
G3 X231.962 Y77.568 I0.034 J0.316
G1 Y78.817 F800
X231.954 Y78.967
X231.931 Y79.115
X231.894 Y79.26
X231.839 Y79.418
X231.766 Y79.585
X231.661 Y79.78
X231.538 Y79.971
X231.367 Y80.195
X231.172 Y80.411
X230.906 Y80.663
X230.608 Y80.901
X230.199 Y81.179
X229.75 Y81.434
X229.169 Y81.704
X228.477 Y81.961
X227.768 Y82.164
X227.048 Y82.325
X226.32 Y82.45
X225.588 Y82.543
X224.853 Y82.607
X224.117 Y82.645
X223.379 Y82.656
X222.641 Y82.64
X221.905 Y82.591
X221.172 Y82.505
X220.537 Y82.386
X220.096 Y82.266
X219.771 Y82.149
X219.544 Y82.046
X219.495 Y82.019
X219.337 Y81.902
X219.216 Y81.747
X219.14 Y81.566
X219.114 Y81.371
Y80.133
G3 X219.397 Y79.829 I0.317 J0.011 F1000
G1 X231.611 Y78.512
G3 X231.934 Y78.696 I0.034 J0.316
X231.962 Y78.817 I-0.289 J0.132
G1 Y80.083 F800
X231.954 Y80.233
X231.928 Y80.38
X231.887 Y80.529
X231.828 Y80.69
X231.75 Y80.86
X231.639 Y81.059
X231.509 Y81.253
X231.329 Y81.48
X231.126 Y81.697
X230.845 Y81.953
X230.536 Y82.192
X230.112 Y82.469
X229.632 Y82.73
X229.027 Y82.999
X228.331 Y83.244
X227.619 Y83.438
X226.897 Y83.59
X226.168 Y83.708
X225.436 Y83.795
X224.7 Y83.854
X223.963 Y83.886
X223.225 Y83.892
X222.488 Y83.869
X221.752 Y83.815
X221.02 Y83.72
X220.402 Y83.592
X220.014 Y83.478
X219.71 Y83.362
X219.489 Y83.256
X219.482 Y83.252
X219.33 Y83.134
X219.213 Y82.981
X219.139 Y82.803
X219.114 Y82.612
Y81.371
G3 X219.142 Y81.251 I0.317 J0.011 F1000
X219.398 Y81.066 I0.289 J0.132
G1 X231.611 Y79.778
G3 X231.962 Y80.083 I0.033 J0.316
G1 Y81.332 F800
X231.954 Y81.482
X231.927 Y81.629
X231.886 Y81.773
X231.824 Y81.941
X231.747 Y82.108
X231.637 Y82.302
X231.5 Y82.504
X231.325 Y82.722
X231.108 Y82.953
X230.838 Y83.196
X230.508 Y83.449
X230.085 Y83.722
X229.605 Y83.98
X228.983 Y84.253
X228.286 Y84.493
X227.573 Y84.685
X226.851 Y84.835
X226.123 Y84.951
X225.39 Y85.037
X224.654 Y85.094
X223.917 Y85.125
X223.179 Y85.129
X222.442 Y85.105
X221.706 Y85.048
X220.975 Y84.95
X220.377 Y84.823
X219.993 Y84.709
X219.695 Y84.593
X219.533 Y84.515
X219.361 Y84.4
X219.227 Y84.242
X219.143 Y84.053
X219.114 Y83.848
Y82.612
G3 X219.142 Y82.491 I0.317 J0.011 F1000
X219.398 Y82.307 I0.289 J0.132
G1 X231.612 Y81.027
G3 X231.962 Y81.332 I0.033 J0.316
G1 Y82.505 F800
X231.954 Y82.655
X231.933 Y82.804
X231.899 Y82.95
X231.847 Y83.106
X231.775 Y83.276
X231.683 Y83.454
X231.553 Y83.661
X231.403 Y83.862
X231.196 Y84.097
X230.966 Y84.321
X230.644 Y84.586
X230.294 Y84.83
X229.826 Y85.103
X229.25 Y85.38
X228.561 Y85.645
X227.854 Y85.855
X227.135 Y86.021
X226.408 Y86.149
X225.677 Y86.245
X224.942 Y86.313
X224.205 Y86.353
X223.468 Y86.368
X222.73 Y86.354
X221.993 Y86.309
X221.26 Y86.228
X220.593 Y86.11
X220.141 Y85.992
X219.803 Y85.874
X219.571 Y85.771
X219.498 Y85.732
X219.335 Y85.613
X219.211 Y85.455
X219.134 Y85.269
X219.11 Y85.069
X219.113 Y84.853
X219.114 Y84.35
Y83.848
G3 X219.396 Y83.543 I0.317 J0.011 F1000
G1 X231.61 Y82.201
G3 X231.934 Y82.385 I0.035 J0.316
X231.962 Y82.505 I-0.289 J0.132
G1 Y83.771 F800
X231.954 Y83.921
X231.931 Y84.069
X231.892 Y84.218
X231.836 Y84.375
X231.761 Y84.547
X231.658 Y84.736
X231.532 Y84.929
X231.359 Y85.153
X231.162 Y85.369
X230.889 Y85.625
X230.589 Y85.864
X230.177 Y86.141
X229.71 Y86.403
X229.128 Y86.67
X228.435 Y86.923
X227.725 Y87.124
X227.005 Y87.282
X226.277 Y87.405
X225.545 Y87.496
X224.81 Y87.559
X224.073 Y87.595
X223.335 Y87.604
X222.597 Y87.585
X221.861 Y87.536
X221.129 Y87.448
X220.489 Y87.324
X220.07 Y87.208
X219.749 Y87.09
X219.525 Y86.986
X219.31 Y86.865
X219.237 Y86.816
X219.087 Y86.682
X218.978 Y86.512
X218.92 Y86.32
X218.915 Y86.118
X218.965 Y85.923
X218.991 Y85.859
X219.045 Y85.691
X219.082 Y85.523
X219.104 Y85.356
X219.109 Y85.122
X219.11 Y85.069
G3 X219.14 Y84.949 I0.317 J0.016 F1000
X219.393 Y84.769 I0.287 J0.136
G1 X231.611 Y83.467
G3 X231.934 Y83.651 I0.034 J0.316
X231.962 Y83.771 I-0.289 J0.132
G1 Y85.02 F800
X231.955 Y85.17
X231.929 Y85.318
X231.891 Y85.463
X231.832 Y85.627
X231.757 Y85.793
X231.65 Y85.989
X231.521 Y86.184
X231.347 Y86.405
X231.142 Y86.629
X230.873 Y86.877
X230.56 Y87.122
X230.142 Y87.4
X229.682 Y87.654
X229.082 Y87.925
X228.387 Y88.174
X227.676 Y88.372
X226.955 Y88.528
X226.227 Y88.649
X225.495 Y88.738
X224.76 Y88.799
X224.023 Y88.834
X223.285 Y88.841
X222.547 Y88.822
X221.811 Y88.769
X221.079 Y88.677
X220.462 Y88.555
X219.977 Y88.418
X219.632 Y88.289
X219.348 Y88.157
X219.144 Y88.041
X218.948 Y87.907
X218.799 Y87.787
X218.656 Y87.652
X218.536 Y87.518
X218.53 Y87.51
X218.428 Y87.328
X218.381 Y87.124
X218.393 Y86.916
X218.462 Y86.718
X218.584 Y86.548
G3 X218.688 Y86.481 I0.221 J0.228 F1000
X218.763 Y86.461 I0.118 J0.295
G1 X231.602 Y84.718
G3 X231.933 Y84.9 I0.043 J0.315
X231.962 Y85.02 I-0.288 J0.133
G1 X231.963 Y85.188 F800
X231.965 Y85.272
X231.975 Y85.356
X232.071 Y85.817
X232.101 Y85.964
X232.109 Y86.113
X232.099 Y86.263
X232.075 Y86.411
X232.035 Y86.566
X231.979 Y86.73
X231.899 Y86.917
X231.799 Y87.104
X231.657 Y87.325
X231.495 Y87.538
X231.274 Y87.785
X231.026 Y88.021
X230.69 Y88.292
X230.309 Y88.553
X229.826 Y88.828
X229.227 Y89.109
X228.536 Y89.368
X227.828 Y89.574
X227.108 Y89.738
X226.382 Y89.866
X225.65 Y89.961
X224.915 Y90.028
X224.178 Y90.067
X223.441 Y90.08
X222.703 Y90.065
X221.967 Y90.019
X221.234 Y89.935
X220.531 Y89.81
X219.984 Y89.666
X219.531 Y89.506
X219.16 Y89.342
X218.83 Y89.162
X218.573 Y88.995
X218.361 Y88.831
X218.193 Y88.677
X218.056 Y88.531
X217.929 Y88.37
X217.833 Y88.227
X217.747 Y88.073
X217.675 Y87.917
X217.667 Y87.895
X217.623 Y87.68
X217.644 Y87.462
X217.728 Y87.26
X217.868 Y87.091
X218.05 Y86.97
G3 X218.144 Y86.946 I0.124 J0.292 F1000
G1 X218.172 Y86.943
X231.747 Y85.622
G3 X232.002 Y85.714 I0.031 J0.316
X232.071 Y85.817 I-0.224 J0.225
G1 X232.075 Y85.827 F800
X232.315 Y86.32
X232.331 Y86.343
X232.414 Y86.468
X232.461 Y86.61
X232.489 Y86.758
X232.5 Y86.907
X232.496 Y87.057
X232.479 Y87.212
X232.446 Y87.382
X232.396 Y87.564
X232.324 Y87.76
X232.226 Y87.972
X232.1 Y88.197
X231.935 Y88.442
X231.741 Y88.686
X231.48 Y88.964
X231.192 Y89.226
X230.81 Y89.52
X230.353 Y89.818
X229.826 Y90.104
X229.163 Y90.397
X228.466 Y90.64
X227.755 Y90.836
X227.034 Y90.993
X226.307 Y91.115
X225.575 Y91.207
X224.839 Y91.271
X224.103 Y91.307
X223.365 Y91.317
X222.627 Y91.3
X221.891 Y91.25
X221.158 Y91.164
X220.432 Y91.032
X219.813 Y90.868
X219.263 Y90.673
X218.808 Y90.47
X218.427 Y90.262
X218.095 Y90.044
X217.813 Y89.825
X217.571 Y89.603
X217.361 Y89.378
X217.21 Y89.187
X217.073 Y88.981
X216.978 Y88.81
X216.896 Y88.631
X216.832 Y88.453
X216.789 Y88.298
X216.757 Y88.13
X216.74 Y87.965
Y87.955
X216.765 Y87.744
X216.849 Y87.548
X216.985 Y87.385
X217.162 Y87.267
X217.366 Y87.204
X217.585 Y87.169
X217.627 Y87.152
X217.962 Y87.011
X218.05 Y86.97
G3 X218.158 Y86.945 I0.124 J0.292 F1000
G1 X218.172 Y86.944
X232.066 Y86.223
G3 X232.237 Y86.262 I0.016 J0.317
X232.331 Y86.343 I-0.155 J0.277
G1 X232.38 Y86.409 F800
X232.473 Y86.529
X232.548 Y86.609
X232.64 Y86.697
X232.681 Y86.734
X232.789 Y86.838
X232.875 Y86.961
X232.941 Y87.096
X232.99 Y87.238
X233.023 Y87.384
X233.042 Y87.533
X233.048 Y87.683
X233.042 Y87.856
X233.02 Y88.038
X232.98 Y88.236
X232.917 Y88.453
X232.831 Y88.681
X232.712 Y88.935
X232.569 Y89.184
X232.375 Y89.466
X232.142 Y89.753
X231.858 Y90.05
X231.497 Y90.372
X231.088 Y90.682
X230.591 Y90.999
X229.984 Y91.32
X229.307 Y91.612
X228.609 Y91.853
X227.899 Y92.051
X227.178 Y92.21
X226.451 Y92.337
X225.72 Y92.433
X224.985 Y92.501
X224.248 Y92.542
X223.511 Y92.556
X222.773 Y92.543
X222.037 Y92.499
X221.303 Y92.421
X220.575 Y92.302
X219.856 Y92.135
X219.196 Y91.928
X218.642 Y91.704
X218.156 Y91.459
X217.722 Y91.196
X217.337 Y90.917
X217.017 Y90.644
X216.748 Y90.374
X216.515 Y90.101
X216.319 Y89.827
X216.159 Y89.562
X216.027 Y89.298
X215.939 Y89.078
X215.867 Y88.847
X215.823 Y88.653
X215.796 Y88.467
X215.785 Y88.276
X215.788 Y88.114
X215.804 Y87.949
X215.821 Y87.857
X215.886 Y87.661
X216.001 Y87.492
X216.159 Y87.36
X216.347 Y87.277
X216.55 Y87.248
X216.956
X217.124 Y87.242
X217.366 Y87.204
X217.49 Y87.199 F1000
X232.468 Y86.662
G3 X232.681 Y86.734 I0.011 J0.317
G1 X232.715 Y86.764 F800
X232.843 Y86.865
X232.883 Y86.892
X233.051 Y86.975
X233.116 Y87.007
X233.249 Y87.078
X233.362 Y87.176
X233.458 Y87.291
X233.538 Y87.418
X233.604 Y87.553
X233.656 Y87.693
X233.695 Y87.84
X233.723 Y87.994
X233.741 Y88.173
X233.745 Y88.361
X233.733 Y88.567
X233.7 Y88.797
X233.648 Y89.032
X233.566 Y89.296
X233.456 Y89.569
X233.314 Y89.856
X233.121 Y90.176
X232.896 Y90.49
X232.617 Y90.819
X232.265 Y91.173
X231.853 Y91.525
X231.378 Y91.87
X230.793 Y92.226
X230.134 Y92.558
X229.451 Y92.839
X228.752 Y93.075
X228.041 Y93.271
X227.321 Y93.431
X226.594 Y93.56
X225.863 Y93.66
X225.129 Y93.731
X224.393 Y93.776
X223.655 Y93.794
X222.917 Y93.785
X222.18 Y93.747
X221.446 Y93.677
X220.716 Y93.57
X219.993 Y93.423
X219.281 Y93.23
X218.6 Y92.989
X217.983 Y92.714
X217.428 Y92.411
X216.956 Y92.101
X216.542 Y91.779
X216.175 Y91.443
X215.854 Y91.098
X215.579 Y90.749
X215.356 Y90.416
X215.176 Y90.093
X215.032 Y89.776
X214.919 Y89.465
X214.838 Y89.169
X214.786 Y88.898
X214.759 Y88.645
X214.754 Y88.421
X214.764 Y88.228
X214.791 Y88.027
X214.828 Y87.86
X214.854 Y87.774
X214.957 Y87.562
X215.122 Y87.394
X215.33 Y87.286
X215.563 Y87.248
X216.55
G3 X216.671 Y87.277 I-0.011 J0.317 F1000
G1 X216.735 Y87.306 Z-4.992
X216.796 Y87.334 Z-4.969
X216.851 Y87.359 Z-4.931
X216.897 Y87.38 Z-4.88
X216.931 Y87.395 Z-4.82
X216.952 Y87.405 Z-4.753
X216.96 Y87.408 Z-4.682
G0 Z5
X233.277 Y87.33
Z-4.365
G1 Z-4.682 F1000
X233.271 Y87.324 Z-4.753
X233.254 Y87.308 Z-4.82
X233.227 Y87.282 Z-4.88
X233.191 Y87.247 Z-4.931
X233.147 Y87.206 Z-4.969
X233.099 Y87.159 Z-4.992
X233.048 Y87.111 Z-5
G3 X233.116 Y87.007 I0.044 J-0.046
G1 X233.407 Y87.144 F800
X233.594 Y87.181
X233.739 Y87.218
X233.873 Y87.285
X233.994 Y87.374
X234.102 Y87.479
X234.196 Y87.595
X234.278 Y87.721
X234.348 Y87.854
X234.409 Y87.997
X234.46 Y88.154
X234.505 Y88.337
X234.535 Y88.527
X234.552 Y88.744
X234.551 Y88.978
X234.531 Y89.224
X234.485 Y89.505
X234.414 Y89.792
X234.311 Y90.097
X234.168 Y90.432
X233.987 Y90.776
X233.763 Y91.13
X233.476 Y91.511
X233.124 Y91.908
X232.729 Y92.287
X232.251 Y92.678
X231.673 Y93.077
X231.034 Y93.446
X230.369 Y93.766
X229.685 Y94.041
X228.985 Y94.276
X228.275 Y94.474
X227.555 Y94.638
X226.83 Y94.772
X226.099 Y94.876
X225.365 Y94.953
X224.629 Y95.004
X223.892 Y95.029
X223.154 Y95.028
X222.417 Y95
X221.681 Y94.941
X220.949 Y94.85
X220.222 Y94.724
X219.503 Y94.559
X218.795 Y94.351
X218.103 Y94.095
X217.439 Y93.791
X216.835 Y93.454
X216.288 Y93.089
X215.797 Y92.7
X215.362 Y92.295
X214.984 Y91.881
X214.668 Y91.475
X214.404 Y91.072
X214.185 Y90.669
X214.008 Y90.272
X213.871 Y89.885
X213.775 Y89.521
X213.714 Y89.18
X213.682 Y88.855
X213.677 Y88.587
X213.694 Y88.321
X213.725 Y88.107
X213.767 Y87.922
X213.828 Y87.726
X213.834 Y87.711
X213.945 Y87.523
X214.107 Y87.375
X214.304 Y87.281
X214.521 Y87.248
X215.563
G3 X215.683 Y87.277 I-0.011 J0.317 F1000
G1 X215.748 Y87.306 Z-4.992
X215.809 Y87.334 Z-4.969
X215.863 Y87.359 Z-4.931
X215.909 Y87.38 Z-4.88
X215.944 Y87.395 Z-4.82
X215.965 Y87.405 Z-4.753
X215.972 Y87.408 Z-4.682
G0 Z5
X233.829 Y87.456
Z-4.365
G1 Z-4.682 F1000
X233.822 Y87.452 Z-4.753
X233.801 Y87.44 Z-4.82
X233.769 Y87.421 Z-4.88
X233.725 Y87.397 Z-4.931
X233.672 Y87.367 Z-4.969
X233.614 Y87.334 Z-4.992
X233.553 Y87.299 Z-5
G3 X233.594 Y87.181 I0.031 J-0.055
G1 X233.889 Y87.24 F800
X233.973 Y87.247
X234.107 Y87.248
X234.257 Y87.256
X234.403 Y87.291
X234.54 Y87.351
X234.668 Y87.43
X234.785 Y87.523
X234.892 Y87.628
X234.989 Y87.743
X235.078 Y87.871
X235.159 Y88.01
X235.237 Y88.172
X235.307 Y88.352
X235.365 Y88.549
X235.413 Y88.775
X235.443 Y89.013
X235.455 Y89.274
X235.445 Y89.568
X235.411 Y89.87
X235.347 Y90.195
X235.247 Y90.552
X235.108 Y90.927
X234.932 Y91.305
X234.699 Y91.717
X234.407 Y92.147
X234.053 Y92.589
X233.655 Y93.01
X233.166 Y93.451
X232.584 Y93.897
X231.964 Y94.297
X231.317 Y94.652
X230.648 Y94.963
X229.962 Y95.235
X229.263 Y95.469
X228.553 Y95.67
X227.835 Y95.838
X227.11 Y95.977
X226.38 Y96.087
X225.647 Y96.171
X224.912 Y96.229
X224.175 Y96.262
X223.437 Y96.27
X222.699 Y96.252
X221.963 Y96.206
X221.229 Y96.131
X220.499 Y96.024
X219.775 Y95.883
X219.058 Y95.707
X218.353 Y95.49
X217.663 Y95.23
X216.992 Y94.923
X216.344 Y94.569
X215.725 Y94.167
X215.152 Y93.728
X214.649 Y93.274
X214.211 Y92.81
X213.829 Y92.334
X213.501 Y91.85
X213.226 Y91.363
X213.002 Y90.881
X212.828 Y90.411
X212.703 Y89.968
X212.622 Y89.553
X212.577 Y89.161
X212.565 Y88.796
X212.579 Y88.496
X212.613 Y88.231
X212.66 Y88.007
X212.716 Y87.82
X212.753 Y87.722
X212.863 Y87.53
X213.025 Y87.378
X213.225 Y87.282
X213.445 Y87.248
X214.521
G3 X214.641 Y87.277 I-0.011 J0.317 F1000
G1 X214.706 Y87.306 Z-4.992
X214.767 Y87.334 Z-4.969
X214.822 Y87.359 Z-4.931
X214.867 Y87.38 Z-4.88
X214.902 Y87.395 Z-4.82
X214.923 Y87.405 Z-4.753
X214.93 Y87.408 Z-4.682
G0 Z5
X234.391 Y87.472
Z-4.365
G1 Z-4.682 F1000
X234.383 Y87.469 Z-4.753
X234.361 Y87.462 Z-4.82
X234.325 Y87.45 Z-4.88
X234.277 Y87.434 Z-4.931
X234.22 Y87.415 Z-4.969
X234.156 Y87.394 Z-4.992
X234.089 Y87.372 Z-5
G3 X234.107 Y87.248 I0.02 J-0.06
G1 X234.819 F800
X234.969 Y87.256
X235.116 Y87.286
X235.257 Y87.338
X235.39 Y87.407
X235.515 Y87.49
X235.631 Y87.585
X235.738 Y87.69
X235.847 Y87.815
X235.948 Y87.952
X236.049 Y88.115
X236.143 Y88.298
X236.226 Y88.499
X236.301 Y88.732
X236.361 Y88.981
X236.402 Y89.253
X236.425 Y89.561
X236.422 Y89.889
X236.391 Y90.234
X236.327 Y90.611
X236.222 Y91.023
X236.08 Y91.441
X235.89 Y91.878
X235.639 Y92.347
X235.329 Y92.83
X234.948 Y93.33
X234.515 Y93.814
X234.002 Y94.3
X233.428 Y94.764
X232.821 Y95.183
X232.186 Y95.559
X231.53 Y95.896
X230.855 Y96.195
X230.166 Y96.459
X229.465 Y96.689
X228.755 Y96.887
X228.036 Y97.056
X227.312 Y97.196
X226.583 Y97.309
X225.85 Y97.396
X225.115 Y97.459
X224.378 Y97.497
X223.64 Y97.51
X222.903 Y97.499
X222.166 Y97.462
X221.431 Y97.397
X220.699 Y97.303
X219.972 Y97.179
X219.251 Y97.023
X218.538 Y96.832
X217.836 Y96.605
X217.148 Y96.337
X216.479 Y96.028
X215.831 Y95.675
X215.207 Y95.28
X214.613 Y94.843
X214.051 Y94.365
X213.528 Y93.844
X213.063 Y93.301
X212.657 Y92.742
X212.312 Y92.177
X212.032 Y91.622
X211.812 Y91.083
X211.645 Y90.555
X211.527 Y90.043
X211.457 Y89.563
X211.428 Y89.131
X211.434 Y88.747
X211.463 Y88.439
X211.514 Y88.153
X211.57 Y87.939
X211.642 Y87.734
X211.661 Y87.69
X211.775 Y87.509
X211.935 Y87.368
X212.128 Y87.279
X212.339 Y87.248
X213.445
G3 X213.565 Y87.277 I-0.011 J0.317 F1000
G1 X213.629 Y87.306 Z-4.992
X213.69 Y87.334 Z-4.969
X213.745 Y87.359 Z-4.931
X213.791 Y87.38 Z-4.88
X213.825 Y87.395 Z-4.82
X213.847 Y87.405 Z-4.753
X213.854 Y87.408 Z-4.682
G0 Z5
X235.103 Y87.472
Z-4.365
G1 Z-4.682 F1000
X235.095 Y87.469 Z-4.753
X235.073 Y87.462 Z-4.82
X235.037 Y87.45 Z-4.88
X234.99 Y87.434 Z-4.931
X234.932 Y87.415 Z-4.969
X234.869 Y87.394 Z-4.992
X234.802 Y87.372 Z-5
G3 X234.819 Y87.248 I0.02 J-0.06
G1 X235.658 F800
X235.807 Y87.256
X235.954 Y87.287
X236.095 Y87.338
X236.23 Y87.405
X236.357 Y87.484
X236.477 Y87.574
X236.596 Y87.681
X236.715 Y87.806
X236.837 Y87.957
X236.95 Y88.121
X237.024 Y88.25
X237.078 Y88.367
X237.111 Y88.491
X237.122 Y88.619
G3 X236.59 Y88.841 I-0.317 J-0.011 F1000
G1 X235.454 Y87.8
G3 X235.658 Y87.248 I0.215 J-0.234
G1 X236.496 F800
X236.646 Y87.256
X236.833 Y87.321
X236.987 Y87.446
X237.087 Y87.617
X237.122 Y87.812
G3 X236.607 Y88.05 I-0.317 J-0.011 F1000
G1 X236.31 Y87.815
G3 X236.496 Y87.248 I0.197 J-0.249
G1 X236.739 F800
X236.823 Y87.251
X236.865 Y87.258
X236.907 Y87.272
X236.939 Y87.288
X236.972 Y87.309
X237.005 Y87.336
X237.038 Y87.368
X237.058 Y87.391
X237.074 Y87.415
X237.091 Y87.445
X237.103 Y87.475
X237.112 Y87.505
X237.118 Y87.535
X237.122 Y87.703
Y90.888
X237.108 Y91.173
X237.067 Y91.484
X236.997 Y91.811
X236.88 Y92.202
X236.728 Y92.593
X236.511 Y93.039
X236.223 Y93.527
X235.877 Y94.021
X235.463 Y94.519
X234.951 Y95.044
X234.395 Y95.529
X233.805 Y95.973
X233.188 Y96.378
X232.548 Y96.744
X231.888 Y97.075
X231.213 Y97.371
X230.524 Y97.635
X229.823 Y97.867
X229.114 Y98.069
X228.396 Y98.242
X227.673 Y98.388
X226.945 Y98.508
X226.214 Y98.604
X225.479 Y98.675
X224.743 Y98.723
X224.005 Y98.747
X223.268 Y98.748
X222.53 Y98.724
X221.794 Y98.674
X221.06 Y98.599
X220.33 Y98.496
X219.604 Y98.364
X218.884 Y98.202
X218.172 Y98.008
X217.471 Y97.778
X216.783 Y97.511
X216.111 Y97.207
X215.458 Y96.864
X214.825 Y96.484
X214.217 Y96.066
X213.637 Y95.611
X213.087 Y95.119
X212.571 Y94.591
X212.096 Y94.027
X211.663 Y93.429
X211.284 Y92.809
X210.97 Y92.186
X210.716 Y91.564
X210.522 Y90.952
X210.386 Y90.364
X210.304 Y89.809
X210.271 Y89.32
X210.278 Y88.889
X210.313 Y88.51
X210.365 Y88.219
X210.43 Y87.97
X210.499 Y87.771
X210.535 Y87.69
X210.648 Y87.509
X210.808 Y87.368
X211.002 Y87.279
X211.213 Y87.248
X212.339
G3 X212.46 Y87.277 I-0.011 J0.317 F1000
G1 X212.524 Y87.306 Z-4.992
X212.585 Y87.334 Z-4.969
X212.64 Y87.359 Z-4.931
X212.685 Y87.38 Z-4.88
X212.72 Y87.395 Z-4.82
X212.741 Y87.405 Z-4.753
X212.748 Y87.408 Z-4.682
G0 Z5
X236.899 Y91.172
Z-4.365
G1 Z-4.682 F1000
X236.901 Y91.164 Z-4.753
X236.908 Y91.142 Z-4.82
X236.92 Y91.106 Z-4.88
X236.936 Y91.059 Z-4.931
X236.955 Y91.001 Z-4.969
X236.976 Y90.938 Z-4.992
X236.998 Y90.871 Z-5
G3 X237.122 Y90.888 I0.06 J0.02
G1 Y93.068 F800
X237.111 Y93.282
X237.085 Y93.481
X237.039 Y93.697
X236.96 Y93.961
X236.854 Y94.232
X236.698 Y94.554
X236.491 Y94.906
X236.208 Y95.308
X235.865 Y95.721
X235.406 Y96.192
X234.85 Y96.677
X234.259 Y97.118
X233.64 Y97.519
X232.998 Y97.884
X232.339 Y98.215
X231.664 Y98.513
X230.976 Y98.78
X230.277 Y99.017
X229.569 Y99.224
X228.854 Y99.405
X228.133 Y99.56
X227.406 Y99.69
X226.676 Y99.796
X225.943 Y99.879
X225.208 Y99.939
X224.471 Y99.976
X223.733 Y99.991
X222.995 Y99.983
X222.258 Y99.951
X221.523 Y99.895
X220.789 Y99.813
X220.059 Y99.706
X219.334 Y99.572
X218.614 Y99.409
X217.903 Y99.214
X217.201 Y98.987
X216.511 Y98.726
X215.834 Y98.431
X215.174 Y98.102
X214.532 Y97.738
X213.91 Y97.341
X213.311 Y96.91
X212.738 Y96.446
X212.192 Y95.949
X211.679 Y95.419
X211.203 Y94.855
X210.765 Y94.261
X210.369 Y93.639
X210.019 Y92.99
X209.717 Y92.316
X209.469 Y91.624
X209.286 Y90.945
X209.168 Y90.309
X209.11 Y89.741
X209.098 Y89.227
X209.125 Y88.767
X209.174 Y88.417
X209.241 Y88.115
X209.311 Y87.887
X209.394 Y87.678
X209.403 Y87.66
X209.52 Y87.49
X209.679 Y87.358
X209.869 Y87.275
X210.075 Y87.248
X211.213
G3 X211.333 Y87.277 I-0.011 J0.317 F1000
G1 X211.398 Y87.306 Z-4.992
X211.459 Y87.334 Z-4.969
X211.513 Y87.359 Z-4.931
X211.559 Y87.38 Z-4.88
X211.594 Y87.395 Z-4.82
X211.615 Y87.405 Z-4.753
X211.622 Y87.408 Z-4.682
G0 Z5
X236.899 Y93.352
Z-4.365
G1 Z-4.682 F1000
X236.901 Y93.344 Z-4.753
X236.908 Y93.322 Z-4.82
X236.92 Y93.286 Z-4.88
X236.936 Y93.238 Z-4.931
X236.955 Y93.181 Z-4.969
X236.976 Y93.117 Z-4.992
X236.998 Y93.05 Z-5
G3 X237.122 Y93.068 I0.06 J0.02
G1 Y94.837 F800
X237.114 Y94.987
X237.091 Y95.165
X237.051 Y95.347
X236.987 Y95.559
X236.887 Y95.814
X236.765 Y96.065
X236.581 Y96.375
X236.353 Y96.699
X236.032 Y97.084
X235.65 Y97.474
X235.134 Y97.923
X234.54 Y98.36
X233.916 Y98.755
X233.271 Y99.113
X232.608 Y99.436
X231.93 Y99.729
X231.241 Y99.992
X230.541 Y100.226
X229.833 Y100.433
X229.118 Y100.615
X228.397 Y100.772
X227.672 Y100.905
X226.942 Y101.014
X226.209 Y101.101
X225.474 Y101.166
X224.738 Y101.21
X224 Y101.231
X223.262
X222.525 Y101.208
X221.789 Y101.162
X221.054 Y101.093
X220.322 Y101
X219.594 Y100.882
X218.87 Y100.737
X218.153 Y100.565
X217.443 Y100.363
X216.743 Y100.132
X216.053 Y99.869
X215.377 Y99.575
X214.715 Y99.248
X214.07 Y98.89
X213.443 Y98.501
X212.836 Y98.082
X212.252 Y97.631
X211.692 Y97.151
X211.159 Y96.64
X210.656 Y96.1
X210.186 Y95.532
X209.751 Y94.936
X209.355 Y94.313
X209.001 Y93.666
X208.69 Y92.997
X208.425 Y92.308
X208.209 Y91.603
X208.048 Y90.891
X207.952 Y90.216
X207.915 Y89.618
X207.925 Y89.097
X207.971 Y88.636
X208.032 Y88.302
X208.109 Y88.012
X208.185 Y87.797
X208.278 Y87.59
X208.373 Y87.416
X208.391 Y87.388
X208.529 Y87.232
X208.705 Y87.12
X208.905 Y87.062
X209.114
X209.314 Y87.12
X209.391 Y87.154
X209.401 Y87.157
X209.747 Y87.219
X209.915 Y87.247
X210.075 Y87.248
G3 X210.195 Y87.278 I-0.014 J0.317 F1000
G1 X210.259 Y87.308 Z-4.992
X210.32 Y87.336 Z-4.969
X210.374 Y87.362 Z-4.931
X210.42 Y87.383 Z-4.88
X210.454 Y87.399 Z-4.82
X210.475 Y87.409 Z-4.753
X210.482 Y87.413 Z-4.682
G0 Z5
X236.899 Y95.12
Z-4.365
G1 Z-4.682 F1000
X236.901 Y95.113 Z-4.753
X236.908 Y95.091 Z-4.82
X236.92 Y95.055 Z-4.88
X236.936 Y95.007 Z-4.931
X236.955 Y94.95 Z-4.969
X236.976 Y94.886 Z-4.992
X236.998 Y94.819 Z-5
G3 X237.122 Y94.837 I0.06 J0.02
G1 Y96.421 F800
X237.114 Y96.571
X237.092 Y96.723
X237.051 Y96.903
X236.985 Y97.11
X236.899 Y97.322
X236.77 Y97.578
X236.605 Y97.848
X236.385 Y98.151
X236.098 Y98.487
X235.712 Y98.871
X235.241 Y99.27
X234.641 Y99.7
X234.011 Y100.083
X233.358 Y100.427
X232.689 Y100.738
X232.007 Y101.018
X231.313 Y101.27
X230.61 Y101.495
X229.9 Y101.695
X229.184 Y101.871
X228.462 Y102.023
X227.735 Y102.152
X227.005 Y102.259
X226.272 Y102.345
X225.537 Y102.41
X224.801 Y102.453
X224.063 Y102.476
X223.326 Y102.477
X222.588 Y102.457
X221.851 Y102.414
X221.116 Y102.35
X220.384 Y102.262
X219.654 Y102.151
X218.929 Y102.015
X218.209 Y101.854
X217.496 Y101.666
X216.79 Y101.45
X216.094 Y101.207
X215.408 Y100.935
X214.735 Y100.633
X214.075 Y100.303
X213.431 Y99.943
X212.804 Y99.554
X212.196 Y99.136
X211.608 Y98.69
X211.043 Y98.215
X210.503 Y97.713
X209.988 Y97.184
X209.502 Y96.629
X209.047 Y96.048
X208.625 Y95.443
X208.238 Y94.815
X207.887 Y94.166
X207.578 Y93.496
X207.311 Y92.808
X207.089 Y92.105
X206.915 Y91.388
X206.792 Y90.66
X206.73 Y89.972
X206.725 Y89.389
X206.762 Y88.869
X206.829 Y88.428
X206.918 Y88.051
X207.008 Y87.773
X207.112 Y87.521
X207.209 Y87.333
X207.325 Y87.144
X207.435 Y86.994
X207.55 Y86.861
X207.681 Y86.733
X207.856 Y86.624
X208.054 Y86.567
X208.26 Y86.568
X208.458 Y86.624
X208.632 Y86.733
X208.741 Y86.825
X208.795 Y86.865
X208.852 Y86.904
X208.909 Y86.938
X209.314 Y87.12
G3 X209.412 Y87.195 I-0.14 J0.285 F1000
G1 X209.459 Y87.248 Z-4.992
X209.503 Y87.299 Z-4.969
X209.543 Y87.344 Z-4.931
X209.576 Y87.382 Z-4.88
X209.601 Y87.41 Z-4.82
X209.616 Y87.428 Z-4.753
X209.622 Y87.434 Z-4.682
G0 Z5
X236.899 Y96.705
Z-4.365
G1 Z-4.682 F1000
X236.901 Y96.697 Z-4.753
X236.908 Y96.675 Z-4.82
X236.92 Y96.639 Z-4.88
X236.936 Y96.591 Z-4.931
X236.955 Y96.534 Z-4.969
X236.976 Y96.47 Z-4.992
X236.998 Y96.403 Z-5
G3 X237.122 Y96.421 I0.06 J0.02
G1 Y97.93 F800
X237.114 Y98.08
X237.088 Y98.234
X237.04 Y98.419
X236.975 Y98.61
X236.881 Y98.825
X236.746 Y99.077
X236.585 Y99.327
X236.348 Y99.638
X236.075 Y99.941
X235.691 Y100.303
X235.201 Y100.698
X234.591 Y101.112
X233.95 Y101.478
X233.289 Y101.805
X232.612 Y102.098
X231.922 Y102.361
X231.224 Y102.598
X230.517 Y102.81
X229.803 Y102.997
X229.084 Y103.162
X228.36 Y103.304
X227.632 Y103.425
X226.901 Y103.525
X226.168 Y103.605
X225.432 Y103.664
X224.695 Y103.703
X223.958 Y103.722
X223.22 Y103.72
X222.483 Y103.698
X221.746 Y103.655
X221.011 Y103.59
X220.278 Y103.503
X219.549 Y103.394
X218.823 Y103.26
X218.102 Y103.103
X217.387 Y102.921
X216.679 Y102.713
X215.979 Y102.48
X215.289 Y102.219
X214.609 Y101.932
X213.942 Y101.618
X213.287 Y101.278
X212.648 Y100.91
X212.024 Y100.515
X211.419 Y100.094
X210.832 Y99.646
X210.267 Y99.172
X209.724 Y98.672
X209.206 Y98.146
X208.714 Y97.597
X208.25 Y97.024
X207.814 Y96.428
X207.41 Y95.811
X207.038 Y95.174
X206.701 Y94.517
X206.401 Y93.843
X206.139 Y93.153
X205.919 Y92.449
X205.744 Y91.732
X205.616 Y91.006
X205.539 Y90.272
X205.522 Y89.614
X205.554 Y89.023
X205.624 Y88.501
X205.72 Y88.062
X205.837 Y87.678
X205.972 Y87.334
X206.12 Y87.032
X206.255 Y86.804
X206.405 Y86.594
X206.538 Y86.434
X206.68 Y86.291
X206.825 Y86.164
X206.959 Y86.067
X207.11 Y85.973
X207.256 Y85.899
X207.281 Y85.888
X207.497 Y85.835
X207.72 Y85.849
X207.928 Y85.928
X208.104 Y86.066
X208.23 Y86.249
G3 X208.257 Y86.37 I-0.29 J0.129 F1000
G1 X208.259 Y86.441 Z-4.992
X208.261 Y86.508 Z-4.969
X208.262 Y86.568 Z-4.931
X208.264 Y86.618 Z-4.88
X208.265 Y86.656 Z-4.82
Y86.68 Z-4.753
Y86.687 Z-4.682
G0 Z5
X236.899 Y98.214
Z-4.365
G1 Z-4.682 F1000
X236.901 Y98.206 Z-4.753
X236.908 Y98.184 Z-4.82
X236.92 Y98.148 Z-4.88
X236.936 Y98.1 Z-4.931
X236.955 Y98.043 Z-4.969
X236.976 Y97.979 Z-4.992
X236.998 Y97.912 Z-5
G3 X237.122 Y97.93 I0.06 J0.02
G1 Y99.271 F800
X237.113 Y99.451
X237.093 Y99.6
X237.058 Y99.761
X237 Y99.95
X236.925 Y100.138
X236.814 Y100.363
X236.667 Y100.608
X236.482 Y100.868
X236.223 Y101.175
X235.92 Y101.481
X235.512 Y101.833
X234.977 Y102.222
X234.348 Y102.608
X233.693 Y102.947
X233.02 Y103.25
X232.334 Y103.52
X231.637 Y103.763
X230.931 Y103.979
X230.219 Y104.172
X229.501 Y104.342
X228.779 Y104.491
X228.052 Y104.618
X227.322 Y104.726
X226.589 Y104.814
X225.855 Y104.882
X225.119 Y104.93
X224.381 Y104.959
X223.644 Y104.969
X222.906 Y104.959
X222.169 Y104.929
X221.432 Y104.878
X220.698 Y104.808
X219.966 Y104.715
X219.237 Y104.601
X218.512 Y104.465
X217.792 Y104.306
X217.077 Y104.123
X216.369 Y103.916
X215.668 Y103.684
X214.976 Y103.427
X214.295 Y103.145
X213.624 Y102.838
X212.965 Y102.506
X212.319 Y102.149
X211.688 Y101.766
X211.073 Y101.359
X210.475 Y100.928
X209.895 Y100.471
X209.335 Y99.991
X208.797 Y99.486
X208.28 Y98.959
X207.789 Y98.409
X207.323 Y97.837
X206.884 Y97.244
X206.474 Y96.63
X206.094 Y95.998
X205.745 Y95.348
X205.429 Y94.681
X205.147 Y93.999
X204.902 Y93.303
X204.695 Y92.595
X204.529 Y91.876
X204.406 Y91.149
X204.332 Y90.415
X204.313 Y89.701
X204.348 Y89.048
X204.429 Y88.454
X204.547 Y87.912
X204.689 Y87.445
X204.85 Y87.037
X205.027 Y86.676
X205.214 Y86.361
X205.406 Y86.09
X205.609 Y85.847
X205.814 Y85.639
X205.993 Y85.484
X206.187 Y85.342
X206.351 Y85.241
X206.522 Y85.153
X206.696 Y85.081
X206.848 Y85.032
X207.009 Y84.994
X207.175 Y84.969
X207.386 Y84.985
X207.584 Y85.059
X207.752 Y85.186
X207.879 Y85.355
X207.952 Y85.553
X207.981 Y85.691
X208.005 Y85.775
X208.041 Y85.859
X208.23 Y86.249
G3 X208.257 Y86.37 I-0.29 J0.129 F1000
G1 X208.259 Y86.441 Z-4.992
X208.261 Y86.508 Z-4.969
X208.262 Y86.568 Z-4.931
X208.264 Y86.618 Z-4.88
X208.265 Y86.656 Z-4.82
Y86.68 Z-4.753
Y86.687 Z-4.682
G0 Z5
X236.899 Y99.555
Z-4.365
G1 Z-4.682 F1000
X236.901 Y99.547 Z-4.753
X236.908 Y99.525 Z-4.82
X236.92 Y99.489 Z-4.88
X236.936 Y99.441 Z-4.931
X236.955 Y99.384 Z-4.969
X236.976 Y99.321 Z-4.992
X236.998 Y99.254 Z-5
G3 X237.122 Y99.271 I0.06 J0.02
G1 Y100.705 F800
X237.114 Y100.855
X237.093 Y101.003
X237.057 Y101.159
X237.003 Y101.333
X236.919 Y101.539
X236.817 Y101.742
X236.671 Y101.983
X236.483 Y102.243
X236.245 Y102.522
X235.93 Y102.836
X235.528 Y103.177
X235.027 Y103.537
X234.395 Y103.919
X233.737 Y104.252
X233.061 Y104.547
X232.371 Y104.81
X231.672 Y105.045
X230.964 Y105.254
X230.25 Y105.441
X229.531 Y105.606
X228.808 Y105.75
X228.08 Y105.874
X227.35 Y105.978
X226.617 Y106.063
X225.882 Y106.13
X225.146 Y106.178
X224.409 Y106.207
X223.671 Y106.217
X222.933 Y106.208
X222.196 Y106.179
X221.46 Y106.131
X220.725 Y106.064
X219.992 Y105.976
X219.263 Y105.867
X218.536 Y105.737
X217.814 Y105.586
X217.097 Y105.413
X216.386 Y105.216
X215.681 Y104.997
X214.984 Y104.755
X214.296 Y104.489
X213.618 Y104.2
X212.949 Y103.887
X212.293 Y103.55
X211.649 Y103.19
X211.018 Y102.807
X210.402 Y102.4
X209.803 Y101.97
X209.221 Y101.516
X208.658 Y101.04
X208.114 Y100.542
X207.59 Y100.022
X207.089 Y99.48
X206.611 Y98.918
X206.158 Y98.336
X205.73 Y97.735
X205.328 Y97.116
X204.955 Y96.48
X204.61 Y95.827
X204.296 Y95.16
X204.015 Y94.478
X203.767 Y93.783
X203.556 Y93.076
X203.381 Y92.359
X203.246 Y91.634
X203.154 Y90.902
X203.108 Y90.165
X203.116 Y89.427
X203.178 Y88.717
X203.289 Y88.064
X203.437 Y87.48
X203.612 Y86.967
X203.814 Y86.502
X204.039 Y86.08
X204.282 Y85.7
X204.528 Y85.376
X204.775 Y85.1
X205.028 Y84.86
X205.286 Y84.651
X205.54 Y84.478
X205.794 Y84.333
X206.007 Y84.233
X206.231 Y84.149
X206.423 Y84.095
X206.604 Y84.058
X206.794 Y84.036
X206.957 Y84.03
X207.12 Y84.037
X207.287 Y84.058
X207.322 Y84.065
X207.512 Y84.133
X207.677 Y84.249
X207.805 Y84.405
X207.885 Y84.591
X207.913 Y84.79
Y85.188
X207.922 Y85.356
X207.945 Y85.523
X207.952 Y85.553
G3 X207.949 Y85.677 I-0.313 J0.056 F1000
G1 X207.934 Y85.746 Z-4.992
X207.92 Y85.811 Z-4.969
X207.907 Y85.87 Z-4.931
X207.896 Y85.919 Z-4.88
X207.888 Y85.956 Z-4.82
X207.883 Y85.979 Z-4.753
X207.881 Y85.987 Z-4.682
G0 Z5
X236.899 Y100.988
Z-4.365
G1 Z-4.682 F1000
X236.901 Y100.981 Z-4.753
X236.908 Y100.959 Z-4.82
X236.92 Y100.923 Z-4.88
X236.936 Y100.875 Z-4.931
X236.955 Y100.818 Z-4.969
X236.976 Y100.754 Z-4.992
X236.998 Y100.687 Z-5
G3 X237.122 Y100.705 I0.06 J0.02
G1 Y102.121 F800
X237.114 Y102.271
X237.087 Y102.426
X237.046 Y102.582
X236.981 Y102.765
X236.891 Y102.969
X236.776 Y103.18
X236.61 Y103.434
X236.42 Y103.679
X236.148 Y103.977
X235.831 Y104.273
X235.398 Y104.617
X234.842 Y104.989
X234.198 Y105.349
X233.53 Y105.663
X232.846 Y105.939
X232.15 Y106.184
X231.446 Y106.403
X230.734 Y106.598
X230.017 Y106.771
X229.295 Y106.923
X228.569 Y107.055
X227.84 Y107.169
X227.108 Y107.263
X226.374 Y107.339
X225.639 Y107.397
X224.902 Y107.437
X224.165 Y107.459
X223.427 Y107.463
X222.689 Y107.448
X221.952 Y107.414
X221.216 Y107.362
X220.482 Y107.291
X219.75 Y107.2
X219.02 Y107.09
X218.294 Y106.959
X217.572 Y106.808
X216.854 Y106.635
X216.143 Y106.441
X215.437 Y106.225
X214.739 Y105.987
X214.049 Y105.726
X213.367 Y105.444
X212.695 Y105.14
X212.033 Y104.813
X211.383 Y104.464
X210.745 Y104.094
X210.121 Y103.701
X209.511 Y103.286
X208.916 Y102.849
X208.338 Y102.391
X207.777 Y101.911
X207.234 Y101.412
X206.711 Y100.891
X206.209 Y100.351
X205.729 Y99.79
X205.271 Y99.211
X204.838 Y98.615
X204.428 Y98.001
X204.045 Y97.37
X203.687 Y96.725
X203.358 Y96.065
X203.058 Y95.391
X202.788 Y94.704
X202.549 Y94.006
X202.344 Y93.297
X202.173 Y92.58
X202.039 Y91.854
X201.947 Y91.122
X201.898 Y90.386
X201.895 Y89.648
X201.942 Y88.912
X202.042 Y88.181
X202.192 Y87.492
X202.383 Y86.861
X202.607 Y86.292
X202.858 Y85.78
X203.133 Y85.316
X203.428 Y84.9
X203.739 Y84.528
X204.06 Y84.201
X204.378 Y83.926
X204.692 Y83.695
X205.004 Y83.502
X205.311 Y83.346
X205.608 Y83.223
X205.894 Y83.13
X206.176 Y83.064
X206.413 Y83.028
X206.653 Y83.01
X206.85 Y83.012
X207.044 Y83.03
X207.226 Y83.061
X207.382 Y83.101
X207.412 Y83.111
X207.615 Y83.218
X207.775 Y83.381
X207.877 Y83.586
X207.913 Y83.812
Y84.79
G3 X207.884 Y84.911 I-0.317 J-0.011 F1000
G1 X207.855 Y84.975 Z-4.992
X207.827 Y85.036 Z-4.969
X207.802 Y85.091 Z-4.931
X207.781 Y85.137 Z-4.88
X207.765 Y85.171 Z-4.82
X207.756 Y85.193 Z-4.753
X207.752 Y85.2 Z-4.682
G0 Z5
X236.899 Y102.405
Z-4.365
G1 Z-4.682 F1000
X236.901 Y102.398 Z-4.753
X236.908 Y102.375 Z-4.82
X236.92 Y102.339 Z-4.88
X236.936 Y102.292 Z-4.931
X236.955 Y102.235 Z-4.969
X236.976 Y102.171 Z-4.992
X236.998 Y102.104 Z-5
G3 X237.122 Y102.121 I0.06 J0.02
G1 Y103.463 F800
X237.114 Y103.613
X237.089 Y103.76
X237.046 Y103.926
X236.988 Y104.094
X236.901 Y104.293
X236.787 Y104.505
X236.64 Y104.733
X236.434 Y105.001
X236.198 Y105.262
X235.866 Y105.576
X235.474 Y105.889
X234.958 Y106.239
X234.316 Y106.603
X233.648 Y106.917
X232.964 Y107.193
X232.268 Y107.437
X231.562 Y107.653
X230.85 Y107.846
X230.133 Y108.017
X229.41 Y108.168
X228.684 Y108.299
X227.955 Y108.412
X227.223 Y108.506
X226.489 Y108.583
X225.754 Y108.642
X225.017 Y108.683
X224.28 Y108.706
X223.542 Y108.712
X222.804 Y108.7
X222.067 Y108.671
X221.331 Y108.623
X220.596 Y108.557
X219.863 Y108.473
X219.132 Y108.369
X218.405 Y108.247
X217.681 Y108.105
X216.961 Y107.943
X216.246 Y107.761
X215.537 Y107.558
X214.834 Y107.334
X214.137 Y107.09
X213.449 Y106.824
X212.769 Y106.538
X212.098 Y106.231
X211.437 Y105.903
X210.787 Y105.554
X210.149 Y105.184
X209.523 Y104.793
X208.911 Y104.381
X208.314 Y103.948
X207.732 Y103.495
X207.165 Y103.022
X206.616 Y102.529
X206.085 Y102.017
X205.572 Y101.486
X205.08 Y100.937
X204.608 Y100.37
X204.158 Y99.785
X203.73 Y99.184
X203.325 Y98.567
X202.944 Y97.935
X202.588 Y97.289
X202.258 Y96.629
X201.956 Y95.956
X201.683 Y95.271
X201.438 Y94.575
X201.224 Y93.869
X201.042 Y93.154
X200.894 Y92.431
X200.782 Y91.702
X200.708 Y90.967
X200.673 Y90.23
X200.681 Y89.493
X200.734 Y88.757
X200.837 Y88.026
X200.992 Y87.305
X201.199 Y86.597
X201.448 Y85.948
X201.732 Y85.352
X202.05 Y84.804
X202.397 Y84.305
X202.763 Y83.858
X203.143 Y83.464
X203.532 Y83.12
X203.92 Y82.829
X204.303 Y82.587
X204.686 Y82.387
X205.06 Y82.228
X205.428 Y82.105
X205.774 Y82.02
X206.101 Y81.967
X206.411 Y81.942
X206.657 Y81.941
X206.908 Y81.962
X207.111 Y81.994
X207.291 Y82.039
X207.405 Y82.077
X207.61 Y82.183
X207.772 Y82.346
X207.877 Y82.552
X207.913 Y82.78
Y83.812
G3 X207.884 Y83.932 I-0.317 J-0.011 F1000
G1 X207.855 Y83.997 Z-4.992
X207.827 Y84.058 Z-4.969
X207.802 Y84.113 Z-4.931
X207.781 Y84.158 Z-4.88
X207.765 Y84.193 Z-4.82
X207.756 Y84.214 Z-4.753
X207.752 Y84.221 Z-4.682
G0 Z5
X236.899 Y103.746
Z-4.365
G1 Z-4.682 F1000
X236.901 Y103.739 Z-4.753
X236.908 Y103.717 Z-4.82
X236.92 Y103.681 Z-4.88
X236.936 Y103.633 Z-4.931
X236.955 Y103.576 Z-4.969
X236.976 Y103.512 Z-4.992
X236.998 Y103.445 Z-5
G3 X237.122 Y103.463 I0.06 J0.02
G1 Y104.804 F800
X237.114 Y104.954
X237.088 Y105.102
X237.046 Y105.262
X236.987 Y105.433
X236.897 Y105.635
X236.789 Y105.835
X236.637 Y106.068
X236.445 Y106.317
X236.201 Y106.585
X235.883 Y106.882
X235.482 Y107.201
X234.985 Y107.536
X234.342 Y107.897
X233.672 Y108.207
X232.986 Y108.479
X232.288 Y108.718
X231.582 Y108.93
X230.868 Y109.118
X230.149 Y109.285
X229.426 Y109.431
X228.7 Y109.559
X227.97 Y109.668
X227.238 Y109.76
X226.504 Y109.835
X225.768 Y109.892
X225.032 Y109.933
X224.294 Y109.956
X223.556 Y109.962
X222.819 Y109.951
X222.081 Y109.923
X221.345 Y109.877
X220.61 Y109.814
X219.876 Y109.732
X219.145 Y109.633
X218.417 Y109.516
X217.692 Y109.38
X216.97 Y109.224
X216.254 Y109.05
X215.542 Y108.856
X214.835 Y108.643
X214.135 Y108.41
X213.442 Y108.157
X212.757 Y107.884
X212.079 Y107.592
X211.411 Y107.279
X210.752 Y106.947
X210.104 Y106.595
X209.466 Y106.223
X208.841 Y105.831
X208.229 Y105.42
X207.631 Y104.988
X207.047 Y104.537
X206.478 Y104.067
X205.925 Y103.578
X205.389 Y103.072
X204.87 Y102.547
X204.37 Y102.005
X203.889 Y101.445
X203.427 Y100.869
X202.986 Y100.278
X202.567 Y99.671
X202.169 Y99.05
X201.793 Y98.415
X201.442 Y97.766
X201.115 Y97.104
X200.814 Y96.431
X200.54 Y95.746
X200.294 Y95.05
X200.077 Y94.345
X199.889 Y93.631
X199.733 Y92.91
X199.609 Y92.183
X199.519 Y91.451
X199.465 Y90.715
X199.449 Y89.977
X199.472 Y89.24
X199.536 Y88.505
X199.645 Y87.775
X199.802 Y87.054
X200.007 Y86.345
X200.263 Y85.653
X200.569 Y84.982
X200.925 Y84.34
X201.315 Y83.753
X201.727 Y83.228
X202.158 Y82.763
X202.604 Y82.353
X203.062 Y81.995
X203.527 Y81.689
X203.993 Y81.433
X204.455 Y81.225
X204.906 Y81.065
X205.326 Y80.953
X205.725 Y80.88
X206.102 Y80.841
X206.443 Y80.834
X206.72 Y80.851
X206.984 Y80.888
X207.184 Y80.933
X207.387 Y80.996
X207.447 Y81.02
X207.637 Y81.131
X207.785 Y81.293
X207.88 Y81.491
X207.913 Y81.708
Y82.78
G3 X207.884 Y82.9 I-0.317 J-0.011 F1000
G1 X207.855 Y82.964 Z-4.992
X207.827 Y83.026 Z-4.969
X207.802 Y83.08 Z-4.931
X207.781 Y83.126 Z-4.88
X207.765 Y83.161 Z-4.82
X207.756 Y83.182 Z-4.753
X207.752 Y83.189 Z-4.682
G0 Z5
X236.899 Y105.088
Z-4.365
G1 Z-4.682 F1000
X236.901 Y105.08 Z-4.753
X236.908 Y105.058 Z-4.82
X236.92 Y105.022 Z-4.88
X236.936 Y104.974 Z-4.931
X236.955 Y104.917 Z-4.969
X236.976 Y104.853 Z-4.992
X236.998 Y104.786 Z-5
G3 X237.122 Y104.804 I0.06 J0.02
G1 Y106.07 F800
X237.114 Y106.22
X237.094 Y106.368
X237.059 Y106.525
X237.009 Y106.683
X236.934 Y106.87
X236.834 Y107.07
X236.704 Y107.284
X236.526 Y107.531
X236.318 Y107.775
X236.022 Y108.071
X235.691 Y108.353
X235.237 Y108.68
X234.746 Y108.977
X234.626 Y109.036
X234.496 Y109.072
X234.363 Y109.084
G3 X234.242 Y109.056 I0.011 J-0.317 F1000
X234.138 Y108.554 I0.132 J-0.289
G1 X236.569 Y105.868
G3 X237.122 Y106.07 I0.235 J0.213
G1 Y107.411 F800
X237.114 Y107.561
X237.092 Y107.709
X237.055 Y107.858
X236.997 Y108.034
X236.923 Y108.209
X236.818 Y108.412
X236.679 Y108.634
X236.566 Y108.786
X236.402 Y108.946
X236.198 Y109.049
X235.972 Y109.084
G3 X235.851 Y109.056 I0.011 J-0.317 F1000
X235.712 Y108.601 I0.132 J-0.289
G1 X236.534 Y107.257
G3 X237.122 Y107.411 I0.271 J0.166
G1 Y108.66 F800
Y108.744
X237.12 Y108.786
X237.112 Y108.828
X237.097 Y108.873
X237.074 Y108.918
X237.046 Y108.957
X237.007 Y108.995
X236.957 Y109.034
X236.932 Y109.049
X236.907 Y109.06
X236.865 Y109.074
X236.823 Y109.082
X236.739 Y109.084
X232.212
X231.709 Y109.091
X231.542 Y109.105
X231.374 Y109.135
X231.267 Y109.163
X231.206 Y109.181
X231.039 Y109.246
X230.871 Y109.323
X230.704 Y109.418
X230.585 Y109.498
X230.536 Y109.536
X230.386 Y109.666
X230.368 Y109.684
X230.327 Y109.729
X230.22 Y109.835
X230.069 Y109.962
X229.881 Y110.095
X229.634 Y110.242
X229.311 Y110.401
X228.873 Y110.574
X228.273 Y110.756
X227.552 Y110.914
X226.823 Y111.025
X226.089 Y111.104
X225.353 Y111.158
X224.616 Y111.193
X223.879 Y111.208
X223.141 Y111.206
X222.403 Y111.186
X221.666 Y111.15
X220.93 Y111.096
X220.196 Y111.026
X219.463 Y110.938
X218.733 Y110.832
X218.006 Y110.709
X217.281 Y110.568
X216.561 Y110.409
X215.845 Y110.232
X215.133 Y110.036
X214.428 Y109.821
X213.728 Y109.588
X213.034 Y109.335
X212.348 Y109.064
X211.67 Y108.773
X211 Y108.464
X210.34 Y108.135
X209.689 Y107.788
X209.048 Y107.422
X208.419 Y107.036
X207.802 Y106.632
X207.197 Y106.209
X206.606 Y105.768
X206.028 Y105.309
X205.466 Y104.832
X204.918 Y104.337
X204.387 Y103.825
X203.872 Y103.297
X203.375 Y102.752
X202.895 Y102.191
X202.435 Y101.615
X201.993 Y101.023
X201.572 Y100.417
X201.172 Y99.797
X200.794 Y99.164
X200.438 Y98.518
X200.105 Y97.859
X199.795 Y97.19
X199.511 Y96.509
X199.252 Y95.818
X199.02 Y95.118
X198.814 Y94.409
X198.638 Y93.693
X198.49 Y92.97
X198.373 Y92.241
X198.288 Y91.508
X198.236 Y90.772
X198.219 Y90.035
X198.24 Y89.297
X198.299 Y88.562
X198.398 Y87.831
X198.539 Y87.106
X198.723 Y86.392
X198.951 Y85.69
X199.222 Y85.004
X199.538 Y84.337
X199.901 Y83.695
X200.309 Y83.08
X200.764 Y82.499
X201.25 Y81.97
X201.758 Y81.498
X202.285 Y81.083
X202.825 Y80.724
X203.37 Y80.421
X203.91 Y80.176
X204.438 Y79.986
X204.952 Y79.846
X205.424 Y79.757
X205.858 Y79.712
X206.258 Y79.702
X206.606 Y79.721
X206.888 Y79.76
X207.133 Y79.813
X207.329 Y79.873
X207.444 Y79.919
X207.635 Y80.03
X207.784 Y80.192
X207.88 Y80.39
X207.913 Y80.608
Y81.708
G3 X207.884 Y81.829 I-0.317 J-0.011 F1000
G1 X207.855 Y81.893 Z-4.992
X207.827 Y81.954 Z-4.969
X207.802 Y82.009 Z-4.931
X207.781 Y82.055 Z-4.88
X207.765 Y82.089 Z-4.82
X207.756 Y82.11 Z-4.753
X207.752 Y82.118 Z-4.682
G0 Z5
X229.971 Y109.789
Z-4.365
G1 Z-4.682 F1000
X229.978 Y109.785 Z-4.753
X229.998 Y109.773 Z-4.82
X230.031 Y109.755 Z-4.88
X230.075 Y109.73 Z-4.931
X230.128 Y109.701 Z-4.969
X230.186 Y109.668 Z-4.992
X230.248 Y109.633 Z-5
G3 X230.327 Y109.729 I0.031 J0.055
G1 X230.232 Y109.834 F800
X230.201 Y109.87
X230.104 Y110.001
X230.063 Y110.064
X230.033 Y110.126
X229.866 Y110.504
X229.799 Y110.638
X229.719 Y110.765
X229.622 Y110.89
X229.503 Y111.02
X229.363 Y111.151
X229.178 Y111.298
X228.944 Y111.455
X228.668 Y111.608
X228.298 Y111.778
X227.837 Y111.946
X227.209 Y112.119
X226.484 Y112.257
X225.752 Y112.348
X225.017 Y112.407
X224.28 Y112.44
X223.542 Y112.452
X222.804 Y112.445
X222.067 Y112.42
X221.33 Y112.379
X220.595 Y112.32
X219.861 Y112.245
X219.129 Y112.152
X218.399 Y112.043
X217.672 Y111.917
X216.948 Y111.774
X216.228 Y111.613
X215.512 Y111.435
X214.801 Y111.239
X214.095 Y111.025
X213.394 Y110.793
X212.7 Y110.543
X212.013 Y110.274
X211.333 Y109.987
X210.662 Y109.682
X209.998 Y109.359
X209.344 Y109.018
X208.7 Y108.658
X208.066 Y108.281
X207.443 Y107.886
X206.831 Y107.473
X206.232 Y107.043
X205.645 Y106.595
X205.072 Y106.13
X204.513 Y105.648
X203.969 Y105.15
X203.44 Y104.636
X202.927 Y104.106
X202.43 Y103.56
X201.951 Y103
X201.489 Y102.424
X201.046 Y101.834
X200.623 Y101.23
X200.219 Y100.612
X199.835 Y99.982
X199.472 Y99.34
X199.131 Y98.686
X198.811 Y98.021
X198.515 Y97.345
X198.243 Y96.659
X197.994 Y95.964
X197.771 Y95.261
X197.574 Y94.55
X197.403 Y93.833
X197.26 Y93.109
X197.145 Y92.38
X197.061 Y91.647
X197.008 Y90.911
X196.989 Y90.173
X197.003 Y89.436
X197.053 Y88.7
X197.14 Y87.967
X197.263 Y87.239
X197.425 Y86.52
X197.625 Y85.809
X197.865 Y85.112
X198.144 Y84.429
X198.464 Y83.764
X198.827 Y83.122
X199.232 Y82.505
X199.677 Y81.917
X200.162 Y81.361
X200.686 Y80.841
X201.248 Y80.362
X201.844 Y79.928
X202.459 Y79.551
X203.079 Y79.236
X203.698 Y78.982
X204.297 Y78.79
X204.854 Y78.661
X205.377 Y78.583
X205.86 Y78.55
X206.296 Y78.555
X206.648 Y78.588
X206.951 Y78.64
X207.188 Y78.702
X207.393 Y78.773
X207.47 Y78.807
X207.651 Y78.92
X207.792 Y79.08
X207.882 Y79.274
X207.913 Y79.485
Y80.608
G3 X207.884 Y80.729 I-0.317 J-0.011 F1000
G1 X207.855 Y80.793 Z-4.992
X207.827 Y80.854 Z-4.969
X207.802 Y80.909 Z-4.931
X207.781 Y80.954 Z-4.88
X207.765 Y80.989 Z-4.82
X207.756 Y81.01 Z-4.753
X207.752 Y81.017 Z-4.682
G0 Z5
X229.548 Y110.674
Z-4.365
G1 Z-4.682 F1000
X229.553 Y110.668 Z-4.753
X229.569 Y110.651 Z-4.82
X229.594 Y110.623 Z-4.88
X229.628 Y110.585 Z-4.931
X229.668 Y110.541 Z-4.969
X229.713 Y110.491 Z-4.992
X229.761 Y110.438 Z-5
G3 X229.866 Y110.504 I0.047 J0.042
G1 X229.833 Y110.579 F800
X229.831 Y110.589
X229.759 Y111.007
X229.745 Y111.175
X229.732 Y111.324
X229.69 Y111.468
X229.632 Y111.607
X229.56 Y111.739
X229.474 Y111.871
X229.364 Y112.013
X229.219 Y112.172
X229.057 Y112.323
X228.841 Y112.494
X228.584 Y112.666
X228.272 Y112.841
X227.876 Y113.022
X227.376 Y113.203
X226.75 Y113.376
X226.025 Y113.514
X225.293 Y113.604
X224.557 Y113.659
X223.82 Y113.687
X223.082 Y113.692
X222.344 Y113.678
X221.607 Y113.646
X220.871 Y113.596
X220.136 Y113.53
X219.403 Y113.448
X218.672 Y113.349
X217.943 Y113.234
X217.217 Y113.102
X216.494 Y112.954
X215.775 Y112.789
X215.06 Y112.607
X214.35 Y112.408
X213.644 Y112.191
X212.945 Y111.958
X212.251 Y111.707
X211.564 Y111.438
X210.883 Y111.152
X210.211 Y110.849
X209.547 Y110.528
X208.891 Y110.189
X208.245 Y109.833
X207.608 Y109.461
X206.982 Y109.071
X206.366 Y108.664
X205.762 Y108.24
X205.17 Y107.8
X204.59 Y107.344
X204.024 Y106.871
X203.471 Y106.383
X202.932 Y105.879
X202.407 Y105.36
X201.898 Y104.825
X201.405 Y104.277
X200.928 Y103.714
X200.469 Y103.136
X200.027 Y102.546
X199.603 Y101.942
X199.198 Y101.325
X198.812 Y100.696
X198.447 Y100.055
X198.102 Y99.403
X197.777 Y98.74
X197.475 Y98.067
X197.194 Y97.385
X196.936 Y96.694
X196.701 Y95.994
X196.49 Y95.287
X196.304 Y94.573
X196.143 Y93.853
X196.009 Y93.128
X195.901 Y92.398
X195.822 Y91.664
X195.773 Y90.928
X195.755 Y90.191
X195.769 Y89.453
X195.816 Y88.717
X195.897 Y87.983
X196.011 Y87.254
X196.161 Y86.532
X196.346 Y85.818
X196.566 Y85.113
X196.822 Y84.421
X197.114 Y83.744
X197.444 Y83.084
X197.812 Y82.444
X198.217 Y81.828
X198.661 Y81.239
X199.141 Y80.678
X199.655 Y80.149
X200.203 Y79.655
X200.783 Y79.198
X201.392 Y78.783
X202.03 Y78.412
X202.693 Y78.089
X203.365 Y77.825
X204.021 Y77.625
X204.655 Y77.488
X205.256 Y77.407
X205.783 Y77.379
X206.242 Y77.391
X206.641 Y77.434
X206.945 Y77.492
X207.199 Y77.561
X207.404 Y77.636
X207.48 Y77.67
X207.657 Y77.784
X207.795 Y77.944
X207.883 Y78.135
X207.913 Y78.344
Y79.485
G3 X207.884 Y79.606 I-0.317 J-0.011 F1000
G1 X207.855 Y79.67 Z-4.992
X207.827 Y79.731 Z-4.969
X207.802 Y79.786 Z-4.931
X207.781 Y79.831 Z-4.88
X207.765 Y79.866 Z-4.82
X207.756 Y79.887 Z-4.753
X207.752 Y79.894 Z-4.682
G0 Z5
X229.531 Y111.466
Z-4.365
G1 Z-4.682 F1000
X229.533 Y111.458 Z-4.753
X229.54 Y111.436 Z-4.82
X229.55 Y111.399 Z-4.88
X229.565 Y111.351 Z-4.931
X229.582 Y111.293 Z-4.969
X229.601 Y111.229 Z-4.992
X229.621 Y111.161 Z-5
G3 X229.745 Y111.175 I0.061 J0.018
G1 X229.75 Y111.343 F800
X229.776 Y111.938
Y112.088
X229.758 Y112.237
X229.724 Y112.383
X229.674 Y112.524
X229.612 Y112.661
X229.529 Y112.812
X229.428 Y112.964
X229.292 Y113.137
X229.138 Y113.303
X228.931 Y113.494
X228.702 Y113.673
X228.396 Y113.875
X228.057 Y114.061
X227.602 Y114.265
X227.089 Y114.448
X226.412 Y114.629
X225.686 Y114.762
X224.953 Y114.85
X224.217 Y114.902
X223.48 Y114.927
X222.742 Y114.929
X222.004 Y114.911
X221.268 Y114.874
X220.532 Y114.821
X219.797 Y114.75
X219.064 Y114.664
X218.334 Y114.562
X217.605 Y114.444
X216.88 Y114.31
X216.158 Y114.159
X215.439 Y113.993
X214.724 Y113.81
X214.013 Y113.612
X213.308 Y113.396
X212.608 Y113.163
X211.913 Y112.914
X211.225 Y112.648
X210.544 Y112.365
X209.869 Y112.065
X209.203 Y111.749
X208.544 Y111.416
X207.895 Y111.066
X207.254 Y110.7
X206.623 Y110.318
X206.002 Y109.919
X205.392 Y109.505
X204.793 Y109.074
X204.205 Y108.628
X203.63 Y108.166
X203.067 Y107.689
X202.517 Y107.197
X201.98 Y106.691
X201.458 Y106.17
X200.95 Y105.634
X200.458 Y105.085
X199.981 Y104.522
X199.52 Y103.946
X199.077 Y103.356
X198.651 Y102.754
X198.242 Y102.139
X197.852 Y101.513
X197.481 Y100.875
X197.129 Y100.227
X196.797 Y99.568
X196.484 Y98.9
X196.193 Y98.222
X195.923 Y97.535
X195.674 Y96.841
X195.447 Y96.139
X195.244 Y95.429
X195.063 Y94.714
X194.907 Y93.993
X194.776 Y93.267
X194.67 Y92.537
X194.591 Y91.803
X194.541 Y91.067
X194.52 Y90.329
X194.529 Y89.592
X194.569 Y88.855
X194.639 Y88.121
X194.741 Y87.39
X194.874 Y86.664
X195.04 Y85.945
X195.238 Y85.234
X195.468 Y84.533
X195.732 Y83.844
X196.029 Y83.169
X196.361 Y82.51
X196.728 Y81.87
X197.131 Y81.252
X197.567 Y80.657
X198.036 Y80.087
X198.537 Y79.546
X199.068 Y79.034
X199.629 Y78.554
X200.217 Y78.109
X200.832 Y77.7
X201.471 Y77.333
X202.135 Y77.01
X202.82 Y76.736
X203.523 Y76.512
X204.241 Y76.342
X204.892 Y76.242
X205.486 Y76.199
X206.022 Y76.204
X206.48 Y76.244
X206.82 Y76.302
X207.119 Y76.378
X207.336 Y76.453
X207.467 Y76.51
X207.649 Y76.623
X207.791 Y76.783
X207.882 Y76.977
X207.913 Y77.189
Y78.344
G3 X207.884 Y78.465 I-0.317 J-0.011 F1000
G1 X207.855 Y78.529 Z-4.992
X207.827 Y78.59 Z-4.969
X207.802 Y78.645 Z-4.931
X207.781 Y78.691 Z-4.88
X207.765 Y78.725 Z-4.82
X207.756 Y78.746 Z-4.753
X207.752 Y78.754 Z-4.682
G0 Z5
X229.566 Y112.231
Z-4.365
G1 Z-4.682 F1000
X229.568 Y112.223 Z-4.753
X229.574 Y112.201 Z-4.82
X229.585 Y112.164 Z-4.88
X229.598 Y112.116 Z-4.931
X229.615 Y112.058 Z-4.969
X229.633 Y111.994 Z-4.992
X229.652 Y111.926 Z-5
G3 X229.776 Y111.938 I0.061 J0.017
