;PYCAM-META-DATA: Filename: /home/framlin/tinker/acrylic-lamp/cad/socket-f360-top.stl
;PYCAM-META-DATA: Timestamp: 2016-05-20 20:41:59.906232
;PYCAM-META-DATA: Version: 0.5.1
;Estimated machine time: 67 minutes
G40 (disable tool radius compensation)
G49 (disable tool length compensation)
G80 (cancel modal motion)
G54 (select coordinate system 1)
G90 (disable incremental moves)
G21 (metric)
G61 (exact path mode)
F400.00000
S1000.00000
;PYCAM_TOOLPATH_SETTINGS: START
;[Bounds]
;maxz = 0.0
;maxx = 248.4125
;maxy = 133.4125
;minx = 1.5875
;miny = 1.5875
;minz = -19.0
;
;[Tool]
;torus_radius = 0.125
;speed = 1000.0
;shape = SphericalCutter
;tool_radius = 1.5875
;feedrate = 400.0
;
;[Process]
;engrave_offset = 0.0
;step_down = 3.0
;generator = DropCutter
;postprocessor = PathAccumulator
;milling_style = ignore
;material_allowance = 0.0
;pocketing_type = none
;path_direction = x
;
;PYCAM_TOOLPATH_SETTINGS: END
T4 M6
G0 Z25.0000
M3 (start spindle)
G04 P3 (wait for 3 seconds)
 X1.5875 Y1.5875
G1 Z0.0000
 X248.4125
 Y2.8550
 X1.5875
 Y4.1226
 X248.4125
 Y5.3901
 X1.5875
 Y6.6577
 X248.4125
 Y7.9252
 X1.5875
 Y9.1928
 X248.4125
 Y10.4603
 X1.5875
 Y11.7279
 X248.4125
 Y12.9954
 X1.5875
 Y14.2630
 X248.4125
 Y15.5305
 X1.5875
 Y16.7981
 X248.4125
 Y18.0656
 X1.5875
 Y19.3332
 X248.4125
 Y20.6007
 X201.2400
 X201.1904 Z-0.0003
 X201.0911 Z-0.0055
 X201.0415 Z-0.0104
 X200.9919 Z-0.0169
 X200.8927 Z-0.0348
 X200.8431 Z-0.0462
 X200.8183 Z-0.0525
 X200.7935 Z-0.0593
 X200.6943 Z-0.0907
 X200.6447 Z-0.1092
 X200.5951 Z-0.1295
 X200.3967 Z-0.2321
 X200.2975 Z-0.2978
 X200.2479 Z-0.3349
 X200.2231 Z-0.3546
 X200.2107 Z-0.3648
 X200.2045 Z-0.3700
 X200.1983 Z-0.3752
 X200.1487 Z-0.4189
 X200.1239 Z-0.4422
 X200.1115 Z-0.4543
 X200.1053 Z-0.4604
 X200.1022 Z-0.4635
 X200.1006 Z-0.4650
 X200.0999 Z-0.4658
 X200.0995 Z-0.4662
 X200.0993 Z-0.4664
 X200.0991 Z-0.4666
 X199.9999 Z-0.4750
 X50.3969
 X50.1985 Z-0.3349
 X50.0993 Z-0.2637
 X50.0497 Z-0.2321
 X50.0249 Z-0.2173
 X50.0001 Z-0.2031
 X49.9009 Z-0.1519
 X49.8513 Z-0.1295
 X49.8017 Z-0.1092
 X49.7025 Z-0.0741
 X49.6529 Z-0.0593
 X49.6281 Z-0.0525
 X49.6033 Z-0.0462
 X49.5041 Z-0.0250
 X49.4049 Z-0.0104
 X49.2065 Z0.0000
 X1.5875
 Y21.8683
 X49.2065
 X49.3057 Z-0.0021
 X49.4049 Z-0.0104
 X49.5041 Z-0.0250
 X49.5537 Z-0.0348
 X49.5785 Z-0.0403
 X49.6033 Z-0.0462
 X49.7025 Z-0.0741
 X49.7521 Z-0.0907
 X49.8017 Z-0.1092
 X49.9009 Z-0.1519
 X49.9505 Z-0.1764
 X49.9753 Z-0.1895
 X50.0001 Z-0.2031
 X50.0993 Z-0.2637
 X50.1489 Z-0.2979
 X50.1985 Z-0.3349
 X50.2977 Z-0.4189
 X50.3473 Z-0.4666
 X50.3721 Z-0.4920
 X50.3845 Z-0.5052
 X50.3969 Z-0.5186
 X50.4962 Z-0.6389
 X50.5458 Z-0.7094
 X50.5706 Z-0.7480
 X50.5830 Z-0.7682
 X50.5954 Z-0.7892
 X50.6450 Z-0.8813
 X50.6698 Z-0.9336
 X50.6822 Z-0.9617
 X50.6946 Z-0.9915
 X50.7194 Z-1.0568
 X50.7442 Z-1.1327
 X50.7938 Z-1.3563
 X50.8062 Z-1.4677
 X50.8124 Z-8.0000
 X56.0517
 X56.1509 Z-8.0031
 X56.2501 Z-8.0124
 X56.2997 Z-8.0194
 X56.3245 Z-8.0236
 X56.3493 Z-8.0281
 X56.4485 Z-8.0503
 X56.4981 Z-8.0640
 X56.5477 Z-8.0794
 X56.6469 Z-8.1157
 X56.6965 Z-8.1367
 X56.7213 Z-8.1480
 X56.7461 Z-8.1598
 X56.8453 Z-8.2125
 X56.8950 Z-8.2423
 X56.9446 Z-8.2747
 X57.0438 Z-8.3479
 X57.0934 Z-8.3893
 X57.1182 Z-8.4113
 X57.1306 Z-8.4227
 X57.1430 Z-8.4343
 X57.2422 Z-8.5370
 X57.2918 Z-8.5960
 X57.3166 Z-8.6278
 X57.3414 Z-8.6614
 X57.3910 Z-8.7347
 X57.4158 Z-8.7749
 X57.4406 Z-8.8181
 X57.4902 Z-8.9154
 X57.5398 Z-9.0338
 X57.6390 Z-9.5475
 X57.6452 Z-19.0000
 X192.4602
 X192.5594 Z-9.0468
 X192.6090 Z-8.9257
 X192.6338 Z-8.8741
 X192.6586 Z-8.8268
 X192.7082 Z-8.7422
 X192.7578 Z-8.6681
 X192.8074 Z-8.6020
 X192.8322 Z-8.5715
 X192.8570 Z-8.5424
 X192.9562 Z-8.4388
 X193.0058 Z-8.3935
 X193.0554 Z-8.3518
 X193.1547 Z-8.2779
 X193.2043 Z-8.2453
 X193.2291 Z-8.2300
 X193.2539 Z-8.2152
 X193.3531 Z-8.1621
 X193.4027 Z-8.1389
 X193.4523 Z-8.1176
 X193.5515 Z-8.0810
 X193.6011 Z-8.0654
 X193.6259 Z-8.0583
 X193.6507 Z-8.0516
 X193.7499 Z-8.0290
 X193.8491 Z-8.0130
 X194.0475 Z-8.0000
 X194.4443
 X199.6031
 X199.6527 Z-1.3562
 X199.6775 Z-1.2258
 X199.7023 Z-1.1327
 X199.7519 Z-0.9914
 X199.7767 Z-0.9335
 X199.7891 Z-0.9068
 X199.8015 Z-0.8812
 X199.8511 Z-0.7891
 X199.9007 Z-0.7094
 X199.9503 Z-0.6389
 X199.9751 Z-0.6065
 X199.9875 Z-0.5909
 X199.9999 Z-0.5758
 X200.0991 Z-0.4666
 X200.1487 Z-0.4189
 X200.1983 Z-0.3752
 X200.2975 Z-0.2978
 X200.3471 Z-0.2636
 X200.3719 Z-0.2476
 X200.3967 Z-0.2321
 X200.4959 Z-0.1764
 X200.5455 Z-0.1519
 X200.5951 Z-0.1295
 X200.6943 Z-0.0907
 X200.7439 Z-0.0741
 X200.7687 Z-0.0664
 X200.7935 Z-0.0593
 X200.8927 Z-0.0348
 X200.9919 Z-0.0169
 X201.1904 Z-0.0003
 X201.5872 Z0.0000
 X248.4125
 Y23.1358
 X201.2400
 X201.1904 Z-0.0003
 X201.0911 Z-0.0055
 X201.0415 Z-0.0104
 X200.9919 Z-0.0169
 X200.8927 Z-0.0348
 X200.8431 Z-0.0462
 X200.8183 Z-0.0525
 X200.7935 Z-0.0593
 X200.6943 Z-0.0907
 X200.6447 Z-0.1092
 X200.5951 Z-0.1295
 X200.4959 Z-0.1764
 X200.4463 Z-0.2031
 X200.4215 Z-0.2173
 X200.3967 Z-0.2321
 X200.2975 Z-0.2978
 X200.2479 Z-0.3349
 X200.1983 Z-0.3752
 X200.0991 Z-0.4666
 X200.0495 Z-0.5186
 X200.0247 Z-0.5465
 X200.0123 Z-0.5609
 X199.9999 Z-0.5758
 X199.9007 Z-0.7094
 X199.8511 Z-0.7891
 X199.8263 Z-0.8334
 X199.8015 Z-0.8812
 X199.7519 Z-0.9914
 X199.7271 Z-1.0567
 X199.7023 Z-1.1327
 X199.6527 Z-1.3562
 X199.6403 Z-1.4674
 X199.6341 Z-8.0000
 X194.0971
 X194.0475
 X193.9483 Z-8.0034
 X193.8987 Z-8.0074
 X193.8491 Z-8.0130
 X193.7499 Z-8.0290
 X193.7003 Z-8.0394
 X193.6755 Z-8.0453
 X193.6507 Z-8.0516
 X193.5515 Z-8.0810
 X193.5019 Z-8.0984
 X193.4523 Z-8.1176
 X193.3531 Z-8.1621
 X193.3035 Z-8.1875
 X193.2787 Z-8.2011
 X193.2539 Z-8.2152
 X193.1547 Z-8.2779
 X193.1050 Z-8.3133
 X193.0554 Z-8.3518
 X192.9562 Z-8.4388
 X192.9066 Z-8.4883
 X192.8818 Z-8.5147
 X192.8570 Z-8.5424
 X192.7578 Z-8.6681
 X192.7082 Z-8.7422
 X192.6834 Z-8.7830
 X192.6586 Z-8.8268
 X192.6090 Z-8.9257
 X192.5594 Z-9.0468
 X192.5098 Z-9.2109
 X192.4850 Z-9.3331
 X192.4726 Z-9.4271
 X192.4664 Z-9.5095
 X192.4633 Z-19.0000
 X57.7382
 X57.6390 Z-9.5475
 X57.6142 Z-9.3052
 X57.6018 Z-9.2436
 X57.5894 Z-9.1918
 X57.5646 Z-9.1056
 X57.5522 Z-9.0683
 X57.5460 Z-9.0507
 X57.5398 Z-9.0338
 X57.4902 Z-8.9154
 X57.4406 Z-8.8181
 X57.3910 Z-8.7347
 X57.3662 Z-8.6969
 X57.3414 Z-8.6614
 X57.2918 Z-8.5960
 X57.2422 Z-8.5370
 X57.1926 Z-8.4833
 X57.1678 Z-8.4582
 X57.1430 Z-8.4343
 X57.0438 Z-8.3479
 X56.9942 Z-8.3098
 X56.9446 Z-8.2747
 X56.8453 Z-8.2125
 X56.7957 Z-8.1850
 X56.7709 Z-8.1721
 X56.7461 Z-8.1598
 X56.6469 Z-8.1157
 X56.5973 Z-8.0966
 X56.5477 Z-8.0794
 X56.4485 Z-8.0503
 X56.3989 Z-8.0384
 X56.3493 Z-8.0281
 X55.9525 Z-8.0000
 X50.8186
 X50.8062 Z-1.4677
 X50.8000 Z-1.4032
 X50.7969 Z-1.3784
 X50.7953 Z-1.3671
 X50.7938 Z-1.3563
 X50.7690 Z-1.2259
 X50.7442 Z-1.1327
 X50.6946 Z-0.9915
 X50.6450 Z-0.8813
 X50.6202 Z-0.8334
 X50.5954 Z-0.7892
 X50.5458 Z-0.7094
 X50.4962 Z-0.6389
 X50.4465 Z-0.5758
 X50.4217 Z-0.5465
 X50.3969 Z-0.5186
 X50.2977 Z-0.4189
 X50.2481 Z-0.3752
 X50.1985 Z-0.3349
 X50.0993 Z-0.2637
 X50.0497 Z-0.2321
 X50.0249 Z-0.2173
 X50.0001 Z-0.2031
 X49.9009 Z-0.1519
 X49.8513 Z-0.1295
 X49.8017 Z-0.1092
 X49.7025 Z-0.0741
 X49.6529 Z-0.0593
 X49.6281 Z-0.0525
 X49.6033 Z-0.0462
 X49.5041 Z-0.0250
 X49.4049 Z-0.0104
 X49.2065 Z0.0000
 X1.5875
 Y24.4034
 X49.2065
 X49.3057 Z-0.0021
 X49.4049 Z-0.0104
 X49.5041 Z-0.0250
 X49.5537 Z-0.0348
 X49.5785 Z-0.0403
 X49.6033 Z-0.0462
 X49.7025 Z-0.0741
 X49.7521 Z-0.0907
 X49.8017 Z-0.1092
 X50.0001 Z-0.2031
 X50.0993 Z-0.2637
 X50.1489 Z-0.2979
 X50.1737 Z-0.3160
 X50.1861 Z-0.3254
 X50.1923 Z-0.3301
 X50.1954 Z-0.3325
 X50.1985 Z-0.3349
 X50.2481 Z-0.3752
 X50.2605 Z-0.3858
 X50.2667 Z-0.3912
 X50.2698 Z-0.3939
 X50.2714 Z-0.3953
 X50.2722 Z-0.3959
 X50.2729 Z-0.3966
 X50.2791 Z-0.4021
 X50.2822 Z-0.4049
 X50.2838 Z-0.4063
 X50.2846 Z-0.4070
 X50.2850 Z-0.4073
 X50.2851 Z-0.4075
 X50.2852 Z-0.4076
 X50.2853
 Z-0.4077
 X50.2861 Z-0.4084
 X50.2865 Z-0.4087
 X50.2867 Z-0.4089
 X50.2868 Z-0.4090
 X50.2869 Z-0.4091
 X50.2877 Z-0.4098
 X50.2881 Z-0.4101
 X199.9999
 X200.3967 Z-0.2321
 X200.4959 Z-0.1764
 X200.5455 Z-0.1519
 X200.5951 Z-0.1295
 X200.6943 Z-0.0907
 X200.7439 Z-0.0741
 X200.7687 Z-0.0664
 X200.7935 Z-0.0593
 X200.8927 Z-0.0348
 X200.9919 Z-0.0169
 X201.1904 Z-0.0003
 X201.5872 Z0.0000
 X248.4125
 Y25.6709
 X1.5875
 Y26.9385
 X248.4125
 Y28.2060
 X1.5875
 Y29.4736
 X248.4125
 Y30.7411
 X1.5875
 Y32.0087
 X248.4125
 Y33.2762
 X1.5875
 Y34.5437
 X48.8096
 X49.2065 Z-0.0075
 X49.6033 Z-0.0077
 X200.7935
 X201.1904 Z0.0000
 X248.4125
 Y35.8113
 X201.0911
 X200.9919 Z-0.0011
 X200.8927 Z-0.0080
 X200.8431 Z-0.0138
 X200.8183 Z-0.0173
 X200.7935 Z-0.0212
 X200.6943 Z-0.0408
 X200.6447 Z-0.0531
 X200.5951 Z-0.0672
 X200.4959 Z-0.1006
 X200.4463 Z-0.1201
 X200.4215 Z-0.1306
 X200.3967 Z-0.1416
 X200.2975 Z-0.1908
 X200.2479 Z-0.2187
 X200.1983 Z-0.2491
 X200.0991 Z-0.3178
 X200.0495 Z-0.3566
 X200.0247 Z-0.3772
 X199.9999 Z-0.3987
 X199.9007 Z-0.4945
 X199.8511 Z-0.5493
 X199.8015 Z-0.6096
 X199.7023 Z-0.7518
 X199.6775 Z-0.7933
 X199.6651 Z-0.8151
 X199.6589 Z-0.8264
 X199.6558 Z-0.8321
 X199.6542 Z-0.8349
 X199.6534 Z-0.8364
 X199.6530 Z-0.8371
 X199.6527 Z-0.8378
 X199.6403 Z-0.8614
 X199.6341 Z-0.8736
 X199.6310 Z-0.8798
 X199.6294 Z-0.8829
 X199.6286 Z-0.8845
 X199.6282 Z-0.8853
 X199.6280 Z-0.8856
 X50.4760
 X50.4752 Z-0.8842
 X50.4745 Z-0.8827
 X50.4713 Z-0.8764
 X50.4589 Z-0.8522
 X50.4465 Z-0.8290
 X50.4217 Z-0.7850
 X50.4093 Z-0.7642
 X50.3969 Z-0.7441
 X50.2977 Z-0.6035
 X50.2481 Z-0.5437
 X50.1985 Z-0.4895
 X50.0993 Z-0.3945
 X50.0497 Z-0.3527
 X50.0249 Z-0.3331
 X50.0001 Z-0.3142
 X49.9009 Z-0.2460
 X49.8513 Z-0.2159
 X49.8017 Z-0.1882
 X49.7025 Z-0.1394
 X49.6529 Z-0.1181
 X49.6281 Z-0.1082
 X49.6033 Z-0.0988
 X49.5041 Z-0.0657
 X49.4545 Z-0.0519
 X49.4049 Z-0.0397
 X49.3057 Z-0.0204
 X49.2065 Z-0.0075
 X48.8096 Z0.0000
 X1.5875
 Y37.0788
 X49.0081
 X49.1073 Z-0.0010
 X49.1569 Z-0.0035
 X49.1817 Z-0.0053
 X49.2065 Z-0.0075
 X49.3057 Z-0.0204
 X49.3553 Z-0.0292
 X49.4049 Z-0.0397
 X49.5041 Z-0.0657
 X49.5537 Z-0.0814
 X49.5785 Z-0.0898
 X49.6033 Z-0.0988
 X49.7025 Z-0.1394
 X49.7521 Z-0.1627
 X49.8017 Z-0.1882
 X49.9009 Z-0.2460
 X49.9505 Z-0.2788
 X49.9753 Z-0.2961
 X50.0001 Z-0.3142
 X50.0993 Z-0.3945
 X50.1489 Z-0.4399
 X50.1737 Z-0.4642
 X50.1985 Z-0.4895
 X50.2481 Z-0.5437
 X50.2977 Z-0.6035
 X50.3473 Z-0.6698
 X50.3721 Z-0.7058
 X50.3969 Z-0.7441
 X50.4465 Z-0.8290
 X50.4962 Z-0.9283
 X50.5210 Z-0.9856
 X50.5458 Z-1.0500
 X50.5954 Z-1.2157
 X50.6202 Z-1.3405
 X50.6326 Z-1.4392
 X50.6388 Z-1.5390
 X50.6419 Z-8.0000
 X56.0517
 X56.1509 Z-8.0031
 X56.2501 Z-8.0124
 X56.2997 Z-8.0194
 X56.3245 Z-8.0236
 X56.3493 Z-8.0281
 X56.4485 Z-8.0503
 X56.4981 Z-8.0640
 X56.5477 Z-8.0794
 X56.6469 Z-8.1157
 X56.6965 Z-8.1367
 X56.7213 Z-8.1480
 X56.7461 Z-8.1598
 X56.8453 Z-8.2125
 X56.8950 Z-8.2423
 X56.9446 Z-8.2747
 X57.0438 Z-8.3479
 X57.0934 Z-8.3893
 X57.1182 Z-8.4113
 X57.1306 Z-8.4227
 X57.1430 Z-8.4343
 X57.2422 Z-8.5370
 X57.2918 Z-8.5960
 X57.3166 Z-8.6278
 X57.3414 Z-8.6614
 X57.3910 Z-8.7347
 X57.4158 Z-8.7749
 X57.4406 Z-8.8181
 X57.4902 Z-8.9154
 X57.5398 Z-9.0338
 X57.6390 Z-9.5475
 X57.6452 Z-19.0000
 X192.4602
 X192.5594 Z-9.0468
 X192.6090 Z-8.9257
 X192.6338 Z-8.8741
 X192.6586 Z-8.8268
 X192.7082 Z-8.7422
 X192.7578 Z-8.6681
 X192.8074 Z-8.6020
 X192.8322 Z-8.5715
 X192.8570 Z-8.5424
 X192.9562 Z-8.4388
 X193.0058 Z-8.3935
 X193.0554 Z-8.3518
 X193.1547 Z-8.2779
 X193.2043 Z-8.2453
 X193.2291 Z-8.2300
 X193.2539 Z-8.2152
 X193.3531 Z-8.1621
 X193.4027 Z-8.1389
 X193.4523 Z-8.1176
 X193.5515 Z-8.0810
 X193.6011 Z-8.0654
 X193.6259 Z-8.0583
 X193.6507 Z-8.0516
 X193.7499 Z-8.0290
 X193.8491 Z-8.0130
 X194.0475 Z-8.0000
 X194.4443
 X199.4542
 X199.4790 Z-1.3730
 X199.4914 Z-1.2962
 X199.5038 Z-1.2362
 X199.5287 Z-1.1407
 X199.5535 Z-1.0635
 X199.5783 Z-0.9974
 X199.5907 Z-0.9673
 X199.5969 Z-0.9529
 X199.6031 Z-0.9389
 X199.7023 Z-0.7518
 X199.7519 Z-0.6766
 X199.7767 Z-0.6421
 X199.8015 Z-0.6096
 X199.8511 Z-0.5493
 X199.9007 Z-0.4945
 X199.9503 Z-0.4445
 X199.9751 Z-0.4211
 X199.9999 Z-0.3987
 X200.0991 Z-0.3178
 X200.1487 Z-0.2820
 X200.1983 Z-0.2491
 X200.2975 Z-0.1908
 X200.3471 Z-0.1651
 X200.3719 Z-0.1531
 X200.3967 Z-0.1416
 X200.4959 Z-0.1006
 X200.5455 Z-0.0830
 X200.5951 Z-0.0672
 X200.6943 Z-0.0408
 X200.7439 Z-0.0302
 X200.7935 Z-0.0212
 X201.1904 Z0.0000
 X248.4125
 Y38.3464
 X201.0911
 X200.9919 Z-0.0011
 X200.8927 Z-0.0080
 X200.8431 Z-0.0138
 X200.8183 Z-0.0173
 X200.7935 Z-0.0212
 X200.6943 Z-0.0408
 X200.6447 Z-0.0531
 X200.5951 Z-0.0672
 X200.4959 Z-0.1006
 X200.4463 Z-0.1201
 X200.4215 Z-0.1306
 X200.3967 Z-0.1416
 X200.2975 Z-0.1908
 X200.2479 Z-0.2187
 X200.1983 Z-0.2491
 X200.0991 Z-0.3178
 X200.0495 Z-0.3566
 X200.0247 Z-0.3772
 X200.0123 Z-0.3879
 X199.9999 Z-0.3987
 X199.9007 Z-0.4945
 X199.8511 Z-0.5493
 X199.8263 Z-0.5787
 X199.8015 Z-0.6096
 X199.7519 Z-0.6766
 X199.7023 Z-0.7518
 X199.6527 Z-0.8378
 X199.6279 Z-0.8861
 X199.6031 Z-0.9389
 X199.5783 Z-0.9974
 X199.5535 Z-1.0635
 X199.5038 Z-1.2362
 X199.4790 Z-1.3730
 X199.4666 Z-1.5048
 X199.4604 Z-8.0000
 X194.0971
 X194.0475
 X193.9483 Z-8.0034
 X193.8987 Z-8.0074
 X193.8491 Z-8.0130
 X193.7499 Z-8.0290
 X193.7003 Z-8.0394
 X193.6755 Z-8.0453
 X193.6507 Z-8.0516
 X193.5515 Z-8.0810
 X193.5019 Z-8.0984
 X193.4523 Z-8.1176
 X193.3531 Z-8.1621
 X193.3035 Z-8.1875
 X193.2787 Z-8.2011
 X193.2539 Z-8.2152
 X193.1547 Z-8.2779
 X193.1050 Z-8.3133
 X193.0554 Z-8.3518
 X192.9562 Z-8.4388
 X192.9066 Z-8.4883
 X192.8818 Z-8.5147
 X192.8570 Z-8.5424
 X192.7578 Z-8.6681
 X192.7082 Z-8.7422
 X192.6834 Z-8.7830
 X192.6586 Z-8.8268
 X192.6090 Z-8.9257
 X192.5594 Z-9.0468
 X192.5098 Z-9.2109
 X192.4850 Z-9.3331
 X192.4726 Z-9.4271
 X192.4664 Z-9.5095
 X192.4633 Z-19.0000
 X57.7382
 X57.6390 Z-9.5475
 X57.6142 Z-9.3052
 X57.6018 Z-9.2436
 X57.5894 Z-9.1918
 X57.5646 Z-9.1056
 X57.5522 Z-9.0683
 X57.5460 Z-9.0507
 X57.5398 Z-9.0338
 X57.4902 Z-8.9154
 X57.4406 Z-8.8181
 X57.3910 Z-8.7347
 X57.3662 Z-8.6969
 X57.3414 Z-8.6614
 X57.2918 Z-8.5960
 X57.2422 Z-8.5370
 X57.1926 Z-8.4833
 X57.1678 Z-8.4582
 X57.1430 Z-8.4343
 X57.0438 Z-8.3479
 X56.9942 Z-8.3098
 X56.9446 Z-8.2747
 X56.8453 Z-8.2125
 X56.7957 Z-8.1850
 X56.7709 Z-8.1721
 X56.7461 Z-8.1598
 X56.6469 Z-8.1157
 X56.5973 Z-8.0966
 X56.5477 Z-8.0794
 X56.4485 Z-8.0503
 X56.3989 Z-8.0384
 X56.3493 Z-8.0281
 X55.9525 Z-8.0000
 X50.6450
 X50.6202 Z-1.3405
 X50.6078 Z-1.2716
 X50.6016 Z-1.2425
 X50.5954 Z-1.2157
 X50.5458 Z-1.0500
 X50.5210 Z-0.9856
 X50.4962 Z-0.9283
 X50.4465 Z-0.8290
 X50.4217 Z-0.7850
 X50.4093 Z-0.7642
 X50.3969 Z-0.7441
 X50.2977 Z-0.6035
 X50.2481 Z-0.5437
 X50.1985 Z-0.4895
 X50.0993 Z-0.3945
 X50.0497 Z-0.3527
 X50.0249 Z-0.3331
 X50.0001 Z-0.3142
 X49.9009 Z-0.2460
 X49.8513 Z-0.2159
 X49.8017 Z-0.1882
 X49.7025 Z-0.1394
 X49.6529 Z-0.1181
 X49.6281 Z-0.1082
 X49.6033 Z-0.0988
 X49.5041 Z-0.0657
 X49.4545 Z-0.0519
 X49.4049 Z-0.0397
 X49.3057 Z-0.0204
 X49.2065 Z-0.0075
 X48.8096 Z0.0000
 X1.5875
 Y39.6139
 X49.0081
 X49.1073 Z-0.0010
 X49.1569 Z-0.0035
 X49.1817 Z-0.0053
 X49.2065 Z-0.0075
 X49.6033 Z-0.0988
 X49.7025 Z-0.1394
 X49.7521 Z-0.1627
 X49.7769 Z-0.1752
 X49.7893 Z-0.1816
 X49.7955 Z-0.1849
 X49.7986 Z-0.1865
 X49.8002 Z-0.1874
 X49.8017 Z-0.1882
 X50.0001 Z-0.2012
 X200.1983
 X200.3967 Z-0.1416
 X200.4959 Z-0.1006
 X200.5455 Z-0.0830
 X200.5951 Z-0.0672
 X200.6943 Z-0.0408
 X200.7439 Z-0.0302
 X200.7935 Z-0.0212
 X201.1904 Z0.0000
 X248.4125
 Y40.8815
 X1.5875
 Y42.1490
 X248.4125
 Y43.4166
 X1.5875
 Y44.6841
 X248.4125
 Y45.9517
 X1.5875
 Y47.2192
 X248.4125
 Y48.4868
 X1.5875
 Y49.7543
 X48.8096
 X49.2065 Z-0.0075
 X49.6033 Z-0.0430
 X200.3967
 X200.7935 Z-0.0212
 X201.1904 Z0.0000
 X248.4125
 Y51.0219
 X201.0911
 X200.9919 Z-0.0011
 X200.8927 Z-0.0080
 X200.8431 Z-0.0138
 X200.8183 Z-0.0173
 X200.7935 Z-0.0212
 X200.6943 Z-0.0408
 X200.6447 Z-0.0531
 X200.5951 Z-0.0672
 X200.4959 Z-0.1006
 X200.4463 Z-0.1201
 X200.4215 Z-0.1306
 X200.3967 Z-0.1416
 X200.2975 Z-0.1908
 X200.2479 Z-0.2187
 X200.1983 Z-0.2491
 X200.0991 Z-0.3178
 X200.0495 Z-0.3566
 X200.0247 Z-0.3772
 X200.0123 Z-0.3879
 X199.9999 Z-0.3987
 X199.9007 Z-0.4945
 X199.8511 Z-0.5493
 X199.8263 Z-0.5787
 X199.8015 Z-0.6096
 X199.7519 Z-0.6766
 X199.7023 Z-0.7518
 X199.6527 Z-0.8378
 X199.6279 Z-0.8861
 X199.6031 Z-0.9389
 X199.5783 Z-0.9974
 X199.5535 Z-1.0635
 X199.5038 Z-1.2362
 X199.4790 Z-1.3730
 X199.4666 Z-1.5048
 X199.4604 Z-8.0000
 X194.0971
 X194.0475
 X193.9483 Z-8.0034
 X193.8987 Z-8.0074
 X193.8491 Z-8.0130
 X193.7499 Z-8.0290
 X193.7003 Z-8.0394
 X193.6755 Z-8.0453
 X193.6507 Z-8.0516
 X193.5515 Z-8.0810
 X193.5019 Z-8.0984
 X193.4523 Z-8.1176
 X193.3531 Z-8.1621
 X193.3035 Z-8.1875
 X193.2787 Z-8.2011
 X193.2539 Z-8.2152
 X193.1547 Z-8.2779
 X193.1050 Z-8.3133
 X193.0554 Z-8.3518
 X192.9562 Z-8.4388
 X192.9066 Z-8.4883
 X192.8818 Z-8.5147
 X192.8570 Z-8.5424
 X192.7578 Z-8.6681
 X192.7082 Z-8.7422
 X192.6834 Z-8.7830
 X192.6586 Z-8.8268
 X192.6090 Z-8.9257
 X192.5594 Z-9.0468
 X192.5098 Z-9.2109
 X192.4850 Z-9.3331
 X192.4726 Z-9.4271
 X192.4664 Z-9.5095
 X192.4633 Z-19.0000
 X57.7382
 X57.6390 Z-9.5475
 X57.6142 Z-9.3052
 X57.6018 Z-9.2436
 X57.5894 Z-9.1918
 X57.5646 Z-9.1056
 X57.5522 Z-9.0683
 X57.5460 Z-9.0507
 X57.5398 Z-9.0338
 X57.4902 Z-8.9154
 X57.4406 Z-8.8181
 X57.3910 Z-8.7347
 X57.3662 Z-8.6969
 X57.3414 Z-8.6614
 X57.2918 Z-8.5960
 X57.2422 Z-8.5370
 X57.1926 Z-8.4833
 X57.1678 Z-8.4582
 X57.1430 Z-8.4343
 X57.0438 Z-8.3479
 X56.9942 Z-8.3098
 X56.9446 Z-8.2747
 X56.8453 Z-8.2125
 X56.7957 Z-8.1850
 X56.7709 Z-8.1721
 X56.7461 Z-8.1598
 X56.6469 Z-8.1157
 X56.5973 Z-8.0966
 X56.5477 Z-8.0794
 X56.4485 Z-8.0503
 X56.3989 Z-8.0384
 X56.3493 Z-8.0281
 X55.9525 Z-8.0000
 X50.6450
 X50.6202 Z-1.3405
 X50.6078 Z-1.2716
 X50.6016 Z-1.2425
 X50.5954 Z-1.2157
 X50.5458 Z-1.0500
 X50.5210 Z-0.9856
 X50.4962 Z-0.9283
 X50.4465 Z-0.8290
 X50.4217 Z-0.7850
 X50.4093 Z-0.7642
 X50.3969 Z-0.7441
 X50.2977 Z-0.6035
 X50.2481 Z-0.5437
 X50.1985 Z-0.4895
 X50.0993 Z-0.3945
 X50.0497 Z-0.3527
 X50.0249 Z-0.3331
 X50.0001 Z-0.3142
 X49.9009 Z-0.2460
 X49.8513 Z-0.2159
 X49.8017 Z-0.1882
 X49.7025 Z-0.1394
 X49.6529 Z-0.1181
 X49.6281 Z-0.1082
 X49.6033 Z-0.0988
 X49.5041 Z-0.0657
 X49.4545 Z-0.0519
 X49.4049 Z-0.0397
 X49.3057 Z-0.0204
 X49.2065 Z-0.0075
 X48.8096 Z0.0000
 X1.5875
 Y52.2894
 X49.0081
 X49.1073 Z-0.0010
 X49.1569 Z-0.0035
 X49.1817 Z-0.0053
 X49.2065 Z-0.0075
 X49.3057 Z-0.0204
 X49.3553 Z-0.0292
 X49.4049 Z-0.0397
 X49.5041 Z-0.0657
 X49.5537 Z-0.0814
 X49.5785 Z-0.0898
 X49.6033 Z-0.0988
 X49.7025 Z-0.1394
 X49.7521 Z-0.1627
 X49.8017 Z-0.1882
 X49.9009 Z-0.2460
 X49.9505 Z-0.2788
 X49.9753 Z-0.2961
 X50.0001 Z-0.3142
 X50.0993 Z-0.3945
 X50.1489 Z-0.4399
 X50.1737 Z-0.4642
 X50.1985 Z-0.4895
 X50.2481 Z-0.5437
 X50.2977 Z-0.6035
 X50.3473 Z-0.6698
 X50.3721 Z-0.7058
 X50.3969 Z-0.7441
 X50.4465 Z-0.8290
 X50.4962 Z-0.9283
 X50.5210 Z-0.9856
 X50.5458 Z-1.0500
 X50.5954 Z-1.2157
 X50.6202 Z-1.3405
 X50.6326 Z-1.4392
 X50.6388 Z-1.5390
 X50.6419 Z-8.0000
 X56.0517
 X56.1509 Z-8.0031
 X56.2501 Z-8.0124
 X56.2997 Z-8.0194
 X56.3245 Z-8.0236
 X56.3493 Z-8.0281
 X56.4485 Z-8.0503
 X56.4981 Z-8.0640
 X56.5477 Z-8.0794
 X56.6469 Z-8.1157
 X56.6965 Z-8.1367
 X56.7213 Z-8.1480
 X56.7461 Z-8.1598
 X56.8453 Z-8.2125
 X56.8950 Z-8.2423
 X56.9446 Z-8.2747
 X57.0438 Z-8.3479
 X57.0934 Z-8.3893
 X57.1182 Z-8.4113
 X57.1306 Z-8.4227
 X57.1430 Z-8.4343
 X57.2422 Z-8.5370
 X57.2918 Z-8.5960
 X57.3166 Z-8.6278
 X57.3414 Z-8.6614
 X57.3910 Z-8.7347
 X57.4158 Z-8.7749
 X57.4406 Z-8.8181
 X57.4902 Z-8.9154
 X57.5398 Z-9.0338
 X57.6390 Z-9.5475
 X57.6452 Z-19.0000
 X192.4602
 X192.5594 Z-9.0468
 X192.6090 Z-8.9257
 X192.6338 Z-8.8741
 X192.6586 Z-8.8268
 X192.7082 Z-8.7422
 X192.7578 Z-8.6681
 X192.8074 Z-8.6020
 X192.8322 Z-8.5715
 X192.8570 Z-8.5424
 X192.9562 Z-8.4388
 X193.0058 Z-8.3935
 X193.0554 Z-8.3518
 X193.1547 Z-8.2779
 X193.2043 Z-8.2453
 X193.2291 Z-8.2300
 X193.2539 Z-8.2152
 X193.3531 Z-8.1621
 X193.4027 Z-8.1389
 X193.4523 Z-8.1176
 X193.5515 Z-8.0810
 X193.6011 Z-8.0654
 X193.6259 Z-8.0583
 X193.6507 Z-8.0516
 X193.7499 Z-8.0290
 X193.8491 Z-8.0130
 X194.0475 Z-8.0000
 X194.4443
 X199.4542
 X199.4790 Z-1.3730
 X199.4914 Z-1.2962
 X199.5038 Z-1.2362
 X199.5287 Z-1.1407
 X199.5535 Z-1.0635
 X199.5783 Z-0.9974
 X199.5907 Z-0.9673
 X199.5969 Z-0.9529
 X199.6031 Z-0.9389
 X199.7023 Z-0.7518
 X199.7519 Z-0.6766
 X199.7767 Z-0.6421
 X199.8015 Z-0.6096
 X199.8511 Z-0.5493
 X199.9007 Z-0.4945
 X199.9503 Z-0.4445
 X199.9751 Z-0.4211
 X199.9999 Z-0.3987
 X200.0991 Z-0.3178
 X200.1487 Z-0.2820
 X200.1983 Z-0.2491
 X200.2975 Z-0.1908
 X200.3471 Z-0.1651
 X200.3719 Z-0.1531
 X200.3967 Z-0.1416
 X200.4959 Z-0.1006
 X200.5455 Z-0.0830
 X200.5951 Z-0.0672
 X200.6943 Z-0.0408
 X200.7439 Z-0.0302
 X200.7935 Z-0.0212
 X201.1904 Z0.0000
 X248.4125
 Y53.5570
 X201.0911
 X200.9919 Z-0.0011
 X200.8927 Z-0.0080
 X200.8431 Z-0.0138
 X200.8183 Z-0.0173
 X200.7935 Z-0.0212
 X200.6943 Z-0.0408
 X200.6447 Z-0.0531
 X200.5951 Z-0.0672
 X200.4959 Z-0.1006
 X200.4463 Z-0.1201
 X200.4215 Z-0.1306
 X200.3967 Z-0.1416
 X200.2975 Z-0.1908
 X200.2479 Z-0.2187
 X200.1983 Z-0.2491
 X200.0991 Z-0.3178
 X200.0495 Z-0.3566
 X200.0247 Z-0.3772
 X200.0123 Z-0.3879
 X199.9999 Z-0.3987
 X199.9007 Z-0.4945
 X199.8511 Z-0.5493
 X199.8263 Z-0.5787
 X199.8015 Z-0.6096
 X199.7519 Z-0.6766
 X199.7023 Z-0.7518
 X199.6527 Z-0.8378
 X199.6279 Z-0.8861
 X199.6031 Z-0.9389
 X199.5783 Z-0.9974
 X199.5535 Z-1.0635
 X199.5038 Z-1.2362
 X199.4790 Z-1.3730
 X199.4666 Z-1.5048
 X199.4604 Z-8.0000
 X194.0971
 X194.0475
 X193.9483 Z-8.0034
 X193.8987 Z-8.0074
 X193.8491 Z-8.0130
 X193.7499 Z-8.0290
 X193.7003 Z-8.0394
 X193.6755 Z-8.0453
 X193.6507 Z-8.0516
 X193.5515 Z-8.0810
 X193.5019 Z-8.0984
 X193.4523 Z-8.1176
 X193.3531 Z-8.1621
 X193.3035 Z-8.1875
 X193.2787 Z-8.2011
 X193.2539 Z-8.2152
 X193.1547 Z-8.2779
 X193.1050 Z-8.3133
 X193.0554 Z-8.3518
 X192.9562 Z-8.4388
 X192.9066 Z-8.4883
 X192.8818 Z-8.5147
 X192.8570 Z-8.5424
 X192.7578 Z-8.6681
 X192.7082 Z-8.7422
 X192.6834 Z-8.7830
 X192.6586 Z-8.8268
 X192.6090 Z-8.9257
 X192.5594 Z-9.0468
 X192.5098 Z-9.2109
 X192.4850 Z-9.3331
 X192.4726 Z-9.4271
 X192.4664 Z-9.5095
 X192.4633 Z-19.0000
 X57.7382
 X57.6390 Z-9.5475
 X57.6142 Z-9.3052
 X57.6018 Z-9.2436
 X57.5894 Z-9.1918
 X57.5646 Z-9.1056
 X57.5522 Z-9.0683
 X57.5460 Z-9.0507
 X57.5398 Z-9.0338
 X57.4902 Z-8.9154
 X57.4406 Z-8.8181
 X57.3910 Z-8.7347
 X57.3662 Z-8.6969
 X57.3414 Z-8.6614
 X57.2918 Z-8.5960
 X57.2422 Z-8.5370
 X57.1926 Z-8.4833
 X57.1678 Z-8.4582
 X57.1430 Z-8.4343
 X57.0438 Z-8.3479
 X56.9942 Z-8.3098
 X56.9446 Z-8.2747
 X56.8453 Z-8.2125
 X56.7957 Z-8.1850
 X56.7709 Z-8.1721
 X56.7461 Z-8.1598
 X56.6469 Z-8.1157
 X56.5973 Z-8.0966
 X56.5477 Z-8.0794
 X56.4485 Z-8.0503
 X56.3989 Z-8.0384
 X56.3493 Z-8.0281
 X55.9525 Z-8.0000
 X50.6450
 X50.6202 Z-1.3405
 X50.6078 Z-1.2716
 X50.6016 Z-1.2425
 X50.5954 Z-1.2157
 X50.5458 Z-1.0500
 X50.5210 Z-0.9856
 X50.4962 Z-0.9283
 X50.4465 Z-0.8290
 X50.4217 Z-0.7850
 X50.4093 Z-0.7642
 X50.3969 Z-0.7441
 X50.2977 Z-0.6035
 X50.2481 Z-0.5437
 X50.1985 Z-0.4895
 X50.0993 Z-0.3945
 X50.0497 Z-0.3527
 X50.0249 Z-0.3331
 X50.0001 Z-0.3142
 X49.9009 Z-0.2460
 X49.8513 Z-0.2159
 X49.8017 Z-0.1882
 X49.7025 Z-0.1394
 X49.6529 Z-0.1181
 X49.6281 Z-0.1082
 X49.6033 Z-0.0988
 X49.5041 Z-0.0657
 X49.4545 Z-0.0519
 X49.4049 Z-0.0397
 X49.3057 Z-0.0204
 X49.2065 Z-0.0075
 X48.8096 Z0.0000
 X1.5875
 Y54.8245
 X49.0081
 X49.1073 Z-0.0010
 X49.1569 Z-0.0035
 X49.1817 Z-0.0053
 X49.2065 Z-0.0075
 X49.3057 Z-0.0204
 X49.3553 Z-0.0292
 X49.4049 Z-0.0397
 X49.5041 Z-0.0657
 X49.5537 Z-0.0814
 X49.5785 Z-0.0898
 X49.5909 Z-0.0943
 X49.5971 Z-0.0965
 X49.6033 Z-0.0988
 X50.0001 Z-0.1031
 X200.3967
 X200.5951 Z-0.0672
 X200.6943 Z-0.0408
 X200.7439 Z-0.0302
 X200.7935 Z-0.0212
 X201.1904 Z0.0000
 X248.4125
 Y56.0921
 X1.5875
 Y57.3596
 X248.4125
 Y58.6272
 X1.5875
 Y59.8947
 X248.4125
 Y61.1623
 X1.5875
 Y62.4298
 X248.4125
 Y63.6974
 X1.5875
 Y64.9649
 X49.0081
 X49.1073 Z-0.0010
 X49.1569 Z-0.0035
 X49.1817 Z-0.0053
 X49.2065 Z-0.0075
 X49.3057 Z-0.0204
 X49.3553 Z-0.0292
 X49.4049 Z-0.0397
 X49.5041 Z-0.0657
 X49.5537 Z-0.0814
 X49.5785 Z-0.0898
 X49.5909 Z-0.0943
 X49.5971 Z-0.0965
 X49.6033 Z-0.0988
 X50.0001 Z-0.1088
 X200.3967
 X200.5951 Z-0.0672
 X200.6943 Z-0.0408
 X200.7439 Z-0.0302
 X200.7935 Z-0.0212
 X201.1904 Z0.0000
 X248.4125
 Y66.2325
 X201.0911
 X200.9919 Z-0.0011
 X200.8927 Z-0.0080
 X200.8431 Z-0.0138
 X200.8183 Z-0.0173
 X200.7935 Z-0.0212
 X200.6943 Z-0.0408
 X200.6447 Z-0.0531
 X200.5951 Z-0.0672
 X200.4959 Z-0.1006
 X200.4463 Z-0.1201
 X200.4215 Z-0.1306
 X200.3967 Z-0.1416
 X200.2975 Z-0.1908
 X200.2479 Z-0.2187
 X200.1983 Z-0.2491
 X200.0991 Z-0.3178
 X200.0495 Z-0.3566
 X200.0247 Z-0.3772
 X200.0123 Z-0.3879
 X199.9999 Z-0.3987
 X199.9007 Z-0.4945
 X199.8511 Z-0.5493
 X199.8263 Z-0.5787
 X199.8015 Z-0.6096
 X199.7519 Z-0.6766
 X199.7023 Z-0.7518
 X199.6527 Z-0.8378
 X199.6279 Z-0.8861
 X199.6031 Z-0.9389
 X199.5783 Z-0.9974
 X199.5535 Z-1.0635
 X199.5038 Z-1.2362
 X199.4790 Z-1.3730
 X199.4666 Z-1.5048
 X199.4604 Z-8.0000
 X194.0971
 X194.0475
 X193.9483 Z-8.0034
 X193.8987 Z-8.0074
 X193.8491 Z-8.0130
 X193.7499 Z-8.0290
 X193.7003 Z-8.0394
 X193.6755 Z-8.0453
 X193.6507 Z-8.0516
 X193.5515 Z-8.0810
 X193.5019 Z-8.0984
 X193.4523 Z-8.1176
 X193.3531 Z-8.1621
 X193.3035 Z-8.1875
 X193.2787 Z-8.2011
 X193.2539 Z-8.2152
 X193.1547 Z-8.2779
 X193.1050 Z-8.3133
 X193.0554 Z-8.3518
 X192.9562 Z-8.4388
 X192.9066 Z-8.4883
 X192.8818 Z-8.5147
 X192.8570 Z-8.5424
 X192.7578 Z-8.6681
 X192.7082 Z-8.7422
 X192.6834 Z-8.7830
 X192.6586 Z-8.8268
 X192.6090 Z-8.9257
 X192.5594 Z-9.0468
 X192.5098 Z-9.2109
 X192.4850 Z-9.3331
 X192.4726 Z-9.4271
 X192.4664 Z-9.5095
 X192.4633 Z-19.0000
 X57.7382
 X57.6390 Z-9.5475
 X57.6142 Z-9.3052
 X57.6018 Z-9.2436
 X57.5894 Z-9.1918
 X57.5646 Z-9.1056
 X57.5522 Z-9.0683
 X57.5460 Z-9.0507
 X57.5398 Z-9.0338
 X57.4902 Z-8.9154
 X57.4406 Z-8.8181
 X57.3910 Z-8.7347
 X57.3662 Z-8.6969
 X57.3414 Z-8.6614
 X57.2918 Z-8.5960
 X57.2422 Z-8.5370
 X57.1926 Z-8.4833
 X57.1678 Z-8.4582
 X57.1430 Z-8.4343
 X57.0438 Z-8.3479
 X56.9942 Z-8.3098
 X56.9446 Z-8.2747
 X56.8453 Z-8.2125
 X56.7957 Z-8.1850
 X56.7709 Z-8.1721
 X56.7461 Z-8.1598
 X56.6469 Z-8.1157
 X56.5973 Z-8.0966
 X56.5477 Z-8.0794
 X56.4485 Z-8.0503
 X56.3989 Z-8.0384
 X56.3493 Z-8.0281
 X55.9525 Z-8.0000
 X50.6450
 X50.6202 Z-1.3405
 X50.6078 Z-1.2716
 X50.6016 Z-1.2425
 X50.5954 Z-1.2157
 X50.5458 Z-1.0500
 X50.5210 Z-0.9856
 X50.4962 Z-0.9283
 X50.4465 Z-0.8290
 X50.4217 Z-0.7850
 X50.4093 Z-0.7642
 X50.3969 Z-0.7441
 X50.2977 Z-0.6035
 X50.2481 Z-0.5437
 X50.1985 Z-0.4895
 X50.0993 Z-0.3945
 X50.0497 Z-0.3527
 X50.0249 Z-0.3331
 X50.0001 Z-0.3142
 X49.9009 Z-0.2460
 X49.8513 Z-0.2159
 X49.8017 Z-0.1882
 X49.7025 Z-0.1394
 X49.6529 Z-0.1181
 X49.6281 Z-0.1082
 X49.6033 Z-0.0988
 X49.5041 Z-0.0657
 X49.4545 Z-0.0519
 X49.4049 Z-0.0397
 X49.3057 Z-0.0204
 X49.2065 Z-0.0075
 X48.8096 Z0.0000
 X1.5875
 Y67.5000
 X49.0081
 X49.1073 Z-0.0010
 X49.1569 Z-0.0035
 X49.1817 Z-0.0053
 X49.2065 Z-0.0075
 X49.3057 Z-0.0204
 X49.3553 Z-0.0292
 X49.4049 Z-0.0397
 X49.5041 Z-0.0657
 X49.5537 Z-0.0814
 X49.5785 Z-0.0898
 X49.6033 Z-0.0988
 X49.7025 Z-0.1394
 X49.7521 Z-0.1627
 X49.8017 Z-0.1882
 X49.9009 Z-0.2460
 X49.9505 Z-0.2788
 X49.9753 Z-0.2961
 X50.0001 Z-0.3142
 X50.0993 Z-0.3945
 X50.1489 Z-0.4399
 X50.1737 Z-0.4642
 X50.1985 Z-0.4895
 X50.2481 Z-0.5437
 X50.2977 Z-0.6035
 X50.3473 Z-0.6698
 X50.3721 Z-0.7058
 X50.3969 Z-0.7441
 X50.4465 Z-0.8290
 X50.4962 Z-0.9283
 X50.5210 Z-0.9856
 X50.5458 Z-1.0500
 X50.5954 Z-1.2157
 X50.6202 Z-1.3405
 X50.6326 Z-1.4392
 X50.6388 Z-1.5390
 X50.6419 Z-8.0000
 X56.0517
 X56.1509 Z-8.0031
 X56.2501 Z-8.0124
 X56.2997 Z-8.0194
 X56.3245 Z-8.0236
 X56.3493 Z-8.0281
 X56.4485 Z-8.0503
 X56.4981 Z-8.0640
 X56.5477 Z-8.0794
 X56.6469 Z-8.1157
 X56.6965 Z-8.1367
 X56.7213 Z-8.1480
 X56.7461 Z-8.1598
 X56.8453 Z-8.2125
 X56.8950 Z-8.2423
 X56.9446 Z-8.2747
 X57.0438 Z-8.3479
 X57.0934 Z-8.3893
 X57.1182 Z-8.4113
 X57.1306 Z-8.4227
 X57.1430 Z-8.4343
 X57.2422 Z-8.5370
 X57.2918 Z-8.5960
 X57.3166 Z-8.6278
 X57.3414 Z-8.6614
 X57.3910 Z-8.7347
 X57.4158 Z-8.7749
 X57.4406 Z-8.8181
 X57.4902 Z-8.9154
 X57.5398 Z-9.0338
 X57.6390 Z-9.5475
 X57.6452 Z-19.0000
 X192.4602
 X192.5594 Z-9.0468
 X192.6090 Z-8.9257
 X192.6338 Z-8.8741
 X192.6586 Z-8.8268
 X192.7082 Z-8.7422
 X192.7578 Z-8.6681
 X192.8074 Z-8.6020
 X192.8322 Z-8.5715
 X192.8570 Z-8.5424
 X192.9562 Z-8.4388
 X193.0058 Z-8.3935
 X193.0554 Z-8.3518
 X193.1547 Z-8.2779
 X193.2043 Z-8.2453
 X193.2291 Z-8.2300
 X193.2539 Z-8.2152
 X193.3531 Z-8.1621
 X193.4027 Z-8.1389
 X193.4523 Z-8.1176
 X193.5515 Z-8.0810
 X193.6011 Z-8.0654
 X193.6259 Z-8.0583
 X193.6507 Z-8.0516
 X193.7499 Z-8.0290
 X193.8491 Z-8.0130
 X194.0475 Z-8.0000
 X194.4443
 X199.4542
 X199.4790 Z-1.3730
 X199.4914 Z-1.2962
 X199.5038 Z-1.2362
 X199.5287 Z-1.1407
 X199.5535 Z-1.0635
 X199.5783 Z-0.9974
 X199.5907 Z-0.9673
 X199.5969 Z-0.9529
 X199.6031 Z-0.9389
 X199.7023 Z-0.7518
 X199.7519 Z-0.6766
 X199.7767 Z-0.6421
 X199.8015 Z-0.6096
 X199.8511 Z-0.5493
 X199.9007 Z-0.4945
 X199.9503 Z-0.4445
 X199.9751 Z-0.4211
 X199.9999 Z-0.3987
 X200.0991 Z-0.3178
 X200.1487 Z-0.2820
 X200.1983 Z-0.2491
 X200.2975 Z-0.1908
 X200.3471 Z-0.1651
 X200.3719 Z-0.1531
 X200.3967 Z-0.1416
 X200.4959 Z-0.1006
 X200.5455 Z-0.0830
 X200.5951 Z-0.0672
 X200.6943 Z-0.0408
 X200.7439 Z-0.0302
 X200.7935 Z-0.0212
 X201.1904 Z0.0000
 X248.4125
 Y68.7675
 X201.0911
 X200.9919 Z-0.0011
 X200.8927 Z-0.0080
 X200.8431 Z-0.0138
 X200.8183 Z-0.0173
 X200.7935 Z-0.0212
 X200.6943 Z-0.0408
 X200.6447 Z-0.0531
 X200.5951 Z-0.0672
 X200.4959 Z-0.1006
 X200.4463 Z-0.1201
 X200.4215 Z-0.1306
 X200.3967 Z-0.1416
 X200.2975 Z-0.1908
 X200.2479 Z-0.2187
 X200.1983 Z-0.2491
 X200.0991 Z-0.3178
 X200.0495 Z-0.3566
 X200.0247 Z-0.3772
 X200.0123 Z-0.3879
 X199.9999 Z-0.3987
 X199.9007 Z-0.4945
 X199.8511 Z-0.5493
 X199.8263 Z-0.5787
 X199.8015 Z-0.6096
 X199.7519 Z-0.6766
 X199.7023 Z-0.7518
 X199.6527 Z-0.8378
 X199.6279 Z-0.8861
 X199.6031 Z-0.9389
 X199.5783 Z-0.9974
 X199.5535 Z-1.0635
 X199.5038 Z-1.2362
 X199.4790 Z-1.3730
 X199.4666 Z-1.5048
 X199.4604 Z-8.0000
 X194.0971
 X194.0475
 X193.9483 Z-8.0034
 X193.8987 Z-8.0074
 X193.8491 Z-8.0130
 X193.7499 Z-8.0290
 X193.7003 Z-8.0394
 X193.6755 Z-8.0453
 X193.6507 Z-8.0516
 X193.5515 Z-8.0810
 X193.5019 Z-8.0984
 X193.4523 Z-8.1176
 X193.3531 Z-8.1621
 X193.3035 Z-8.1875
 X193.2787 Z-8.2011
 X193.2539 Z-8.2152
 X193.1547 Z-8.2779
 X193.1050 Z-8.3133
 X193.0554 Z-8.3518
 X192.9562 Z-8.4388
 X192.9066 Z-8.4883
 X192.8818 Z-8.5147
 X192.8570 Z-8.5424
 X192.7578 Z-8.6681
 X192.7082 Z-8.7422
 X192.6834 Z-8.7830
 X192.6586 Z-8.8268
 X192.6090 Z-8.9257
 X192.5594 Z-9.0468
 X192.5098 Z-9.2109
 X192.4850 Z-9.3331
 X192.4726 Z-9.4271
 X192.4664 Z-9.5095
 X192.4633 Z-19.0000
 X57.7382
 X57.6390 Z-9.5475
 X57.6142 Z-9.3052
 X57.6018 Z-9.2436
 X57.5894 Z-9.1918
 X57.5646 Z-9.1056
 X57.5522 Z-9.0683
 X57.5460 Z-9.0507
 X57.5398 Z-9.0338
 X57.4902 Z-8.9154
 X57.4406 Z-8.8181
 X57.3910 Z-8.7347
 X57.3662 Z-8.6969
 X57.3414 Z-8.6614
 X57.2918 Z-8.5960
 X57.2422 Z-8.5370
 X57.1926 Z-8.4833
 X57.1678 Z-8.4582
 X57.1430 Z-8.4343
 X57.0438 Z-8.3479
 X56.9942 Z-8.3098
 X56.9446 Z-8.2747
 X56.8453 Z-8.2125
 X56.7957 Z-8.1850
 X56.7709 Z-8.1721
 X56.7461 Z-8.1598
 X56.6469 Z-8.1157
 X56.5973 Z-8.0966
 X56.5477 Z-8.0794
 X56.4485 Z-8.0503
 X56.3989 Z-8.0384
 X56.3493 Z-8.0281
 X55.9525 Z-8.0000
 X50.6450
 X50.6202 Z-1.3405
 X50.6078 Z-1.2716
 X50.6016 Z-1.2425
 X50.5954 Z-1.2157
 X50.5458 Z-1.0500
 X50.5210 Z-0.9856
 X50.4962 Z-0.9283
 X50.4465 Z-0.8290
 X50.4217 Z-0.7850
 X50.4093 Z-0.7642
 X50.3969 Z-0.7441
 X50.2977 Z-0.6035
 X50.2481 Z-0.5437
 X50.1985 Z-0.4895
 X50.0993 Z-0.3945
 X50.0497 Z-0.3527
 X50.0249 Z-0.3331
 X50.0001 Z-0.3142
 X49.9009 Z-0.2460
 X49.8513 Z-0.2159
 X49.8017 Z-0.1882
 X49.7025 Z-0.1394
 X49.6529 Z-0.1181
 X49.6281 Z-0.1082
 X49.6033 Z-0.0988
 X49.5041 Z-0.0657
 X49.4545 Z-0.0519
 X49.4049 Z-0.0397
 X49.3057 Z-0.0204
 X49.2065 Z-0.0075
 X48.8096 Z0.0000
 X1.5875
 Y70.0351
 X48.8096
 X49.2065 Z-0.0075
 X49.6033 Z-0.0396
 X200.3967
 X200.7935 Z-0.0212
 X201.1904 Z0.0000
 X248.4125
 Y71.3026
 X1.5875
 Y72.5702
 X248.4125
 Y73.8377
 X1.5875
 Y75.1053
 X248.4125
 Y76.3728
 X1.5875
 Y77.6404
 X248.4125
 Y78.9079
 X1.5875
 Y80.1755
 X49.0081
 X49.1073 Z-0.0010
 X49.1569 Z-0.0035
 X49.1817 Z-0.0053
 X49.2065 Z-0.0075
 X49.6033 Z-0.0988
 X49.7025 Z-0.1394
 X49.7521 Z-0.1627
 X49.7769 Z-0.1752
 X49.7893 Z-0.1816
 X49.7955 Z-0.1849
 X49.7986 Z-0.1865
 X49.8002 Z-0.1874
 X49.8017 Z-0.1882
 X49.8141 Z-0.1949
 X49.8203 Z-0.1983
 X49.8234 Z-0.2000
 X49.8250 Z-0.2009
 X49.8257 Z-0.2013
 X49.8265 Z-0.2018
 X49.8327 Z-0.2052
 X49.8358 Z-0.2070
 X49.8374 Z-0.2079
 X49.8381 Z-0.2083
 X49.8385 Z-0.2085
 X49.8387 Z-0.2086
 X49.8388 Z-0.2087
 X49.8389 Z-0.2088
 X49.8513 Z-0.2094
 X200.1983
 X200.3967 Z-0.1416
 X200.4959 Z-0.1006
 X200.5455 Z-0.0830
 X200.5951 Z-0.0672
 X200.6943 Z-0.0408
 X200.7439 Z-0.0302
 X200.7935 Z-0.0212
 X201.1904 Z0.0000
 X248.4125
 Y81.4430
 X201.0911
 X200.9919 Z-0.0011
 X200.8927 Z-0.0080
 X200.8431 Z-0.0138
 X200.8183 Z-0.0173
 X200.7935 Z-0.0212
 X200.6943 Z-0.0408
 X200.6447 Z-0.0531
 X200.5951 Z-0.0672
 X200.4959 Z-0.1006
 X200.4463 Z-0.1201
 X200.4215 Z-0.1306
 X200.3967 Z-0.1416
 X200.2975 Z-0.1908
 X200.2479 Z-0.2187
 X200.1983 Z-0.2491
 X200.0991 Z-0.3178
 X200.0495 Z-0.3566
 X200.0247 Z-0.3772
 X200.0123 Z-0.3879
 X199.9999 Z-0.3987
 X199.9007 Z-0.4945
 X199.8511 Z-0.5493
 X199.8263 Z-0.5787
 X199.8015 Z-0.6096
 X199.7519 Z-0.6766
 X199.7023 Z-0.7518
 X199.6527 Z-0.8378
 X199.6279 Z-0.8861
 X199.6031 Z-0.9389
 X199.5783 Z-0.9974
 X199.5535 Z-1.0635
 X199.5038 Z-1.2362
 X199.4790 Z-1.3730
 X199.4666 Z-1.5048
 X199.4604 Z-8.0000
 X194.0971
 X194.0475
 X193.9483 Z-8.0034
 X193.8987 Z-8.0074
 X193.8491 Z-8.0130
 X193.7499 Z-8.0290
 X193.7003 Z-8.0394
 X193.6755 Z-8.0453
 X193.6507 Z-8.0516
 X193.5515 Z-8.0810
 X193.5019 Z-8.0984
 X193.4523 Z-8.1176
 X193.3531 Z-8.1621
 X193.3035 Z-8.1875
 X193.2787 Z-8.2011
 X193.2539 Z-8.2152
 X193.1547 Z-8.2779
 X193.1050 Z-8.3133
 X193.0554 Z-8.3518
 X192.9562 Z-8.4388
 X192.9066 Z-8.4883
 X192.8818 Z-8.5147
 X192.8570 Z-8.5424
 X192.7578 Z-8.6681
 X192.7082 Z-8.7422
 X192.6834 Z-8.7830
 X192.6586 Z-8.8268
 X192.6090 Z-8.9257
 X192.5594 Z-9.0468
 X192.5098 Z-9.2109
 X192.4850 Z-9.3331
 X192.4726 Z-9.4271
 X192.4664 Z-9.5095
 X192.4633 Z-19.0000
 X57.7382
 X57.6390 Z-9.5475
 X57.6142 Z-9.3052
 X57.6018 Z-9.2436
 X57.5894 Z-9.1918
 X57.5646 Z-9.1056
 X57.5522 Z-9.0683
 X57.5460 Z-9.0507
 X57.5398 Z-9.0338
 X57.4902 Z-8.9154
 X57.4406 Z-8.8181
 X57.3910 Z-8.7347
 X57.3662 Z-8.6969
 X57.3414 Z-8.6614
 X57.2918 Z-8.5960
 X57.2422 Z-8.5370
 X57.1926 Z-8.4833
 X57.1678 Z-8.4582
 X57.1430 Z-8.4343
 X57.0438 Z-8.3479
 X56.9942 Z-8.3098
 X56.9446 Z-8.2747
 X56.8453 Z-8.2125
 X56.7957 Z-8.1850
 X56.7709 Z-8.1721
 X56.7461 Z-8.1598
 X56.6469 Z-8.1157
 X56.5973 Z-8.0966
 X56.5477 Z-8.0794
 X56.4485 Z-8.0503
 X56.3989 Z-8.0384
 X56.3493 Z-8.0281
 X55.9525 Z-8.0000
 X50.6450
 X50.6202 Z-1.3405
 X50.6078 Z-1.2716
 X50.6016 Z-1.2425
 X50.5954 Z-1.2157
 X50.5458 Z-1.0500
 X50.5210 Z-0.9856
 X50.4962 Z-0.9283
 X50.4465 Z-0.8290
 X50.4217 Z-0.7850
 X50.4093 Z-0.7642
 X50.3969 Z-0.7441
 X50.2977 Z-0.6035
 X50.2481 Z-0.5437
 X50.1985 Z-0.4895
 X50.0993 Z-0.3945
 X50.0497 Z-0.3527
 X50.0249 Z-0.3331
 X50.0001 Z-0.3142
 X49.9009 Z-0.2460
 X49.8513 Z-0.2159
 X49.8017 Z-0.1882
 X49.7025 Z-0.1394
 X49.6529 Z-0.1181
 X49.6281 Z-0.1082
 X49.6033 Z-0.0988
 X49.5041 Z-0.0657
 X49.4545 Z-0.0519
 X49.4049 Z-0.0397
 X49.3057 Z-0.0204
 X49.2065 Z-0.0075
 X48.8096 Z0.0000
 X1.5875
 Y82.7106
 X49.0081
 X49.1073 Z-0.0010
 X49.1569 Z-0.0035
 X49.1817 Z-0.0053
 X49.2065 Z-0.0075
 X49.3057 Z-0.0204
 X49.3553 Z-0.0292
 X49.4049 Z-0.0397
 X49.5041 Z-0.0657
 X49.5537 Z-0.0814
 X49.5785 Z-0.0898
 X49.6033 Z-0.0988
 X49.7025 Z-0.1394
 X49.7521 Z-0.1627
 X49.8017 Z-0.1882
 X49.9009 Z-0.2460
 X49.9505 Z-0.2788
 X49.9753 Z-0.2961
 X50.0001 Z-0.3142
 X50.0993 Z-0.3945
 X50.1489 Z-0.4399
 X50.1737 Z-0.4642
 X50.1985 Z-0.4895
 X50.2481 Z-0.5437
 X50.2977 Z-0.6035
 X50.3473 Z-0.6698
 X50.3721 Z-0.7058
 X50.3969 Z-0.7441
 X50.4465 Z-0.8290
 X50.4962 Z-0.9283
 X50.5210 Z-0.9856
 X50.5458 Z-1.0500
 X50.5954 Z-1.2157
 X50.6202 Z-1.3405
 X50.6326 Z-1.4392
 X50.6388 Z-1.5390
 X50.6419 Z-8.0000
 X56.0517
 X56.1509 Z-8.0031
 X56.2501 Z-8.0124
 X56.2997 Z-8.0194
 X56.3245 Z-8.0236
 X56.3493 Z-8.0281
 X56.4485 Z-8.0503
 X56.4981 Z-8.0640
 X56.5477 Z-8.0794
 X56.6469 Z-8.1157
 X56.6965 Z-8.1367
 X56.7213 Z-8.1480
 X56.7461 Z-8.1598
 X56.8453 Z-8.2125
 X56.8950 Z-8.2423
 X56.9446 Z-8.2747
 X57.0438 Z-8.3479
 X57.0934 Z-8.3893
 X57.1182 Z-8.4113
 X57.1306 Z-8.4227
 X57.1430 Z-8.4343
 X57.2422 Z-8.5370
 X57.2918 Z-8.5960
 X57.3166 Z-8.6278
 X57.3414 Z-8.6614
 X57.3910 Z-8.7347
 X57.4158 Z-8.7749
 X57.4406 Z-8.8181
 X57.4902 Z-8.9154
 X57.5398 Z-9.0338
 X57.6390 Z-9.5475
 X57.6452 Z-19.0000
 X192.4602
 X192.5594 Z-9.0468
 X192.6090 Z-8.9257
 X192.6338 Z-8.8741
 X192.6586 Z-8.8268
 X192.7082 Z-8.7422
 X192.7578 Z-8.6681
 X192.8074 Z-8.6020
 X192.8322 Z-8.5715
 X192.8570 Z-8.5424
 X192.9562 Z-8.4388
 X193.0058 Z-8.3935
 X193.0554 Z-8.3518
 X193.1547 Z-8.2779
 X193.2043 Z-8.2453
 X193.2291 Z-8.2300
 X193.2539 Z-8.2152
 X193.3531 Z-8.1621
 X193.4027 Z-8.1389
 X193.4523 Z-8.1176
 X193.5515 Z-8.0810
 X193.6011 Z-8.0654
 X193.6259 Z-8.0583
 X193.6507 Z-8.0516
 X193.7499 Z-8.0290
 X193.8491 Z-8.0130
 X194.0475 Z-8.0000
 X194.4443
 X199.4542
 X199.4790 Z-1.3730
 X199.4914 Z-1.2962
 X199.5038 Z-1.2362
 X199.5287 Z-1.1407
 X199.5535 Z-1.0635
 X199.5783 Z-0.9974
 X199.5907 Z-0.9673
 X199.5969 Z-0.9529
 X199.6031 Z-0.9389
 X199.7023 Z-0.7518
 X199.7519 Z-0.6766
 X199.7767 Z-0.6421
 X199.8015 Z-0.6096
 X199.8511 Z-0.5493
 X199.9007 Z-0.4945
 X199.9503 Z-0.4445
 X199.9751 Z-0.4211
 X199.9999 Z-0.3987
 X200.0991 Z-0.3178
 X200.1487 Z-0.2820
 X200.1983 Z-0.2491
 X200.2975 Z-0.1908
 X200.3471 Z-0.1651
 X200.3719 Z-0.1531
 X200.3967 Z-0.1416
 X200.4959 Z-0.1006
 X200.5455 Z-0.0830
 X200.5951 Z-0.0672
 X200.6943 Z-0.0408
 X200.7439 Z-0.0302
 X200.7935 Z-0.0212
 X201.1904 Z0.0000
 X248.4125
 Y83.9781
 X201.0911
 X200.9919 Z-0.0011
 X200.8927 Z-0.0080
 X200.8431 Z-0.0138
 X200.8183 Z-0.0173
 X200.7935 Z-0.0212
 X200.6943 Z-0.0408
 X200.6447 Z-0.0531
 X200.5951 Z-0.0672
 X200.4959 Z-0.1006
 X200.4463 Z-0.1201
 X200.4215 Z-0.1306
 X200.3967 Z-0.1416
 X200.2975 Z-0.1908
 X200.2479 Z-0.2187
 X200.1983 Z-0.2491
 X200.0991 Z-0.3178
 X200.0495 Z-0.3566
 X200.0247 Z-0.3772
 X199.9999 Z-0.3987
 X199.8015 Z-0.6096
 X199.7519 Z-0.6766
 X199.7271 Z-0.7130
 X199.7147 Z-0.7321
 X199.7085 Z-0.7419
 X199.7054 Z-0.7468
 X199.7023 Z-0.7518
 X199.6775 Z-0.7933
 X199.6651 Z-0.8151
 X199.6589 Z-0.8264
 X199.6558 Z-0.8321
 X199.6542 Z-0.8349
 X199.6534 Z-0.8364
 X199.6530 Z-0.8371
 X199.6529 Z-0.8375
 X199.6528 Z-0.8376
 X199.6527 Z-0.8378
 X199.6496 Z-0.8436
 X199.6480 Z-0.8466
 X199.6472 Z-0.8480
 X199.6468 Z-0.8488
 X199.6467 Z-0.8491
 X199.6466 Z-0.8493
 X199.6465 Z-0.8495
 X199.6449 Z-0.8525
 X199.6441 Z-0.8540
 X199.6437 Z-0.8547
 X199.6436 Z-0.8551
 X199.6435 Z-0.8553
 X199.6434
 Z-0.8554
 X199.6426 Z-0.8566
 X50.4962
 X50.3969 Z-0.7441
 X50.2977 Z-0.6035
 X50.2481 Z-0.5437
 X50.1985 Z-0.4895
 X50.0993 Z-0.3945
 X50.0497 Z-0.3527
 X50.0249 Z-0.3331
 X50.0001 Z-0.3142
 X49.9009 Z-0.2460
 X49.8513 Z-0.2159
 X49.8017 Z-0.1882
 X49.7025 Z-0.1394
 X49.6529 Z-0.1181
 X49.6281 Z-0.1082
 X49.6033 Z-0.0988
 X49.5041 Z-0.0657
 X49.4545 Z-0.0519
 X49.4049 Z-0.0397
 X49.3057 Z-0.0204
 X49.2065 Z-0.0075
 X48.8096 Z0.0000
 X1.5875
 Y85.2457
 X48.8096
 X49.2065 Z-0.0063
 X200.7935
 X201.1904 Z0.0000
 X248.4125
 Y86.5132
 X1.5875
 Y87.7808
 X248.4125
 Y89.0483
 X1.5875
 Y90.3159
 X248.4125
 Y91.5834
 X1.5875
 Y92.8510
 X248.4125
 Y94.1185
 X1.5875
 Y95.3861
 X49.0081
 X49.1073 Z-0.0010
 X49.1569 Z-0.0035
 X49.1817 Z-0.0053
 X49.2065 Z-0.0075
 X49.3057 Z-0.0204
 X49.3553 Z-0.0292
 X49.4049 Z-0.0397
 X49.5041 Z-0.0657
 X49.5537 Z-0.0814
 X49.5785 Z-0.0898
 X49.6033 Z-0.0988
 X49.7025 Z-0.1394
 X49.7521 Z-0.1627
 X49.8017 Z-0.1882
 X49.9009 Z-0.2460
 X49.9505 Z-0.2788
 X49.9753 Z-0.2961
 X49.9877 Z-0.3051
 X49.9939 Z-0.3096
 X49.9970 Z-0.3119
 X49.9986 Z-0.3131
 X50.0001 Z-0.3142
 X50.0249 Z-0.3331
 X50.0373 Z-0.3428
 X50.0435 Z-0.3477
 X50.0466 Z-0.3502
 X50.0482 Z-0.3515
 X50.0489 Z-0.3521
 X50.0493 Z-0.3524
 X50.0495 Z-0.3526
 X50.0496
 X50.0497 Z-0.3527
 X50.0993 Z-0.3535
 X199.9999
 X200.1983 Z-0.2491
 X200.2975 Z-0.1908
 X200.3471 Z-0.1651
 X200.3719 Z-0.1531
 X200.3967 Z-0.1416
 X200.4959 Z-0.1006
 X200.5455 Z-0.0830
 X200.5951 Z-0.0672
 X200.6943 Z-0.0408
 X200.7439 Z-0.0302
 X200.7935 Z-0.0212
 X201.1904 Z0.0000
 X248.4125
 Y96.6536
 X201.0911
 X200.9919 Z-0.0011
 X200.8927 Z-0.0080
 X200.8431 Z-0.0138
 X200.8183 Z-0.0173
 X200.7935 Z-0.0212
 X200.6943 Z-0.0408
 X200.6447 Z-0.0531
 X200.5951 Z-0.0672
 X200.4959 Z-0.1006
 X200.4463 Z-0.1201
 X200.4215 Z-0.1306
 X200.3967 Z-0.1416
 X200.2975 Z-0.1908
 X200.2479 Z-0.2187
 X200.1983 Z-0.2491
 X200.0991 Z-0.3178
 X200.0495 Z-0.3566
 X200.0247 Z-0.3772
 X200.0123 Z-0.3879
 X199.9999 Z-0.3987
 X199.9007 Z-0.4945
 X199.8511 Z-0.5493
 X199.8263 Z-0.5787
 X199.8015 Z-0.6096
 X199.7519 Z-0.6766
 X199.7023 Z-0.7518
 X199.6527 Z-0.8378
 X199.6279 Z-0.8861
 X199.6031 Z-0.9389
 X199.5783 Z-0.9974
 X199.5535 Z-1.0635
 X199.5038 Z-1.2362
 X199.4790 Z-1.3730
 X199.4666 Z-1.5048
 X199.4604 Z-8.0000
 X194.0971
 X194.0475
 X193.9483 Z-8.0034
 X193.8987 Z-8.0074
 X193.8491 Z-8.0130
 X193.7499 Z-8.0290
 X193.7003 Z-8.0394
 X193.6755 Z-8.0453
 X193.6507 Z-8.0516
 X193.5515 Z-8.0810
 X193.5019 Z-8.0984
 X193.4523 Z-8.1176
 X193.3531 Z-8.1621
 X193.3035 Z-8.1875
 X193.2787 Z-8.2011
 X193.2539 Z-8.2152
 X193.1547 Z-8.2779
 X193.1050 Z-8.3133
 X193.0554 Z-8.3518
 X192.9562 Z-8.4388
 X192.9066 Z-8.4883
 X192.8818 Z-8.5147
 X192.8570 Z-8.5424
 X192.7578 Z-8.6681
 X192.7082 Z-8.7422
 X192.6834 Z-8.7830
 X192.6586 Z-8.8268
 X192.6090 Z-8.9257
 X192.5594 Z-9.0468
 X192.5098 Z-9.2109
 X192.4850 Z-9.3331
 X192.4726 Z-9.4271
 X192.4664 Z-9.5095
 X192.4633 Z-19.0000
 X57.7382
 X57.6390 Z-9.5475
 X57.6142 Z-9.3052
 X57.6018 Z-9.2436
 X57.5894 Z-9.1918
 X57.5646 Z-9.1056
 X57.5522 Z-9.0683
 X57.5460 Z-9.0507
 X57.5398 Z-9.0338
 X57.4902 Z-8.9154
 X57.4406 Z-8.8181
 X57.3910 Z-8.7347
 X57.3662 Z-8.6969
 X57.3414 Z-8.6614
 X57.2918 Z-8.5960
 X57.2422 Z-8.5370
 X57.1926 Z-8.4833
 X57.1678 Z-8.4582
 X57.1430 Z-8.4343
 X57.0438 Z-8.3479
 X56.9942 Z-8.3098
 X56.9446 Z-8.2747
 X56.8453 Z-8.2125
 X56.7957 Z-8.1850
 X56.7709 Z-8.1721
 X56.7461 Z-8.1598
 X56.6469 Z-8.1157
 X56.5973 Z-8.0966
 X56.5477 Z-8.0794
 X56.4485 Z-8.0503
 X56.3989 Z-8.0384
 X56.3493 Z-8.0281
 X55.9525 Z-8.0000
 X50.6450
 X50.6202 Z-1.3405
 X50.6078 Z-1.2716
 X50.6016 Z-1.2425
 X50.5954 Z-1.2157
 X50.5458 Z-1.0500
 X50.5210 Z-0.9856
 X50.4962 Z-0.9283
 X50.4465 Z-0.8290
 X50.4217 Z-0.7850
 X50.4093 Z-0.7642
 X50.3969 Z-0.7441
 X50.2977 Z-0.6035
 X50.2481 Z-0.5437
 X50.1985 Z-0.4895
 X50.0993 Z-0.3945
 X50.0497 Z-0.3527
 X50.0249 Z-0.3331
 X50.0001 Z-0.3142
 X49.9009 Z-0.2460
 X49.8513 Z-0.2159
 X49.8017 Z-0.1882
 X49.7025 Z-0.1394
 X49.6529 Z-0.1181
 X49.6281 Z-0.1082
 X49.6033 Z-0.0988
 X49.5041 Z-0.0657
 X49.4545 Z-0.0519
 X49.4049 Z-0.0397
 X49.3057 Z-0.0204
 X49.2065 Z-0.0075
 X48.8096 Z0.0000
 X1.5875
 Y97.9212
 X49.0081
 X49.1073 Z-0.0010
 X49.1569 Z-0.0035
 X49.1817 Z-0.0053
 X49.2065 Z-0.0075
 X49.3057 Z-0.0204
 X49.3553 Z-0.0292
 X49.4049 Z-0.0397
 X49.5041 Z-0.0657
 X49.5537 Z-0.0814
 X49.5785 Z-0.0898
 X49.6033 Z-0.0988
 X49.7025 Z-0.1394
 X49.7521 Z-0.1627
 X49.8017 Z-0.1882
 X49.9009 Z-0.2460
 X49.9505 Z-0.2788
 X49.9753 Z-0.2961
 X50.0001 Z-0.3142
 X50.0993 Z-0.3945
 X50.1489 Z-0.4399
 X50.1737 Z-0.4642
 X50.1985 Z-0.4895
 X50.2481 Z-0.5437
 X50.2977 Z-0.6035
 X50.3473 Z-0.6698
 X50.3721 Z-0.7058
 X50.3969 Z-0.7441
 X50.4465 Z-0.8290
 X50.4962 Z-0.9283
 X50.5210 Z-0.9856
 X50.5458 Z-1.0500
 X50.5954 Z-1.2157
 X50.6202 Z-1.3405
 X50.6326 Z-1.4392
 X50.6388 Z-1.5390
 X50.6419 Z-8.0000
 X56.0517
 X56.1509 Z-8.0031
 X56.2501 Z-8.0124
 X56.2997 Z-8.0194
 X56.3245 Z-8.0236
 X56.3493 Z-8.0281
 X56.4485 Z-8.0503
 X56.4981 Z-8.0640
 X56.5477 Z-8.0794
 X56.6469 Z-8.1157
 X56.6965 Z-8.1367
 X56.7213 Z-8.1480
 X56.7461 Z-8.1598
 X56.8453 Z-8.2125
 X56.8950 Z-8.2423
 X56.9446 Z-8.2747
 X57.0438 Z-8.3479
 X57.0934 Z-8.3893
 X57.1182 Z-8.4113
 X57.1306 Z-8.4227
 X57.1430 Z-8.4343
 X57.2422 Z-8.5370
 X57.2918 Z-8.5960
 X57.3166 Z-8.6278
 X57.3414 Z-8.6614
 X57.3910 Z-8.7347
 X57.4158 Z-8.7749
 X57.4406 Z-8.8181
 X57.4902 Z-8.9154
 X57.5398 Z-9.0338
 X57.6390 Z-9.5475
 X57.6452 Z-19.0000
 X192.4602
 X192.5594 Z-9.0468
 X192.6090 Z-8.9257
 X192.6338 Z-8.8741
 X192.6586 Z-8.8268
 X192.7082 Z-8.7422
 X192.7578 Z-8.6681
 X192.8074 Z-8.6020
 X192.8322 Z-8.5715
 X192.8570 Z-8.5424
 X192.9562 Z-8.4388
 X193.0058 Z-8.3935
 X193.0554 Z-8.3518
 X193.1547 Z-8.2779
 X193.2043 Z-8.2453
 X193.2291 Z-8.2300
 X193.2539 Z-8.2152
 X193.3531 Z-8.1621
 X193.4027 Z-8.1389
 X193.4523 Z-8.1176
 X193.5515 Z-8.0810
 X193.6011 Z-8.0654
 X193.6259 Z-8.0583
 X193.6507 Z-8.0516
 X193.7499 Z-8.0290
 X193.8491 Z-8.0130
 X194.0475 Z-8.0000
 X194.4443
 X199.4542
 X199.4790 Z-1.3730
 X199.4914 Z-1.2962
 X199.5038 Z-1.2362
 X199.5287 Z-1.1407
 X199.5535 Z-1.0635
 X199.5783 Z-0.9974
 X199.5907 Z-0.9673
 X199.5969 Z-0.9529
 X199.6031 Z-0.9389
 X199.7023 Z-0.7518
 X199.7519 Z-0.6766
 X199.7767 Z-0.6421
 X199.8015 Z-0.6096
 X199.8511 Z-0.5493
 X199.9007 Z-0.4945
 X199.9503 Z-0.4445
 X199.9751 Z-0.4211
 X199.9999 Z-0.3987
 X200.0991 Z-0.3178
 X200.1487 Z-0.2820
 X200.1983 Z-0.2491
 X200.2975 Z-0.1908
 X200.3471 Z-0.1651
 X200.3719 Z-0.1531
 X200.3967 Z-0.1416
 X200.4959 Z-0.1006
 X200.5455 Z-0.0830
 X200.5951 Z-0.0672
 X200.6943 Z-0.0408
 X200.7439 Z-0.0302
 X200.7935 Z-0.0212
 X201.1904 Z0.0000
 X248.4125
 Y99.1887
 X201.0911
 X200.9919 Z-0.0011
 X200.8927 Z-0.0080
 X200.8431 Z-0.0138
 X200.8183 Z-0.0173
 X200.7935 Z-0.0212
 X200.6943 Z-0.0408
 X200.6447 Z-0.0531
 X200.5951 Z-0.0672
 X200.4959 Z-0.1006
 X200.4463 Z-0.1201
 X200.4215 Z-0.1306
 X200.3967 Z-0.1416
 X200.2975 Z-0.1908
 X200.2479 Z-0.2187
 X200.1983 Z-0.2491
 X200.0991 Z-0.3178
 X200.0495 Z-0.3566
 X200.0247 Z-0.3772
 X200.0123 Z-0.3879
 X200.0061 Z-0.3933
 X200.0030 Z-0.3960
 X199.9999 Z-0.3987
 X199.9007 Z-0.4945
 X199.8759 Z-0.5212
 X199.8635 Z-0.5351
 X199.8604 Z-0.5386
 X199.8588 Z-0.5404
 X199.8580 Z-0.5412
 X199.8577 Z-0.5417
 X199.8575 Z-0.5419
 X199.8573 Z-0.5421
 X199.8557 Z-0.5439
 X199.8549 Z-0.5448
 X199.8546 Z-0.5452
 X199.8544 Z-0.5455
 X199.8543 Z-0.5456
 X199.8542
 Z-0.5457
 X199.8534 Z-0.5466
 X199.8530 Z-0.5467
 X50.3969
 X50.0001 Z-0.3142
 X49.9009 Z-0.2460
 X49.8513 Z-0.2159
 X49.8017 Z-0.1882
 X49.7025 Z-0.1394
 X49.6529 Z-0.1181
 X49.6281 Z-0.1082
 X49.6033 Z-0.0988
 X49.5041 Z-0.0657
 X49.4545 Z-0.0519
 X49.4049 Z-0.0397
 X49.3057 Z-0.0204
 X49.2065 Z-0.0075
 X48.8096 Z0.0000
 X1.5875
 Y100.4563
 X248.4125
 Y101.7238
 X1.5875
 Y102.9913
 X248.4125
 Y104.2589
 X1.5875
 Y105.5264
 X248.4125
 Y106.7940
 X1.5875
 Y108.0615
 X248.4125
 Y109.3291
 X1.5875
 Y110.5966
 X49.0081
 X49.1073 Z-0.0010
 X49.1569 Z-0.0035
 X49.1817 Z-0.0053
 X49.2065 Z-0.0075
 X49.3057 Z-0.0204
 X49.3553 Z-0.0292
 X49.4049 Z-0.0397
 X49.5041 Z-0.0657
 X49.5537 Z-0.0814
 X49.5785 Z-0.0898
 X49.6033 Z-0.0988
 X50.0001 Z-0.3142
 X50.0993 Z-0.3945
 X50.1489 Z-0.4399
 X50.1737 Z-0.4642
 X50.1861 Z-0.4767
 X50.1923 Z-0.4831
 X50.1954 Z-0.4863
 X50.1970 Z-0.4879
 X50.1978 Z-0.4887
 X50.1985 Z-0.4895
 X50.2233 Z-0.5160
 X50.2357 Z-0.5297
 X50.2419 Z-0.5367
 X50.2450 Z-0.5402
 X50.2466 Z-0.5420
 X50.2474 Z-0.5429
 X50.2477 Z-0.5433
 X50.2481 Z-0.5437
 X50.2543 Z-0.5509
 X50.2574 Z-0.5545
 X50.2590 Z-0.5563
 X50.2598 Z-0.5572
 X50.2601 Z-0.5577
 X50.2603 Z-0.5579
 X50.2604 Z-0.5580
 X50.2605 Z-0.5581
 X50.2729 Z-0.5590
 X199.8425
 X199.8429 Z-0.5587
 X199.8433 Z-0.5583
 X199.8449 Z-0.5565
 X199.8511 Z-0.5493
 X199.8759 Z-0.5212
 X199.9007 Z-0.4945
 X199.9503 Z-0.4445
 X199.9751 Z-0.4211
 X199.9999 Z-0.3987
 X200.0991 Z-0.3178
 X200.1487 Z-0.2820
 X200.1983 Z-0.2491
 X200.2975 Z-0.1908
 X200.3471 Z-0.1651
 X200.3719 Z-0.1531
 X200.3967 Z-0.1416
 X200.4959 Z-0.1006
 X200.5455 Z-0.0830
 X200.5951 Z-0.0672
 X200.6943 Z-0.0408
 X200.7439 Z-0.0302
 X200.7935 Z-0.0212
 X201.1904 Z0.0000
 X248.4125
 Y111.8642
 X201.0911
 X200.9919 Z-0.0011
 X200.8927 Z-0.0080
 X200.8431 Z-0.0138
 X200.8183 Z-0.0173
 X200.7935 Z-0.0212
 X200.6943 Z-0.0408
 X200.6447 Z-0.0531
 X200.5951 Z-0.0672
 X200.4959 Z-0.1006
 X200.4463 Z-0.1201
 X200.4215 Z-0.1306
 X200.3967 Z-0.1416
 X200.2975 Z-0.1908
 X200.2479 Z-0.2187
 X200.1983 Z-0.2491
 X200.0991 Z-0.3178
 X200.0495 Z-0.3566
 X200.0247 Z-0.3772
 X200.0123 Z-0.3879
 X199.9999 Z-0.3987
 X199.9007 Z-0.4945
 X199.8511 Z-0.5493
 X199.8263 Z-0.5787
 X199.8015 Z-0.6096
 X199.7519 Z-0.6766
 X199.7023 Z-0.7518
 X199.6527 Z-0.8378
 X199.6279 Z-0.8861
 X199.6031 Z-0.9389
 X199.5783 Z-0.9974
 X199.5535 Z-1.0635
 X199.5038 Z-1.2362
 X199.4790 Z-1.3730
 X199.4666 Z-1.5048
 X199.4604 Z-8.0000
 X194.0971
 X194.0475
 X193.9483 Z-8.0034
 X193.8987 Z-8.0074
 X193.8491 Z-8.0130
 X193.7499 Z-8.0290
 X193.7003 Z-8.0394
 X193.6755 Z-8.0453
 X193.6507 Z-8.0516
 X193.5515 Z-8.0810
 X193.5019 Z-8.0984
 X193.4523 Z-8.1176
 X193.3531 Z-8.1621
 X193.3035 Z-8.1875
 X193.2787 Z-8.2011
 X193.2539 Z-8.2152
 X193.1547 Z-8.2779
 X193.1050 Z-8.3133
 X193.0554 Z-8.3518
 X192.9562 Z-8.4388
 X192.9066 Z-8.4883
 X192.8818 Z-8.5147
 X192.8570 Z-8.5424
 X192.7578 Z-8.6681
 X192.7082 Z-8.7422
 X192.6834 Z-8.7830
 X192.6586 Z-8.8268
 X192.6090 Z-8.9257
 X192.5594 Z-9.0468
 X192.5098 Z-9.2109
 X192.4850 Z-9.3331
 X192.4726 Z-9.4271
 X192.4664 Z-9.5095
 X192.4633 Z-19.0000
 X57.7382
 X57.6390 Z-9.5475
 X57.6142 Z-9.3052
 X57.6018 Z-9.2436
 X57.5894 Z-9.1918
 X57.5646 Z-9.1056
 X57.5522 Z-9.0683
 X57.5460 Z-9.0507
 X57.5398 Z-9.0338
 X57.4902 Z-8.9154
 X57.4406 Z-8.8181
 X57.3910 Z-8.7347
 X57.3662 Z-8.6969
 X57.3414 Z-8.6614
 X57.2918 Z-8.5960
 X57.2422 Z-8.5370
 X57.1926 Z-8.4833
 X57.1678 Z-8.4582
 X57.1430 Z-8.4343
 X57.0438 Z-8.3479
 X56.9942 Z-8.3098
 X56.9446 Z-8.2747
 X56.8453 Z-8.2125
 X56.7957 Z-8.1850
 X56.7709 Z-8.1721
 X56.7461 Z-8.1598
 X56.6469 Z-8.1157
 X56.5973 Z-8.0966
 X56.5477 Z-8.0794
 X56.4485 Z-8.0503
 X56.3989 Z-8.0384
 X56.3493 Z-8.0281
 X55.9525 Z-8.0000
 X50.6450
 X50.6202 Z-1.3405
 X50.6078 Z-1.2716
 X50.6016 Z-1.2425
 X50.5954 Z-1.2157
 X50.5458 Z-1.0500
 X50.5210 Z-0.9856
 X50.4962 Z-0.9283
 X50.4465 Z-0.8290
 X50.4217 Z-0.7850
 X50.4093 Z-0.7642
 X50.3969 Z-0.7441
 X50.2977 Z-0.6035
 X50.2481 Z-0.5437
 X50.1985 Z-0.4895
 X50.0993 Z-0.3945
 X50.0497 Z-0.3527
 X50.0249 Z-0.3331
 X50.0001 Z-0.3142
 X49.9009 Z-0.2460
 X49.8513 Z-0.2159
 X49.8017 Z-0.1882
 X49.7025 Z-0.1394
 X49.6529 Z-0.1181
 X49.6281 Z-0.1082
 X49.6033 Z-0.0988
 X49.5041 Z-0.0657
 X49.4545 Z-0.0519
 X49.4049 Z-0.0397
 X49.3057 Z-0.0204
 X49.2065 Z-0.0075
 X48.8096 Z0.0000
 X1.5875
 Y113.1317
 X49.0081
 X49.1073 Z-0.0010
 X49.1569 Z-0.0035
 X49.1817 Z-0.0053
 X49.2065 Z-0.0075
 X49.3057 Z-0.0204
 X49.3553 Z-0.0292
 X49.4049 Z-0.0397
 X49.5041 Z-0.0657
 X49.5537 Z-0.0814
 X49.5785 Z-0.0898
 X49.6033 Z-0.0988
 X49.7025 Z-0.1394
 X49.7521 Z-0.1627
 X49.8017 Z-0.1882
 X49.9009 Z-0.2460
 X49.9505 Z-0.2788
 X49.9753 Z-0.2961
 X50.0001 Z-0.3142
 X50.0993 Z-0.3945
 X50.1489 Z-0.4399
 X50.1737 Z-0.4642
 X50.1985 Z-0.4895
 X50.2481 Z-0.5437
 X50.2977 Z-0.6035
 X50.3473 Z-0.6698
 X50.3721 Z-0.7058
 X50.3969 Z-0.7441
 X50.4465 Z-0.8290
 X50.4962 Z-0.9283
 X50.5210 Z-0.9856
 X50.5458 Z-1.0500
 X50.5954 Z-1.2157
 X50.6202 Z-1.3405
 X50.6326 Z-1.4392
 X50.6388 Z-1.5390
 X50.6419 Z-8.0000
 X56.0517
 X56.1509 Z-8.0031
 X56.2501 Z-8.0124
 X56.2997 Z-8.0194
 X56.3245 Z-8.0236
 X56.3493 Z-8.0281
 X56.4485 Z-8.0503
 X56.4981 Z-8.0640
 X56.5477 Z-8.0794
 X56.6469 Z-8.1157
 X56.6965 Z-8.1367
 X56.7213 Z-8.1480
 X56.7461 Z-8.1598
 X56.8453 Z-8.2125
 X56.8950 Z-8.2423
 X56.9446 Z-8.2747
 X57.0438 Z-8.3479
 X57.0934 Z-8.3893
 X57.1182 Z-8.4113
 X57.1306 Z-8.4227
 X57.1430 Z-8.4343
 X57.2422 Z-8.5370
 X57.2918 Z-8.5960
 X57.3166 Z-8.6278
 X57.3414 Z-8.6614
 X57.3910 Z-8.7347
 X57.4158 Z-8.7749
 X57.4406 Z-8.8181
 X57.4902 Z-8.9154
 X57.5398 Z-9.0338
 X57.6390 Z-9.5475
 X57.6452 Z-19.0000
 X192.4602
 X192.5594 Z-9.0468
 X192.6090 Z-8.9257
 X192.6338 Z-8.8741
 X192.6586 Z-8.8268
 X192.7082 Z-8.7422
 X192.7578 Z-8.6681
 X192.8074 Z-8.6020
 X192.8322 Z-8.5715
 X192.8570 Z-8.5424
 X192.9562 Z-8.4388
 X193.0058 Z-8.3935
 X193.0554 Z-8.3518
 X193.1547 Z-8.2779
 X193.2043 Z-8.2453
 X193.2291 Z-8.2300
 X193.2539 Z-8.2152
 X193.3531 Z-8.1621
 X193.4027 Z-8.1389
 X193.4523 Z-8.1176
 X193.5515 Z-8.0810
 X193.6011 Z-8.0654
 X193.6259 Z-8.0583
 X193.6507 Z-8.0516
 X193.7499 Z-8.0290
 X193.8491 Z-8.0130
 X194.0475 Z-8.0000
 X194.4443
 X199.4542
 X199.4790 Z-1.3730
 X199.4914 Z-1.2962
 X199.5038 Z-1.2362
 X199.5287 Z-1.1407
 X199.5535 Z-1.0635
 X199.5783 Z-0.9974
 X199.5907 Z-0.9673
 X199.5969 Z-0.9529
 X199.6031 Z-0.9389
 X199.7023 Z-0.7518
 X199.7519 Z-0.6766
 X199.7767 Z-0.6421
 X199.8015 Z-0.6096
 X199.8511 Z-0.5493
 X199.9007 Z-0.4945
 X199.9503 Z-0.4445
 X199.9751 Z-0.4211
 X199.9999 Z-0.3987
 X200.0991 Z-0.3178
 X200.1487 Z-0.2820
 X200.1983 Z-0.2491
 X200.2975 Z-0.1908
 X200.3471 Z-0.1651
 X200.3719 Z-0.1531
 X200.3967 Z-0.1416
 X200.4959 Z-0.1006
 X200.5455 Z-0.0830
 X200.5951 Z-0.0672
 X200.6943 Z-0.0408
 X200.7439 Z-0.0302
 X200.7935 Z-0.0212
 X201.1904 Z0.0000
 X248.4125
 Y114.3993
 X201.0911
 X200.9919 Z-0.0011
 X200.8927 Z-0.0080
 X200.8431 Z-0.0138
 X200.8183 Z-0.0173
 X200.7935 Z-0.0212
 X200.6943 Z-0.0408
 X200.6447 Z-0.0531
 X200.5951 Z-0.0672
 X200.4959 Z-0.1006
 X200.3967 Z-0.1416
 X200.1983 Z-0.2491
 X200.1487 Z-0.2820
 X200.1239 Z-0.2996
 X200.1115 Z-0.3086
 X200.1053 Z-0.3132
 X200.1022 Z-0.3155
 X200.1006 Z-0.3166
 X200.0999 Z-0.3172
 X200.0991 Z-0.3178
 X200.0743 Z-0.3368
 X200.0712 Z-0.3392
 X200.0696 Z-0.3405
 X200.0689 Z-0.3411
 X200.0685 Z-0.3414
 X200.0681 Z-0.3417
 X200.0665 Z-0.3429
 X200.0658 Z-0.3435
 X200.0654 Z-0.3438
 X200.0652 Z-0.3440
 X200.0651 Z-0.3441
 X200.0650
 X200.0642 Z-0.3447
 X200.0638 Z-0.3450
 X50.0497
 X50.0001 Z-0.3142
 X49.9009 Z-0.2460
 X49.8513 Z-0.2159
 X49.8017 Z-0.1882
 X49.7025 Z-0.1394
 X49.6529 Z-0.1181
 X49.6281 Z-0.1082
 X49.6033 Z-0.0988
 X49.5041 Z-0.0657
 X49.4545 Z-0.0519
 X49.4049 Z-0.0397
 X49.3057 Z-0.0204
 X49.2065 Z-0.0075
 X48.8096 Z0.0000
 X1.5875
 Y115.6668
 X248.4125
 Y116.9344
 X1.5875
 Y118.2019
 X248.4125
 Y119.4695
 X1.5875
 Y120.7370
 X248.4125
 Y122.0046
 X1.5875
 Y123.2721
 X248.4125
 Y124.5397
 X1.5875
 Y125.8072
 X248.4125
 Y127.0748
 X1.5875
 Y128.3423
 X248.4125
 Y129.6099
 X1.5875
 Y130.8774
 X248.4125
 Y132.1450
 X1.5875
 Y133.4125
 X248.4125
G0 Z25.0000
M5 (stop spindle)
G04 P3 (wait for 3 seconds)
G0 Z25.0000
M2 (end program)
