;PYCAM-META-DATA: Filename: /home/framlin/tinker/acrylic-lamp/cad/socket-bottom-filled.stl
;PYCAM-META-DATA: Timestamp: 2016-04-15 13:35:49.567019
;PYCAM-META-DATA: Version: 0.5.1
;Estimated machine time: 121 minutes
G40 (disable tool radius compensation)
G49 (disable tool length compensation)
G80 (cancel modal motion)
G54 (select coordinate system 1)
G90 (disable incremental moves)
G21 (metric)
G61 (exact path mode)
F750.00000
S1000.00000
;PYCAM_TOOLPATH_SETTINGS: START
;[Bounds]
;maxz = 0.0
;maxx = 248.9
;maxy = 134.9
;minx = 1.1
;miny = 1.1
;minz = -22.0
;
;[Tool]
;torus_radius = 0.25
;speed = 1000.0
;shape = CylindricalCutter
;tool_radius = 1.1
;feedrate = 750.0
;
;[Process]
;engrave_offset = 0.0
;step_down = 2.0
;generator = ContourFollow
;postprocessor = SimpleCutter
;milling_style = conventional
;material_allowance = 0.0
;pocketing_type = none
;path_direction = x
;
;PYCAM_TOOLPATH_SETTINGS: END
T5 M6
G0 Z25.0000
M3 (start spindle)
G04 P3 (wait for 3 seconds)
 X199.4762 Y115.0064
G1 Z0.0000
 X199.4546 Y114.8611
 X199.3942 Y114.7344
 X198.9000 Y114.1944
 Y111.8056
 X199.3942 Y111.2656
 X199.4546 Y111.1389
 X199.4762 Y110.9936
 X199.4594 Y110.8712
 X199.4076 Y110.7520
 X199.3255 Y110.6511
 X199.2192 Y110.5762
 X199.0967 Y110.5328
 X198.9670 Y110.5240
 X198.8397 Y110.5506
 X198.7243 Y110.6106
 X198.2017 Y111.1000
 X51.7933
 X51.2824 Y110.6140
 X51.1748 Y110.5548
 X51.0555 Y110.5249
 X50.9327 Y110.5265
 X50.8142 Y110.5593
 X50.7080 Y110.6211
 X50.6211 Y110.7081
 X50.5593 Y110.8142
 X50.5265 Y110.9327
 X50.5249 Y111.0555
 X50.5548 Y111.1748
 X50.6140 Y111.2824
 X51.1000 Y111.7933
 Y114.2067
 X50.6140 Y114.7176
 X50.5548 Y114.8252
 X50.5249 Y114.9445
 X50.5265 Y115.0673
 X50.5593 Y115.1858
 X50.6211 Y115.2919
 X50.7080 Y115.3789
 X50.8142 Y115.4407
 X50.9327 Y115.4735
 X51.0555 Y115.4751
 X51.1748 Y115.4452
 X51.2824 Y115.3860
 X51.7933 Y114.9000
 X198.2017
 X198.7243 Y115.3894
 X198.8397 Y115.4494
 X198.9670 Y115.4760
 X199.0967 Y115.4672
 X199.2192 Y115.4238
 X199.3255 Y115.3489
 X199.4076 Y115.2480
 X199.4594 Y115.1288
 X199.4762 Y115.0064
G0 Z25.0000
 Y100.0064
G1 Z0.0000
 X199.4546 Y99.8611
 X199.3942 Y99.7344
 X198.9000 Y99.1944
 Y96.8056
 X199.3942 Y96.2656
 X199.4546 Y96.1389
 X199.4762 Y95.9936
 X199.4594 Y95.8712
 X199.4076 Y95.7520
 X199.3255 Y95.6511
 X199.2192 Y95.5762
 X199.0967 Y95.5328
 X198.9670 Y95.5240
 X198.8397 Y95.5506
 X198.7243 Y95.6106
 X198.2017 Y96.1000
 X51.7933
 X51.2824 Y95.6140
 X51.1748 Y95.5548
 X51.0555 Y95.5249
 X50.9327 Y95.5265
 X50.8142 Y95.5593
 X50.7080 Y95.6211
 X50.6211 Y95.7081
 X50.5593 Y95.8142
 X50.5265 Y95.9327
 X50.5249 Y96.0555
 X50.5548 Y96.1748
 X50.6140 Y96.2824
 X51.1000 Y96.7933
 Y99.2067
 X50.6140 Y99.7176
 X50.5548 Y99.8252
 X50.5249 Y99.9445
 X50.5265 Y100.0673
 X50.5593 Y100.1858
 X50.6211 Y100.2919
 X50.7080 Y100.3789
 X50.8142 Y100.4407
 X50.9327 Y100.4735
 X51.0555 Y100.4751
 X51.1748 Y100.4452
 X51.2824 Y100.3860
 X51.7933 Y99.9000
 X198.2017
 X198.7243 Y100.3894
 X198.8397 Y100.4494
 X198.9670 Y100.4760
 X199.0967 Y100.4672
 X199.2192 Y100.4238
 X199.3255 Y100.3489
 X199.4076 Y100.2480
 X199.4594 Y100.1288
 X199.4762 Y100.0064
G0 Z25.0000
 X199.0967 Y85.4672
G1 Z0.0000
 X199.2192 Y85.4238
 X199.3255 Y85.3489
 X199.4076 Y85.2480
 X199.4594 Y85.1288
 X199.4762 Y85.0064
 X199.4546 Y84.8611
 X199.3942 Y84.7344
 X198.9000 Y84.1944
 Y81.8056
 X199.3942 Y81.2656
 X199.4546 Y81.1389
 X199.4762 Y80.9936
 X199.4594 Y80.8712
 X199.4076 Y80.7520
 X199.3255 Y80.6511
 X199.2192 Y80.5762
 X199.0967 Y80.5328
 X198.9670 Y80.5240
 X198.8397 Y80.5506
 X198.7243 Y80.6106
 X198.2017 Y81.1000
 X51.7933
 X51.2824 Y80.6140
 X51.1748 Y80.5548
 X51.0555 Y80.5249
 X50.9327 Y80.5265
 X50.8142 Y80.5593
 X50.7080 Y80.6211
 X50.6211 Y80.7081
 X50.5593 Y80.8142
 X50.5265 Y80.9327
 X50.5249 Y81.0555
 X50.5548 Y81.1748
 X50.6140 Y81.2824
 X51.1000 Y81.7933
 Y84.2067
 X50.6140 Y84.7176
 X50.5548 Y84.8252
 X50.5249 Y84.9445
 X50.5265 Y85.0673
 X50.5593 Y85.1858
 X50.6211 Y85.2919
 X50.7080 Y85.3789
 X50.8142 Y85.4407
 X50.9327 Y85.4735
 X51.0555 Y85.4751
 X51.1748 Y85.4452
 X51.2824 Y85.3860
 X51.7933 Y84.9000
 X198.2017
 X198.7243 Y85.3894
 X198.8397 Y85.4494
 X198.9670 Y85.4760
 X199.0967 Y85.4672
G0 Z25.0000
 Y70.4672
G1 Z0.0000
 X199.2192 Y70.4238
 X199.3255 Y70.3489
 X199.4076 Y70.2480
 X199.4594 Y70.1288
 X199.4762 Y70.0064
 X199.4546 Y69.8611
 X199.3942 Y69.7344
 X198.9000 Y69.1944
 Y66.8056
 X199.3942 Y66.2656
 X199.4546 Y66.1389
 X199.4762 Y65.9936
 X199.4594 Y65.8712
 X199.4076 Y65.7520
 X199.3255 Y65.6511
 X199.2192 Y65.5762
 X199.0967 Y65.5328
 X198.9670 Y65.5240
 X198.8397 Y65.5506
 X198.7243 Y65.6106
 X198.2017 Y66.1000
 X51.7933
 X51.2824 Y65.6140
 X51.1748 Y65.5548
 X51.0555 Y65.5249
 X50.9327 Y65.5265
 X50.8142 Y65.5593
 X50.7080 Y65.6211
 X50.6211 Y65.7081
 X50.5593 Y65.8142
 X50.5265 Y65.9327
 X50.5249 Y66.0555
 X50.5548 Y66.1748
 X50.6140 Y66.2824
 X51.1000 Y66.7933
 Y69.2067
 X50.6140 Y69.7176
 X50.5548 Y69.8252
 X50.5249 Y69.9445
 X50.5265 Y70.0673
 X50.5593 Y70.1858
 X50.6211 Y70.2919
 X50.7080 Y70.3789
 X50.8142 Y70.4407
 X50.9327 Y70.4735
 X51.0555 Y70.4751
 X51.1748 Y70.4452
 X51.2824 Y70.3860
 X51.7933 Y69.9000
 X198.2017
 X198.7243 Y70.3894
 X198.8397 Y70.4494
 X198.9670 Y70.4760
 X199.0967 Y70.4672
G0 Z25.0000
 Y55.4672
G1 Z0.0000
 X199.2192 Y55.4238
 X199.3255 Y55.3489
 X199.4076 Y55.2480
 X199.4594 Y55.1288
 X199.4762 Y55.0064
 X199.4546 Y54.8611
 X199.3942 Y54.7344
 X198.9000 Y54.1944
 Y51.8056
 X199.3942 Y51.2656
 X199.4546 Y51.1389
 X199.4762 Y50.9936
 X199.4594 Y50.8712
 X199.4076 Y50.7520
 X199.3255 Y50.6511
 X199.2192 Y50.5762
 X199.0967 Y50.5328
 X198.9670 Y50.5240
 X198.8397 Y50.5506
 X198.7243 Y50.6106
 X198.2017 Y51.1000
 X51.7933
 X51.2824 Y50.6140
 X51.1748 Y50.5548
 X51.0555 Y50.5249
 X50.9327 Y50.5265
 X50.8142 Y50.5593
 X50.7080 Y50.6211
 X50.6211 Y50.7080
 X50.5593 Y50.8142
 X50.5265 Y50.9327
 X50.5249 Y51.0555
 X50.5548 Y51.1748
 X50.6140 Y51.2824
 X51.1000 Y51.7933
 Y54.2067
 X50.6140 Y54.7176
 X50.5548 Y54.8252
 X50.5249 Y54.9445
 X50.5265 Y55.0673
 X50.5593 Y55.1858
 X50.6211 Y55.2920
 X50.7080 Y55.3789
 X50.8142 Y55.4407
 X50.9327 Y55.4735
 X51.0555 Y55.4751
 X51.1748 Y55.4452
 X51.2824 Y55.3860
 X51.7933 Y54.9000
 X198.2017
 X198.7243 Y55.3894
 X198.8397 Y55.4494
 X198.9670 Y55.4760
 X199.0967 Y55.4672
G0 Z25.0000
 X199.4076 Y40.2480
G1 Z0.0000
 X199.4594 Y40.1288
 X199.4762 Y40.0064
 X199.4546 Y39.8611
 X199.3942 Y39.7344
 X198.9000 Y39.1944
 Y36.8056
 X199.3942 Y36.2656
 X199.4546 Y36.1389
 X199.4762 Y35.9936
 X199.4594 Y35.8712
 X199.4076 Y35.7520
 X199.3255 Y35.6511
 X199.2192 Y35.5762
 X199.0967 Y35.5328
 X198.9670 Y35.5240
 X198.8397 Y35.5506
 X198.7243 Y35.6106
 X198.2017 Y36.1000
 X51.7933
 X51.2824 Y35.6140
 X51.1748 Y35.5548
 X51.0555 Y35.5249
 X50.9327 Y35.5265
 X50.8142 Y35.5593
 X50.7080 Y35.6211
 X50.6211 Y35.7080
 X50.5593 Y35.8142
 X50.5265 Y35.9327
 X50.5249 Y36.0555
 X50.5548 Y36.1748
 X50.6140 Y36.2824
 X51.1000 Y36.7933
 Y39.2067
 X50.6140 Y39.7176
 X50.5548 Y39.8252
 X50.5249 Y39.9445
 X50.5265 Y40.0673
 X50.5593 Y40.1858
 X50.6211 Y40.2920
 X50.7080 Y40.3789
 X50.8142 Y40.4407
 X50.9327 Y40.4735
 X51.0555 Y40.4751
 X51.1748 Y40.4452
 X51.2824 Y40.3860
 X51.7933 Y39.9000
 X198.2017
 X198.7243 Y40.3894
 X198.8397 Y40.4494
 X198.9670 Y40.4760
 X199.0967 Y40.4672
 X199.2192 Y40.4238
 X199.3255 Y40.3489
 X199.4076 Y40.2480
G0 Z25.0000
 X199.4546 Y24.8611
G1 Z0.0000
 X199.3942 Y24.7344
 X198.9000 Y24.1944
 Y21.8056
 X199.3942 Y21.2656
 X199.4546 Y21.1389
 X199.4762 Y20.9936
 X199.4594 Y20.8712
 X199.4076 Y20.7520
 X199.3255 Y20.6511
 X199.2192 Y20.5762
 X199.0967 Y20.5328
 X198.9670 Y20.5240
 X198.8397 Y20.5506
 X198.7243 Y20.6106
 X198.2017 Y21.1000
 X51.7933
 X51.2824 Y20.6140
 X51.1748 Y20.5548
 X51.0555 Y20.5249
 X50.9327 Y20.5265
 X50.8142 Y20.5593
 X50.7080 Y20.6211
 X50.6211 Y20.7080
 X50.5593 Y20.8142
 X50.5265 Y20.9327
 X50.5249 Y21.0555
 X50.5548 Y21.1748
 X50.6140 Y21.2824
 X51.1000 Y21.7933
 Y24.2067
 X50.6140 Y24.7176
 X50.5548 Y24.8252
 X50.5249 Y24.9445
 X50.5265 Y25.0673
 X50.5593 Y25.1858
 X50.6211 Y25.2920
 X50.7080 Y25.3789
 X50.8142 Y25.4407
 X50.9327 Y25.4735
 X51.0555 Y25.4751
 X51.1748 Y25.4452
 X51.2824 Y25.3860
 X51.7933 Y24.9000
 X198.2017
 X198.7243 Y25.3894
 X198.8397 Y25.4494
 X198.9670 Y25.4760
 X199.0967 Y25.4672
 X199.2192 Y25.4238
 X199.3255 Y25.3489
 X199.4076 Y25.2480
 X199.4594 Y25.1288
 X199.4762 Y25.0064
 X199.4546 Y24.8611
G0 Z25.0000
 X199.4762 Y110.9936
G1 Z-2.0000
 X199.4594 Y110.8712
G0 Z25.0000
 X199.4762 Y95.9936
G1 Z-2.0000
 X199.4594 Y95.8712
G0 Z25.0000
 X198.9669 Y115.4760
G1 Z-2.0000
 X199.0967 Y115.4672
 X199.0966
 X199.2193 Y115.4238
G0 Z25.0000
 X198.9000 Y112.5398
G1 Z-2.0000
 Y112.2329
G0 Z25.0000
 X199.2192 Y115.4238
G1 Z-2.0000
 X199.3255 Y115.3489
 X199.4076 Y115.2480
 X199.4594 Y115.1288
 X199.4762 Y115.0064
 X199.4546 Y114.8611
 X199.3942 Y114.7344
 X198.9000 Y114.1944
 Y111.8056
 X199.3942 Y111.2656
 X199.4546 Y111.1388
 X199.4076 Y110.7520
 X199.3255 Y110.6511
 X199.2192 Y110.5762
 X199.0966 Y110.5328
G0 Z25.0000
 X198.9669 Y100.4760
G1 Z-2.0000
 X199.0967 Y100.4672
 X199.0966
 X199.2193 Y100.4238
G0 Z25.0000
 X198.9000 Y97.5398
G1 Z-2.0000
 Y97.2329
G0 Z25.0000
 X199.2192 Y100.4238
G1 Z-2.0000
 X199.3255 Y100.3489
 X199.4076 Y100.2480
 X199.4594 Y100.1288
 X199.4762 Y100.0064
 X199.4546 Y99.8611
 X199.3942 Y99.7344
 X198.9000 Y99.1944
 Y96.8056
 X199.3942 Y96.2656
 X199.4546 Y96.1388
 X199.4076 Y95.7520
 X199.3255 Y95.6511
 X199.2192 Y95.5762
 X199.0966 Y95.5328
G0 Z25.0000
 X198.9669 Y85.4760
G1 Z-2.0000
 X199.0967 Y85.4672
 X199.0966
 X199.2193 Y85.4238
G0 Z25.0000
 X198.9000 Y82.5398
G1 Z-2.0000
 Y82.2329
G0 Z25.0000
 X199.2192 Y85.4238
G1 Z-2.0000
 X199.3255 Y85.3489
 X199.4076 Y85.2480
 X199.4594 Y85.1288
 X199.4762 Y85.0064
 X199.4546 Y84.8611
 X199.3942 Y84.7344
 X198.9000 Y84.1944
 Y81.8056
 X199.3942 Y81.2656
 X199.4546 Y81.1388
 X199.4762 Y80.9936
 X199.4594 Y80.8712
 X199.4076 Y80.7520
 X199.3255 Y80.6511
 X199.2192 Y80.5762
 X199.0966 Y80.5328
G0 Z25.0000
 X198.9669 Y70.4760
G1 Z-2.0000
 X199.0967 Y70.4672
 X199.0966
 X199.2193 Y70.4238
G0 Z25.0000
 X198.9000 Y67.5398
G1 Z-2.0000
 Y67.2329
G0 Z25.0000
 X199.2192 Y70.4238
G1 Z-2.0000
 X199.3255 Y70.3489
 X199.4076 Y70.2480
 X199.4594 Y70.1288
 X199.4762 Y70.0064
 X199.4546 Y69.8611
 X199.3942 Y69.7344
 X198.9000 Y69.1944
 Y66.8056
 X199.3942 Y66.2656
 X199.4546 Y66.1388
 X199.4762 Y65.9936
 X199.4594 Y65.8712
 X199.4076 Y65.7520
 X199.3255 Y65.6511
 X199.2192 Y65.5762
 X199.0966 Y65.5328
G0 Z25.0000
 X198.9669 Y55.4760
G1 Z-2.0000
 X199.0967 Y55.4672
 X199.0966
 X199.2193 Y55.4238
 X199.2192
 X199.3255 Y55.3489
G0 Z25.0000
 X198.9000 Y52.5398
G1 Z-2.0000
 Y52.2329
G0 Z25.0000
 X199.3255 Y55.3489
G1 Z-2.0000
 X199.4076 Y55.2480
 X199.4594 Y55.1288
 X199.4762 Y55.0064
 X199.4546 Y54.8611
 X199.3942 Y54.7344
 X198.9000 Y54.1944
 Y51.8056
 X199.3942 Y51.2656
 X199.4546 Y51.1388
 X199.4545 Y51.1389
 X199.4762 Y50.9936
 X199.4594 Y50.8712
 X199.0967 Y50.5328
 X198.9669 Y50.5240
 X199.4076 Y50.7520
 X199.3255 Y50.6511
 X199.2192 Y50.5762
 X199.0966 Y50.5328
G0 Z25.0000
 X198.9669 Y40.4760
G1 Z-2.0000
 X199.0967 Y40.4672
 X199.0966
 X199.2193 Y40.4238
 X199.2192
 X199.3255 Y40.3489
G0 Z25.0000
 X199.4545 Y36.1389
G1 Z-2.0000
 X199.4762 Y35.9936
 X199.4594 Y35.8712
G0 Z25.0000
 X199.4545 Y21.1389
G1 Z-2.0000
 X199.4762 Y20.9936
 X199.4594 Y20.8712
G0 Z25.0000
 X198.9000 Y37.5398
G1 Z-2.0000
 Y37.2329
G0 Z25.0000
 X199.3255 Y40.3489
G1 Z-2.0000
 X199.4076 Y40.2480
 X199.4594 Y40.1288
 X199.4762 Y40.0064
 X199.4546 Y39.8611
 X199.3942 Y39.7344
 X198.9000 Y39.1944
 Y36.8056
 X199.3942 Y36.2656
 X199.4546 Y36.1388
 X199.0967 Y35.5328
 X198.9669 Y35.5240
 X199.4076 Y35.7520
 X199.3255 Y35.6511
 X199.2192 Y35.5762
 X199.0966 Y35.5328
G0 Z25.0000
 Y25.4672
G1 Z-2.0000
 X199.2193 Y25.4238
 X199.2192
 X199.3255 Y25.3489
G0 Z25.0000
 X198.9000 Y22.5398
G1 Z-2.0000
 Y22.2329
G0 Z25.0000
 X199.3255 Y25.3489
G1 Z-2.0000
 X199.4076 Y25.2480
 X199.4594 Y25.1288
 X199.4762 Y25.0064
 X199.4546 Y24.8611
 X199.3942 Y24.7344
 X198.9000 Y24.1944
 Y21.8056
 X199.3942 Y21.2656
 X199.4546 Y21.1388
 X199.0967 Y20.5328
 X198.9669 Y20.5240
 X199.4594 Y20.8712
 X199.4076 Y20.7520
 X199.3255 Y20.6511
 X199.2192 Y20.5762
 X199.0966 Y20.5328
G0 Z25.0000
 X199.0967 Y110.5328
G1 Z-2.0000
 X198.9670 Y110.5240
 X198.8397 Y110.5506
G0 Z25.0000
 X199.0967 Y95.5328
G1 Z-2.0000
 X198.9670 Y95.5240
 X198.8397 Y95.5506
G0 Z25.0000
 X199.0967 Y80.5328
G1 Z-2.0000
 X198.9670 Y80.5240
 X198.8397 Y80.5506
G0 Z25.0000
 X199.0967 Y65.5328
G1 Z-2.0000
 X198.9670 Y65.5240
 X198.8397 Y65.5506
G0 Z25.0000
 X198.7243 Y55.3894
G1 Z-2.0000
 X198.8397 Y55.4494
 X198.9670 Y55.4760
G0 Z25.0000
 X198.7243 Y40.3894
G1 Z-2.0000
 X198.8397 Y40.4494
 X198.9670 Y40.4760
G0 Z25.0000
 X198.9669 Y25.4760
G1 Z-2.0000
 X199.0967 Y25.4672
 X198.7243 Y25.3894
 X198.8397 Y25.4494
 X198.9670 Y25.4760
G0 Z25.0000
 X192.5890 Y114.9000
G1 Z-2.0000
 X197.7671
G0 Z25.0000
 Y111.1000
G1 Z-2.0000
 X192.5890
G0 Z25.0000
 Y99.9000
G1 Z-2.0000
 X197.7671
G0 Z25.0000
 Y96.1000
G1 Z-2.0000
 X192.5890
G0 Z25.0000
 Y84.9000
G1 Z-2.0000
 X197.7671
G0 Z25.0000
 Y81.1000
G1 Z-2.0000
 X192.5890
G0 Z25.0000
 Y69.9000
G1 Z-2.0000
 X197.7671
G0 Z25.0000
 Y66.1000
G1 Z-2.0000
 X192.5890
G0 Z25.0000
 Y54.9000
G1 Z-2.0000
 X197.7671
G0 Z25.0000
 Y51.1000
G1 Z-2.0000
 X192.5890
G0 Z25.0000
 Y39.9000
G1 Z-2.0000
 X197.7671
G0 Z25.0000
 Y36.1000
G1 Z-2.0000
 X192.5890
G0 Z25.0000
 Y24.9000
G1 Z-2.0000
 X197.7671
G0 Z25.0000
 Y21.1000
G1 Z-2.0000
 X192.5890
G0 Z25.0000
 X52.2329 Y114.9000
G1 Z-2.0000
 X198.2017
 X198.5822 Y115.2563
 X198.7243 Y115.3894
 X198.8397 Y115.4494
G0 Z25.0000
 Y110.5506
G1 Z-2.0000
 X198.7243 Y110.6106
 X198.2017 Y111.1000
 X52.2329
G0 Z25.0000
 Y99.9000
G1 Z-2.0000
 X198.2017
 X198.5822 Y100.2563
 X198.7243 Y100.3894
 X198.8397 Y100.4494
G0 Z25.0000
 Y95.5506
G1 Z-2.0000
 X198.7243 Y95.6106
 X198.2017 Y96.1000
 X52.2329
G0 Z25.0000
 Y84.9000
G1 Z-2.0000
 X198.2017
 X198.5822 Y85.2563
 X198.7243 Y85.3894
 X198.8397 Y85.4494
G0 Z25.0000
 Y80.5506
G1 Z-2.0000
 X198.7243 Y80.6106
 X198.2017 Y81.1000
 X52.2329
G0 Z25.0000
 Y69.9000
G1 Z-2.0000
 X198.2017
 X198.5822 Y70.2563
 X198.7243 Y70.3894
 X198.8397 Y70.4494
G0 Z25.0000
 Y65.5506
G1 Z-2.0000
 X198.7243 Y65.6106
 X198.2017 Y66.1000
 X52.2329
G0 Z25.0000
 X198.9670 Y50.5240
G1 Z-2.0000
 X198.8397 Y50.5506
 X198.7243 Y50.6106
 X198.2017 Y51.1000
 X52.2329
G0 Z25.0000
 Y54.9000
G1 Z-2.0000
 X198.2017
 X198.5822 Y55.2563
G0 Z25.0000
 X52.2329 Y39.9000
G1 Z-2.0000
 X198.2017
 X198.5822 Y40.2563
G0 Z25.0000
 X198.9670 Y35.5240
G1 Z-2.0000
 X198.8397 Y35.5506
 X198.7243 Y35.6106
 X198.2017 Y36.1000
 X52.2329
G0 Z25.0000
 Y24.9000
G1 Z-2.0000
 X198.2017
 X198.5822 Y25.2563
G0 Z25.0000
 X198.9670 Y20.5240
G1 Z-2.0000
 X198.8397 Y20.5506
 X198.7243 Y20.6106
 X198.2017 Y21.1000
 X52.2329
G0 Z25.0000
 Y114.9000
G1 Z-2.0000
 X144.0776
G0 Z25.0000
 Y111.1000
G1 Z-2.0000
 X52.2329
G0 Z25.0000
 Y99.9000
G1 Z-2.0000
 X144.0776
G0 Z25.0000
 Y96.1000
G1 Z-2.0000
 X52.2329
G0 Z25.0000
 Y84.9000
G1 Z-2.0000
 X144.0776
G0 Z25.0000
 Y81.1000
G1 Z-2.0000
 X52.2329
G0 Z25.0000
 Y69.9000
G1 Z-2.0000
 X144.0776
G0 Z25.0000
 Y66.1000
G1 Z-2.0000
 X52.2329
G0 Z25.0000
 Y54.9000
G1 Z-2.0000
 X144.0776
G0 Z25.0000
 Y51.1000
G1 Z-2.0000
 X52.2329
G0 Z25.0000
 Y39.9000
G1 Z-2.0000
 X144.0776
G0 Z25.0000
 Y36.1000
G1 Z-2.0000
 X52.2329
G0 Z25.0000
 X144.0776 Y21.1000
G1 Z-2.0000
 X52.2329
G0 Z25.0000
 Y24.9000
G1 Z-2.0000
 X144.0776
G0 Z25.0000
 X51.2824 Y115.3860
G1 Z-2.0000
 X51.7933 Y114.9000
 X57.4110
G0 Z25.0000
 Y111.1000
G1 Z-2.0000
 X51.7933
 X51.2824 Y110.6140
G0 Z25.0000
 Y100.3860
G1 Z-2.0000
 X51.7933 Y99.9000
 X57.4110
G0 Z25.0000
 Y96.1000
G1 Z-2.0000
 X51.7933
 X51.2824 Y95.6140
G0 Z25.0000
 Y85.3860
G1 Z-2.0000
 X51.7933 Y84.9000
 X57.4110
G0 Z25.0000
 Y81.1000
G1 Z-2.0000
 X51.7933
 X51.2824 Y80.6140
G0 Z25.0000
 Y70.3860
G1 Z-2.0000
 X51.7933 Y69.9000
 X57.4110
G0 Z25.0000
 Y66.1000
G1 Z-2.0000
 X51.7933
 X51.2824 Y65.6140
G0 Z25.0000
 Y55.3860
G1 Z-2.0000
 X51.7933 Y54.9000
 X57.4110
G0 Z25.0000
 Y51.1000
G1 Z-2.0000
 X51.7933
 X51.2824 Y50.6140
G0 Z25.0000
 Y40.3860
G1 Z-2.0000
 X51.7933 Y39.9000
 X57.4110
G0 Z25.0000
 Y36.1000
G1 Z-2.0000
 X51.7933
 X51.2824 Y35.6140
G0 Z25.0000
 X51.7933 Y24.9000
G1 Z-2.0000
 X57.4110
G0 Z25.0000
 Y21.1000
G1 Z-2.0000
 X51.7933
 X51.2824 Y20.6140
G0 Z25.0000
 X51.0555 Y115.4751
G1 Z-2.0000
 X51.1748 Y115.4452
 X51.2825 Y115.3860
G0 Z25.0000
 Y110.6140
G1 Z-2.0000
 X51.1748 Y110.5548
 X51.0555 Y110.5249
G0 Z25.0000
 Y100.4751
G1 Z-2.0000
 X51.1748 Y100.4452
 X51.2825 Y100.3860
G0 Z25.0000
 X51.0556 Y110.5249
G1 Z-2.0000
 X50.9327 Y110.5265
 X50.8142 Y110.5593
G0 Z25.0000
 X51.2825 Y95.6140
G1 Z-2.0000
 X51.1748 Y95.5548
 X51.0555 Y95.5249
 X51.0556
 X50.9327 Y95.5265
 X50.8142 Y95.5593
G0 Z25.0000
 X51.0555 Y85.4751
G1 Z-2.0000
 X51.1748 Y85.4452
 X51.2825 Y85.3860
G0 Z25.0000
 Y80.6140
G1 Z-2.0000
 X51.1748 Y80.5548
 X51.0555 Y80.5249
 X51.0556
 X50.9327 Y80.5265
 X50.8142 Y80.5593
G0 Z25.0000
 X51.0555 Y70.4751
G1 Z-2.0000
 X51.1748 Y70.4452
 X51.2825 Y70.3860
G0 Z25.0000
 Y65.6140
G1 Z-2.0000
 X51.1748 Y65.5548
 X51.0555 Y65.5249
 X51.0556
 X50.9327 Y65.5265
 X50.8142 Y65.5593
G0 Z25.0000
 X51.0555 Y55.4751
G1 Z-2.0000
 X51.1748 Y55.4452
 X51.1747
 X51.2825 Y55.3860
G0 Z25.0000
 Y50.6140
G1 Z-2.0000
 X51.1747 Y50.5548
 X51.1748
 X51.0555 Y50.5249
G0 Z25.0000
 Y40.4751
G1 Z-2.0000
 X51.1748 Y40.4452
G0 Z25.0000
 X51.2825 Y35.6140
G1 Z-2.0000
 X51.1747 Y35.5548
G0 Z25.0000
 Y40.4452
G1 Z-2.0000
 X51.2825 Y40.3860
G0 Z25.0000
 X51.1748 Y35.5548
G1 Z-2.0000
 X51.0555 Y35.5249
G0 Z25.0000
 X51.2825 Y20.6140
G1 Z-2.0000
 X51.1748 Y20.5548
 X51.0555 Y20.5249
G0 Z25.0000
 X51.1747 Y25.4452
G1 Z-2.0000
 X51.2825 Y25.3860
G0 Z25.0000
 X50.6211 Y115.2919
G1 Z-2.0000
 X50.7080 Y115.3789
 X50.8142 Y115.4407
 X50.9327 Y115.4735
 X51.0556 Y115.4751
G0 Z25.0000
 X51.1000 Y112.2329
G1 Z-2.0000
 Y112.5398
 X50.6140 Y111.2824
 X51.1000 Y111.7933
 Y114.2067
 X50.6140 Y114.7176
G0 Z25.0000
 X50.6211 Y100.2919
G1 Z-2.0000
 X50.7080 Y100.3789
 X50.8142 Y100.4407
 X50.9327 Y100.4735
 X51.0556 Y100.4751
G0 Z25.0000
 X50.8143 Y110.5592
G1 Z-2.0000
 X50.7080 Y110.6211
 X50.6211 Y110.7081
G0 Z25.0000
 X51.1000 Y97.2329
G1 Z-2.0000
 Y97.5398
 X50.6140 Y96.2824
 X51.1000 Y96.7933
 Y99.2067
 X50.6140 Y99.7176
G0 Z25.0000
 X50.5548 Y111.1747
G1 Z-2.0000
 X50.6140 Y111.2825
G0 Z25.0000
 Y114.7175
G1 Z-2.0000
 X50.5548 Y114.8253
G0 Z25.0000
 X50.5249 Y111.0555
G1 Z-2.0000
 X50.5548 Y111.1748
G0 Z25.0000
 X50.6140 Y99.7175
G1 Z-2.0000
 X50.5548 Y99.8253
G0 Z25.0000
 Y96.1747
G1 Z-2.0000
 X50.6140 Y96.2825
 X50.5249 Y96.0555
 X50.5548 Y96.1748
G0 Z25.0000
 Y114.8252
G1 Z-2.0000
 X50.5249 Y114.9445
 X50.5265 Y115.0673
 X50.5593 Y115.1858
 X50.6212 Y115.2920
G0 Z25.0000
 Y110.7080
G1 Z-2.0000
 X50.5593 Y110.8142
 X50.5265 Y110.9327
 X50.5249 Y111.0556
G0 Z25.0000
 X50.5548 Y99.8252
G1 Z-2.0000
 X50.5249 Y99.9445
 X50.5265 Y100.0673
 X50.5593 Y100.1858
 X50.6212 Y100.2920
G0 Z25.0000
 Y95.7080
G1 Z-2.0000
 X50.5593 Y95.8142
 X50.5265 Y95.9327
 X50.5249 Y96.0556
 X50.8143 Y95.5592
 X50.7080 Y95.6211
 X50.6211 Y95.7081
G0 Z25.0000
 Y85.2919
G1 Z-2.0000
 X50.7080 Y85.3789
 X50.8142 Y85.4407
 X50.9327 Y85.4735
 X51.0556 Y85.4751
 X50.5548 Y84.8252
 X50.5249 Y84.9445
 X50.5265 Y85.0673
 X50.5593 Y85.1858
 X50.6212 Y85.2920
G0 Z25.0000
 X50.5249 Y81.0555
G1 Z-2.0000
 X50.5548 Y81.1748
G0 Z25.0000
 X50.6140 Y84.7175
G1 Z-2.0000
 X50.5548 Y84.8253
G0 Z25.0000
 X51.1000 Y82.2329
G1 Z-2.0000
 Y82.5398
 X50.6140 Y81.2824
 X51.1000 Y81.7933
 Y84.2067
 X50.6140 Y84.7176
G0 Z25.0000
 X50.5548 Y81.1747
G1 Z-2.0000
 X50.6140 Y81.2825
 X50.6212 Y80.7080
 X50.5593 Y80.8142
 X50.5265 Y80.9327
 X50.5249 Y81.0556
G0 Z25.0000
 X50.6211 Y70.2919
G1 Z-2.0000
 X50.7080 Y70.3789
 X50.8142 Y70.4407
 X50.9327 Y70.4735
 X51.0556 Y70.4751
G0 Z25.0000
 X50.8143 Y80.5592
G1 Z-2.0000
 X50.7080 Y80.6211
 X50.6211 Y80.7081
G0 Z25.0000
 X50.5548 Y69.8252
G1 Z-2.0000
 X50.5249 Y69.9445
 X50.5265 Y70.0673
 X50.5593 Y70.1858
 X50.6212 Y70.2920
 X50.6140 Y69.7175
 X50.5548 Y69.8253
G0 Z25.0000
 X50.5249 Y66.0555
G1 Z-2.0000
 X50.5548 Y66.1748
 X51.1000 Y67.2329
 Y67.5398
 X50.6140 Y66.2824
 X51.1000 Y66.7933
 Y69.2067
 X50.6140 Y69.7176
G0 Z25.0000
 X50.5548 Y66.1747
G1 Z-2.0000
 X50.6140 Y66.2825
 X50.6212 Y65.7080
 X50.5593 Y65.8142
 X50.5265 Y65.9327
 X50.5249 Y66.0556
 X50.8143 Y65.5592
 X50.7080 Y65.6211
 X50.6211 Y65.7081
G0 Z25.0000
 X50.7080 Y55.3788
G1 Z-2.0000
 X50.8142 Y55.4407
 X50.9327 Y55.4735
 X51.0556 Y55.4751
 X50.6211 Y55.2919
 X50.7081 Y55.3789
 X50.5548 Y54.8252
 X50.5249 Y54.9445
 X50.5265 Y55.0673
 X50.5593 Y55.1858
 X50.6212 Y55.2920
 X50.6140 Y54.7175
 X50.5548 Y54.8253
G0 Z25.0000
 X50.5249 Y51.0555
G1 Z-2.0000
 X50.5548 Y51.1748
 X51.1000 Y52.2329
 Y52.5398
 X50.6140 Y51.2824
 X51.1000 Y51.7933
 Y54.2067
 X50.6140 Y54.7176
G0 Z25.0000
 X50.5548 Y51.1747
G1 Z-2.0000
 X50.6140 Y51.2825
 X50.6212 Y50.7080
 X50.5593 Y50.8142
 X50.5265 Y50.9327
 X50.5249 Y51.0556
 X51.0556 Y50.5249
 X50.9327 Y50.5265
 X50.8142 Y50.5593
 X50.7080 Y50.6211
 X50.6211 Y50.7081
G0 Z25.0000
 X50.7080 Y40.3788
G1 Z-2.0000
 X50.8142 Y40.4407
 X50.9327 Y40.4735
 X51.0556 Y40.4751
 X50.6211 Y40.2919
 X50.7081 Y40.3789
 X50.5548 Y39.8252
 X50.5249 Y39.9445
 X50.5265 Y40.0673
 X50.5593 Y40.1858
 X50.6212 Y40.2920
 X50.6140 Y39.7175
 X50.5548 Y39.8253
G0 Z25.0000
 X51.1000 Y37.2329
G1 Z-2.0000
 Y37.5398
G0 Z25.0000
 X50.7080 Y25.3788
G1 Z-2.0000
 X50.8142 Y25.4407
 X50.9327 Y25.4735
 X51.0556 Y25.4751
G0 Z25.0000
 X51.1000 Y22.2329
G1 Z-2.0000
 Y22.5398
G0 Z25.0000
 X51.0556 Y35.5249
G1 Z-2.0000
 X50.9327 Y35.5265
 X50.8142 Y35.5593
 X50.7080 Y35.6211
 X50.6211 Y35.7081
 X50.6140 Y36.2824
 X51.1000 Y36.7933
 Y39.2067
 X50.6140 Y39.7176
G0 Z25.0000
 X51.0556 Y20.5249
G1 Z-2.0000
 X50.9327 Y20.5265
 X50.8142 Y20.5593
 X50.7080 Y20.6211
 X50.6211 Y20.7081
G0 Z25.0000
 Y25.2919
G1 Z-2.0000
 X50.7081 Y25.3789
G0 Z25.0000
 X50.6140 Y21.2824
G1 Z-2.0000
 X51.1000 Y21.7933
 Y24.2067
 X50.6140 Y24.7176
G0 Z25.0000
 X50.5548 Y36.1747
G1 Z-2.0000
 X50.6140 Y36.2825
G0 Z25.0000
 Y24.7175
G1 Z-2.0000
 X50.5548 Y24.8253
 X50.5265 Y25.0673
 X50.5593 Y25.1858
 X50.6212 Y25.2920
G0 Z25.0000
 X50.5249 Y36.0555
G1 Z-2.0000
 X50.5548 Y36.1748
 X50.6212 Y35.7080
 X50.5593 Y35.8142
 X50.5265 Y35.9327
 X50.5249 Y36.0556
G0 Z25.0000
 X50.6212 Y20.7080
G1 Z-2.0000
 X50.5593 Y20.8142
 X50.5265 Y20.9327
 X50.5249 Y21.0555
 X50.5548 Y21.1748
G0 Z25.0000
 Y24.8252
G1 Z-2.0000
 X50.5249 Y24.9445
 X50.5265 Y25.0674
G0 Z25.0000
 X199.4545 Y111.1389
G1 Z-2.0000
 X199.4762 Y110.9936
 X199.4594 Y110.8712
 X199.4076 Y110.7519
G0 Z25.0000
 X199.4545 Y96.1389
G1 Z-2.0000
 X199.4762 Y95.9936
 X199.4594 Y95.8712
 X199.4076 Y95.7519
G0 Z25.0000
 X199.4545 Y81.1389
G1 Z-2.0000
 X199.4762 Y80.9936
 X199.4594 Y80.8712
 X199.4076 Y80.7519
G0 Z25.0000
 X199.4545 Y66.1389
G1 Z-2.0000
 X199.4762 Y65.9936
 X199.4594 Y65.8712
 X199.4076 Y65.7519
G0 Z25.0000
 X199.4594 Y50.8712
G1 Z-2.0000
 X199.4076 Y50.7520
G0 Z25.0000
 X199.4594 Y35.8712
G1 Z-2.0000
 X199.4076 Y35.7520
G0 Z25.0000
 X198.8397 Y115.4494
G1 Z-2.0000
 X198.9670 Y115.4760
G0 Z25.0000
 X198.8397 Y100.4494
G1 Z-2.0000
 X198.9670 Y100.4760
G0 Z25.0000
 X198.8397 Y85.4494
G1 Z-2.0000
 X198.9670 Y85.4760
G0 Z25.0000
 X198.8397 Y70.4494
G1 Z-2.0000
 X198.9670 Y70.4760
G0 Z25.0000
 X198.5822 Y115.2563
G1 Z-2.0000
 X198.7243 Y115.3894
G0 Z25.0000
 X198.5822 Y100.2563
G1 Z-2.0000
 X198.7243 Y100.3894
G0 Z25.0000
 X198.5822 Y85.2563
G1 Z-2.0000
 X198.7243 Y85.3894
G0 Z25.0000
 X198.5822 Y70.2563
G1 Z-2.0000
 X198.7243 Y70.3894
G0 Z25.0000
 X198.5822 Y55.2563
G1 Z-2.0000
 X198.7244 Y55.3895
G0 Z25.0000
 X198.5822 Y40.2563
G1 Z-2.0000
 X198.7244 Y40.3895
G0 Z25.0000
 X198.5822 Y25.2563
G1 Z-2.0000
 X198.7244 Y25.3895
G0 Z25.0000
 X51.2824 Y25.3860
G1 Z-2.0000
 X51.7933 Y24.9000
 X51.0555 Y25.4751
 X51.1748 Y25.4452
G0 Z25.0000
 X50.5548 Y21.1747
G1 Z-2.0000
 X50.6140 Y21.2825
G0 Z25.0000
 X199.4594 Y115.1288
G1 Z-4.0000
 X199.4624 Y115.1073
 X199.4763 Y115.0065
 X199.4718 Y114.9769
G0 Z25.0000
 X199.4594 Y100.1288
G1 Z-4.0000
 X199.4624 Y100.1073
 X199.4763 Y100.0065
 X199.4718 Y99.9769
G0 Z25.0000
 X199.4076 Y115.2481
G1 Z-4.0000
 X199.4163 Y115.2281
 X199.4546 Y114.8612
 X199.4445 Y114.8401
G0 Z25.0000
 X199.4076 Y100.2481
G1 Z-4.0000
 X199.4163 Y100.2281
 X199.4546 Y99.8612
 X199.4445 Y99.8401
G0 Z25.0000
 X199.3942 Y111.2656
G1 Z-4.0000
 X199.4546 Y111.1389
 X199.4580 Y111.1158
 X199.4594 Y110.8712
 X199.4508 Y110.8513
G0 Z25.0000
 X199.3942 Y96.2656
G1 Z-4.0000
 X199.4546 Y96.1389
 X199.4580 Y96.1158
 X199.4594 Y95.8712
 X199.4508 Y95.8513
G0 Z25.0000
 X199.4076 Y85.2481
G1 Z-4.0000
 X199.4163 Y85.2281
 X199.4594 Y85.1288
 X199.4624 Y85.1073
 X199.4763 Y85.0065
 X199.4718 Y84.9769
 X199.4546 Y84.8612
 X199.4445 Y84.8401
G0 Z25.0000
 X199.4546 Y81.1389
G1 Z-4.0000
 X199.4580 Y81.1158
 X199.4594 Y80.8712
 X199.4508 Y80.8513
G0 Z25.0000
 X199.4076 Y70.2481
G1 Z-4.0000
 X199.4163 Y70.2281
 X199.4763 Y70.0065
 X199.4718 Y69.9769
 X199.4546 Y69.8612
 X199.4445 Y69.8401
G0 Z25.0000
 X199.4546 Y66.1389
G1 Z-4.0000
 X199.4580 Y66.1158
 X199.4594 Y65.8712
 X199.4508 Y65.8513
G0 Z25.0000
 X199.4076 Y55.2481
G1 Z-4.0000
 X199.4163 Y55.2281
 X199.4594 Y55.1288
 X199.4624 Y55.1073
G0 Z25.0000
 X199.4594 Y50.8712
G1 Z-4.0000
 X199.4508 Y50.8513
G0 Z25.0000
 X199.4594 Y40.1288
G1 Z-4.0000
 X199.4624 Y40.1073
 X199.4076 Y40.2481
 X199.4163 Y40.2281
G0 Z25.0000
 X199.4762 Y35.9936
G1 Z-4.0000
 X199.4594 Y35.8712
 X199.4508 Y35.8513
G0 Z25.0000
 X198.7244 Y110.6105
G1 Z-4.0000
 X198.7085 Y110.6254
G0 Z25.0000
 X198.7244 Y95.6105
G1 Z-4.0000
 X198.7085 Y95.6254
G0 Z25.0000
 X198.7244 Y80.6105
G1 Z-4.0000
 X198.7085 Y80.6254
G0 Z25.0000
 X198.7244 Y65.6105
G1 Z-4.0000
 X198.7085 Y65.6254
G0 Z25.0000
 X198.7244 Y50.6105
G1 Z-4.0000
 X198.7085 Y50.6254
G0 Z25.0000
 X198.7244 Y35.6105
G1 Z-4.0000
 X198.7085 Y35.6254
G0 Z25.0000
 X198.7244 Y20.6105
G1 Z-4.0000
 X198.7085 Y20.6254
G0 Z25.0000
 X198.8397 Y115.4494
G1 Z-4.0000
 X198.8610 Y115.4538
G0 Z25.0000
 X199.0967 Y110.5328
G1 Z-4.0000
 X198.9670 Y110.5240
 X198.9457 Y110.5285
G0 Z25.0000
 X198.8397 Y100.4494
G1 Z-4.0000
 X198.8610 Y100.4538
G0 Z25.0000
 X199.0967 Y95.5328
G1 Z-4.0000
 X198.9670 Y95.5240
 X198.9457 Y95.5285
G0 Z25.0000
 X198.8397 Y85.4494
G1 Z-4.0000
 X198.8610 Y85.4538
G0 Z25.0000
 X199.0967 Y80.5328
G1 Z-4.0000
 X198.9670 Y80.5240
 X198.9457 Y80.5285
G0 Z25.0000
 X198.8397 Y70.4494
G1 Z-4.0000
 X198.8610 Y70.4538
G0 Z25.0000
 X199.0967 Y65.5328
G1 Z-4.0000
 X198.9670 Y65.5240
 X198.9457 Y65.5285
G0 Z25.0000
 X58.8904 Y114.9000
G1 Z-4.0000
 X60.0000
G0 Z25.0000
 X58.8904 Y99.9000
G1 Z-4.0000
 X60.0000
G0 Z25.0000
 X58.8904 Y84.9000
G1 Z-4.0000
 X60.0000
G0 Z25.0000
 X58.8904 Y69.9000
G1 Z-4.0000
 X60.0000
G0 Z25.0000
 X58.8904 Y54.9000
G1 Z-4.0000
 X60.0000
G0 Z25.0000
 X58.8904 Y39.9000
G1 Z-4.0000
 X60.0000
G0 Z25.0000
 X58.8904 Y24.9000
G1 Z-4.0000
 X60.0000
G0 Z25.0000
 X191.1096 Y21.1000
G1 Z-4.0000
 X190.0000
G0 Z25.0000
 X50.9327 Y110.5265
G1 Z-4.0000
 X50.9127 Y110.5320
G0 Z25.0000
 X50.9327 Y95.5265
G1 Z-4.0000
 X50.9127 Y95.5320
G0 Z25.0000
 X50.9327 Y80.5265
G1 Z-4.0000
 X50.9127 Y80.5320
G0 Z25.0000
 X50.9327 Y65.5265
G1 Z-4.0000
 X50.9127 Y65.5320
G0 Z25.0000
 X191.1096 Y51.1000
G1 Z-4.0000
 X190.0000
G0 Z25.0000
 X50.9327 Y50.5265
G1 Z-4.0000
 X50.9127 Y50.5320
G0 Z25.0000
 X191.1096 Y36.1000
G1 Z-4.0000
 X190.0000
G0 Z25.0000
 X51.1748 Y20.5548
G1 Z-4.0000
 X51.1547 Y20.5498
G0 Z25.0000
 X50.9327 Y35.5265
G1 Z-4.0000
 X50.9127 Y35.5320
G0 Z25.0000
 X50.9327 Y20.5265
G1 Z-4.0000
 X50.9127 Y20.5320
G0 Z25.0000
 X50.5265 Y115.0673
G1 Z-4.0000
 X50.5593 Y115.1858
 X50.6211 Y115.2919
 X50.6357 Y115.3066
G0 Z25.0000
 X50.5593 Y110.8142
G1 Z-4.0000
 X50.5537 Y110.8341
G0 Z25.0000
 X50.5593 Y95.8142
G1 Z-4.0000
 X50.5537 Y95.8341
G0 Z25.0000
 X191.1096 Y111.1000
G1 Z-4.0000
 X190.0000
G0 Z25.0000
 X50.9327 Y110.5265
G1 Z-4.0000
 X50.8142 Y110.5593
 X50.7080 Y110.6211
 X50.6357 Y110.6934
G0 Z25.0000
 X50.5249 Y114.9445
G1 Z-4.0000
 X50.5265 Y115.0673
 X50.5320 Y115.0873
G0 Z25.0000
 X50.5265 Y100.0673
G1 Z-4.0000
 X50.5320 Y100.0873
 X50.5249 Y99.9445
 X50.5265 Y100.0673
 X50.5593 Y100.1858
 X50.6211 Y100.2919
 X50.6357 Y100.3066
G0 Z25.0000
 X50.8143 Y95.5592
G1 Z-4.0000
 X50.7080 Y95.6211
 X50.6357 Y95.6934
G0 Z25.0000
 X191.1096 Y96.1000
G1 Z-4.0000
 X190.0000
G0 Z25.0000
 X50.5265 Y85.0673
G1 Z-4.0000
 X50.5320 Y85.0873
G0 Z25.0000
 X50.5593 Y80.8142
G1 Z-4.0000
 X50.5537 Y80.8341
G0 Z25.0000
 X50.5249 Y84.9445
G1 Z-4.0000
 X50.5265 Y85.0673
 X50.5593 Y85.1858
 X50.6211 Y85.2919
 X50.6357 Y85.3066
G0 Z25.0000
 X50.8143 Y80.5592
G1 Z-4.0000
 X50.7080 Y80.6211
 X50.6357 Y80.6934
G0 Z25.0000
 X191.1096 Y81.1000
G1 Z-4.0000
 X190.0000
G0 Z25.0000
 X50.5265 Y70.0673
G1 Z-4.0000
 X50.5320 Y70.0873
G0 Z25.0000
 X50.5593 Y65.8142
G1 Z-4.0000
 X50.5537 Y65.8341
G0 Z25.0000
 X50.5249 Y69.9445
G1 Z-4.0000
 X50.5265 Y70.0673
 X50.5593 Y70.1858
 X50.6211 Y70.2919
 X50.6357 Y70.3066
G0 Z25.0000
 X50.8143 Y65.5592
G1 Z-4.0000
 X50.7080 Y65.6211
 X50.6357 Y65.6934
G0 Z25.0000
 X191.1096 Y66.1000
G1 Z-4.0000
 X190.0000
G0 Z25.0000
 X50.5265 Y55.0673
G1 Z-4.0000
 X50.5320 Y55.0873
G0 Z25.0000
 X50.5593 Y50.8142
G1 Z-4.0000
 X50.5537 Y50.8341
G0 Z25.0000
 X50.5265 Y40.0673
G1 Z-4.0000
 X50.5320 Y40.0873
G0 Z25.0000
 X51.0555 Y25.4751
G1 Z-4.0000
 X51.0756 Y25.4700
G0 Z25.0000
 X50.5593 Y35.8142
G1 Z-4.0000
 X50.5537 Y35.8341
G0 Z25.0000
 X50.5265 Y20.9327
G1 Z-4.0000
 X50.5249 Y21.0555
 X50.5548 Y21.1748
 X50.5647 Y21.1929
G0 Z25.0000
 X50.6140 Y24.7176
G1 Z-4.0000
 X50.5647 Y24.8071
G0 Z25.0000
 X199.3255 Y115.3489
G1 Z-4.0000
 X199.3392 Y115.3320
G0 Z25.0000
 X199.4445 Y111.1599
G1 Z-4.0000
 X199.4546 Y111.1388
G0 Z25.0000
 X199.4445 Y96.1599
G1 Z-4.0000
 X199.4546 Y96.1388
G0 Z25.0000
 X199.2192 Y115.4238
G1 Z-4.0000
 X199.2370 Y115.4113
G0 Z25.0000
 X198.9000 Y112.8466
G1 Z-4.0000
 Y112.2329
G0 Z25.0000
 X199.0966 Y115.4672
G1 Z-4.0000
 X199.2192 Y115.4238
 X199.3255 Y115.3489
 X199.4076 Y115.2480
 X199.4594 Y115.1288
 X199.4762 Y115.0064
 X199.4546 Y114.8611
 X199.3942 Y114.7344
 X199.3784 Y114.7172
 X198.9000 Y114.1944
 Y111.8056
 X199.3784 Y111.2828
 X199.3942 Y111.2656
 X199.4580 Y111.1158
 X199.4762 Y110.9936
 X199.4594 Y110.8712
 X199.4624 Y110.8927
 X199.4594 Y110.8712
 X199.4508 Y110.8513
 X199.4076 Y110.7520
 X199.3938 Y110.7351
 X199.3255 Y110.6511
 X199.3077 Y110.6386
 X199.2192 Y110.5762
 X199.0967 Y110.5328
 X199.0750 Y110.5313
G0 Z25.0000
 X199.2192 Y100.4238
G1 Z-4.0000
 X199.2370 Y100.4113
 X199.3255 Y100.3489
 X199.3392 Y100.3320
G0 Z25.0000
 X198.9000 Y97.8466
G1 Z-4.0000
 Y97.2329
G0 Z25.0000
 X199.0966 Y100.4672
G1 Z-4.0000
 X199.2192 Y100.4238
 X199.3255 Y100.3489
 X199.4076 Y100.2480
 X199.4594 Y100.1288
 X199.4762 Y100.0064
 X199.4546 Y99.8611
 X199.3942 Y99.7344
 X199.3784 Y99.7172
 X198.9000 Y99.1944
 Y96.8056
 X199.3784 Y96.2828
 X199.3942 Y96.2656
 X199.4580 Y96.1158
 X199.4762 Y95.9936
 X199.4594 Y95.8712
 X199.4624 Y95.8927
 X199.4594 Y95.8712
 X199.4508 Y95.8513
 X199.4076 Y95.7520
 X199.3938 Y95.7351
 X199.3255 Y95.6511
 X199.3077 Y95.6386
 X199.2192 Y95.5762
 X199.0967 Y95.5328
 X199.0750 Y95.5313
G0 Z25.0000
 X199.2192 Y85.4238
G1 Z-4.0000
 X199.2370 Y85.4113
 X199.3255 Y85.3489
 X199.3392 Y85.3320
G0 Z25.0000
 X198.9000 Y82.8466
G1 Z-4.0000
 Y82.2329
G0 Z25.0000
 X199.0966 Y85.4672
G1 Z-4.0000
 X199.2192 Y85.4238
 X199.3255 Y85.3489
 X199.4076 Y85.2480
 X199.4594 Y85.1288
 X199.4762 Y85.0064
 X199.4546 Y84.8611
 X199.3942 Y84.7344
 X199.3784 Y84.7172
 X198.9000 Y84.1944
 Y81.8056
 X199.3784 Y81.2828
 X199.3942 Y81.2656
 X199.4546 Y81.1388
 X199.4445 Y81.1599
 X199.4546 Y81.1389
 X199.4580 Y81.1158
 X199.4762 Y80.9936
 X199.4594 Y80.8712
 X199.4624 Y80.8927
 X199.4594 Y80.8712
 X199.4508 Y80.8513
 X199.4076 Y80.7520
 X199.3938 Y80.7351
 X199.3255 Y80.6511
 X199.3077 Y80.6386
 X199.2192 Y80.5762
 X199.0967 Y80.5328
 X199.0750 Y80.5313
G0 Z25.0000
 X199.2192 Y70.4238
G1 Z-4.0000
 X199.2370 Y70.4113
 X199.3255 Y70.3489
 X199.3392 Y70.3320
 X199.4594 Y70.1288
 X199.4624 Y70.1073
G0 Z25.0000
 X198.9000 Y67.8466
G1 Z-4.0000
 Y67.2329
G0 Z25.0000
 X199.0966 Y70.4672
G1 Z-4.0000
 X199.2192 Y70.4238
 X199.3255 Y70.3489
 X199.4076 Y70.2480
 X199.4594 Y70.1288
 X199.4762 Y70.0064
 X199.4546 Y69.8611
 X199.3942 Y69.7344
 X199.3784 Y69.7172
 X198.9000 Y69.1944
 Y66.8056
 X199.3784 Y66.2828
 X199.3942 Y66.2656
 X199.4546 Y66.1388
 X199.4445 Y66.1599
 X199.4546 Y66.1389
 X199.4580 Y66.1158
 X199.4762 Y65.9936
 X199.4594 Y65.8712
 X199.4624 Y65.8927
 X199.4594 Y65.8712
 X199.4508 Y65.8513
 X199.4076 Y65.7520
 X199.3938 Y65.7351
 X199.3255 Y65.6511
 X199.3077 Y65.6386
 X199.2192 Y65.5762
 X199.0967 Y65.5328
 X199.0750 Y65.5313
G0 Z25.0000
 X199.0966 Y55.4672
G1 Z-4.0000
 X199.1172 Y55.4600
 X199.2192 Y55.4238
 X199.2370 Y55.4113
 X199.4763 Y55.0065
 X199.4718 Y54.9769
 X199.4546 Y54.8612
 X199.4445 Y54.8401
 X198.9000 Y52.8466
 Y52.2329
G0 Z25.0000
 X198.9669 Y55.4760
G1 Z-4.0000
 X199.0967 Y55.4672
 X199.2192 Y55.4238
 X199.3255 Y55.3489
 X199.3392 Y55.3320
 X199.4076 Y55.2480
 X199.4594 Y55.1288
 X199.4762 Y55.0064
 X199.4546 Y54.8611
 X199.3942 Y54.7344
 X199.3784 Y54.7172
 X198.9000 Y54.1944
 Y51.8056
 X199.3784 Y51.2828
 X199.3942 Y51.2656
 X199.4546 Y51.1388
 X199.4445 Y51.1599
 X199.4546 Y51.1389
 X199.4580 Y51.1158
 X199.4762 Y50.9936
 X199.4594 Y50.8712
 X199.4076 Y50.7520
 X199.3938 Y50.7351
 X199.4624 Y50.8927
 X199.4594 Y50.8712
 X199.4508 Y50.8513
 X199.4076 Y50.7520
 X199.3255 Y50.6511
 X199.3077 Y50.6386
 X199.2192 Y50.5762
 X199.0966 Y50.5328
G0 Z25.0000
 X199.2192 Y40.4238
G1 Z-4.0000
 X199.2370 Y40.4113
 X199.0966 Y40.4672
 X199.1172 Y40.4600
 X199.4763 Y40.0065
 X199.4718 Y39.9769
G0 Z25.0000
 X199.4624 Y35.8927
G1 Z-4.0000
 X199.4594 Y35.8712
G0 Z25.0000
 X199.4763 Y25.0065
G1 Z-4.0000
 X199.4718 Y24.9769
 X199.4594 Y25.1288
 X199.4624 Y25.1073
G0 Z25.0000
 X199.4546 Y39.8612
G1 Z-4.0000
 X199.4445 Y39.8401
G0 Z25.0000
 Y36.1599
G1 Z-4.0000
 X199.4546 Y36.1388
G0 Z25.0000
 Y24.8612
G1 Z-4.0000
 X199.4445 Y24.8401
 X199.4076 Y25.2481
 X199.4163 Y25.2281
G0 Z25.0000
 X199.4624 Y20.8927
G1 Z-4.0000
 X199.4594 Y20.8712
 X199.4445 Y21.1599
 X199.4546 Y21.1388
G0 Z25.0000
 X198.9000 Y37.8466
G1 Z-4.0000
 Y37.2329
 X199.4076 Y35.7520
 X199.3255 Y35.6511
 X199.3077 Y35.6386
 X199.2192 Y35.5762
 X199.0966 Y35.5328
G0 Z25.0000
 X198.9669 Y40.4760
G1 Z-4.0000
 X199.0967 Y40.4672
 X199.2192 Y40.4238
 X199.3255 Y40.3489
 X199.3392 Y40.3320
 X199.4076 Y40.2480
 X199.4594 Y40.1288
 X199.4762 Y40.0064
 X199.4546 Y39.8611
 X199.3942 Y39.7344
 X199.3784 Y39.7172
 X198.9000 Y39.1944
 Y36.8056
 X199.3784 Y36.2828
 X199.3942 Y36.2656
 X199.4546 Y36.1389
 X199.4580 Y36.1158
 X199.4762 Y35.9936
 X199.4508 Y35.8513
 X199.4076 Y35.7520
 X199.3938 Y35.7351
G0 Z25.0000
 X199.2192 Y25.4238
G1 Z-4.0000
 X199.2370 Y25.4113
 X199.3255 Y25.3489
 X199.3392 Y25.3320
G0 Z25.0000
 X198.9000 Y22.8466
G1 Z-4.0000
 Y22.2329
G0 Z25.0000
 X199.0966 Y25.4672
G1 Z-4.0000
 X199.2192 Y25.4238
 X199.3255 Y25.3489
 X199.4076 Y25.2480
 X199.4594 Y25.1288
 X199.4762 Y25.0064
 X199.4546 Y24.8611
 X199.3942 Y24.7344
 X199.3784 Y24.7172
 X198.9000 Y24.1944
 Y21.8056
 X199.3784 Y21.2828
 X199.3942 Y21.2656
 X199.4546 Y21.1389
 X199.4580 Y21.1158
 X199.4762 Y20.9936
 X199.4594 Y20.8712
 X199.4508 Y20.8513
 X199.4076 Y20.7520
 X199.3938 Y20.7351
 X199.3255 Y20.6511
 X199.3077 Y20.6386
 X199.2192 Y20.5762
 X199.0966 Y20.5328
G0 Z25.0000
 X198.8397 Y115.4494
G1 Z-4.0000
 X198.9670 Y115.4760
 X198.9887 Y115.4745
 X199.0967 Y115.4672
 X199.1172 Y115.4600
G0 Z25.0000
 X198.8397 Y110.5506
G1 Z-4.0000
 X198.8204 Y110.5606
G0 Z25.0000
 X198.8397 Y100.4494
G1 Z-4.0000
 X198.9670 Y100.4760
 X198.9887 Y100.4745
 X199.0967 Y100.4672
 X199.1172 Y100.4600
G0 Z25.0000
 X198.8397 Y95.5506
G1 Z-4.0000
 X198.8204 Y95.5606
G0 Z25.0000
 X198.8397 Y85.4494
G1 Z-4.0000
 X198.9670 Y85.4760
 X198.9887 Y85.4745
 X199.0967 Y85.4672
 X199.1172 Y85.4600
G0 Z25.0000
 X198.8397 Y80.5506
G1 Z-4.0000
 X198.8204 Y80.5606
G0 Z25.0000
 X198.8397 Y70.4494
G1 Z-4.0000
 X198.9670 Y70.4760
 X198.9887 Y70.4745
 X199.0967 Y70.4672
 X199.1172 Y70.4600
G0 Z25.0000
 X198.8397 Y65.5506
G1 Z-4.0000
 X198.8204 Y65.5606
G0 Z25.0000
 X198.8397 Y50.5506
G1 Z-4.0000
 X198.8204 Y50.5606
 X198.9670 Y50.5240
 X198.9457 Y50.5285
G0 Z25.0000
 X198.8397 Y35.5506
G1 Z-4.0000
 X198.8204 Y35.5606
 X198.9670 Y35.5240
 X198.9457 Y35.5285
G0 Z25.0000
 X198.9669 Y25.4760
G1 Z-4.0000
 X199.0967 Y25.4672
 X199.1172 Y25.4600
 X198.7243 Y25.3894
 X198.8397 Y25.4494
 X198.8610 Y25.4538
 X198.9670 Y25.4760
 X198.9887 Y25.4745
G0 Z25.0000
 X198.9670 Y20.5240
G1 Z-4.0000
 X198.9457 Y20.5285
G0 Z25.0000
 X171.4286 Y114.9000
G1 Z-4.0000
 X190.0000
G0 Z25.0000
 Y111.1000
G1 Z-4.0000
 X171.4286
G0 Z25.0000
 Y99.9000
G1 Z-4.0000
 X190.0000
G0 Z25.0000
 Y96.1000
G1 Z-4.0000
 X171.4286
G0 Z25.0000
 Y84.9000
G1 Z-4.0000
 X190.0000
G0 Z25.0000
 Y81.1000
G1 Z-4.0000
 X171.4286
G0 Z25.0000
 Y69.9000
G1 Z-4.0000
 X190.0000
G0 Z25.0000
 Y66.1000
G1 Z-4.0000
 X171.4286
G0 Z25.0000
 Y54.9000
G1 Z-4.0000
 X190.0000
G0 Z25.0000
 Y51.1000
G1 Z-4.0000
 X171.4286
G0 Z25.0000
 Y39.9000
G1 Z-4.0000
 X190.0000
G0 Z25.0000
 Y36.1000
G1 Z-4.0000
 X171.4286
G0 Z25.0000
 X190.0000 Y21.1000
G1 Z-4.0000
 X171.4286
G0 Z25.0000
 Y24.9000
G1 Z-4.0000
 X190.0000
G0 Z25.0000
 X52.2329 Y114.9000
G1 Z-4.0000
 X197.7671
G0 Z25.0000
 Y111.1000
G1 Z-4.0000
 X52.2329
G0 Z25.0000
 Y99.9000
G1 Z-4.0000
 X197.7671
G0 Z25.0000
 Y96.1000
G1 Z-4.0000
 X52.2329
G0 Z25.0000
 Y84.9000
G1 Z-4.0000
 X197.7671
G0 Z25.0000
 Y81.1000
G1 Z-4.0000
 X52.2329
G0 Z25.0000
 Y69.9000
G1 Z-4.0000
 X197.7671
G0 Z25.0000
 Y66.1000
G1 Z-4.0000
 X52.2329
G0 Z25.0000
 X197.7671 Y51.1000
G1 Z-4.0000
 X52.2329
G0 Z25.0000
 Y54.9000
G1 Z-4.0000
 X197.7671
G0 Z25.0000
 X52.2329 Y39.9000
G1 Z-4.0000
 X197.7671
G0 Z25.0000
 Y36.1000
G1 Z-4.0000
 X52.2329
G0 Z25.0000
 Y24.9000
G1 Z-4.0000
 X197.7671
G0 Z25.0000
 Y21.1000
G1 Z-4.0000
 X52.2329
G0 Z25.0000
 Y114.9000
G1 Z-4.0000
 X190.0000
 X198.2017
 X198.6453 Y115.3154
 X198.7243 Y115.3894
 X198.7436 Y115.3995
 X198.8397 Y115.4494
G0 Z25.0000
 X199.1172 Y110.5400
G1 Z-4.0000
 X199.0967 Y110.5328
 X198.9457 Y110.5285
 X198.8397 Y110.5506
 X198.7243 Y110.6106
 X198.2017 Y111.1000
 X190.0000
 X52.2329
G0 Z25.0000
 Y99.9000
G1 Z-4.0000
 X190.0000
 X198.2017
 X198.6453 Y100.3154
 X198.7243 Y100.3894
 X198.7436 Y100.3995
 X198.8397 Y100.4494
G0 Z25.0000
 X199.1172 Y95.5400
G1 Z-4.0000
 X199.0967 Y95.5328
 X198.9457 Y95.5285
 X198.8397 Y95.5506
 X198.7243 Y95.6106
 X198.2017 Y96.1000
 X190.0000
 X52.2329
G0 Z25.0000
 Y84.9000
G1 Z-4.0000
 X190.0000
 X198.2017
 X198.6453 Y85.3154
 X198.7243 Y85.3894
 X198.7436 Y85.3995
 X198.8397 Y85.4494
G0 Z25.0000
 X199.1172 Y80.5400
G1 Z-4.0000
 X199.0967 Y80.5328
 X198.9457 Y80.5285
 X198.8397 Y80.5506
 X198.7243 Y80.6106
 X198.2017 Y81.1000
 X190.0000
 X52.2329
G0 Z25.0000
 Y69.9000
G1 Z-4.0000
 X190.0000
 X198.2017
 X198.6453 Y70.3154
 X198.7243 Y70.3894
 X198.7436 Y70.3995
 X198.8397 Y70.4494
G0 Z25.0000
 X199.1172 Y65.5400
G1 Z-4.0000
 X199.0967 Y65.5328
 X198.9457 Y65.5285
 X198.8397 Y65.5506
 X198.7243 Y65.6106
 X198.2017 Y66.1000
 X190.0000
 X52.2329
G0 Z25.0000
 Y54.9000
G1 Z-4.0000
 X190.0000
 X198.2017
 X198.6453 Y55.3154
 X198.7243 Y55.3894
 X198.7436 Y55.3995
 X198.8397 Y55.4494
 X198.8610 Y55.4538
 X198.9670 Y55.4760
 X198.9887 Y55.4745
G0 Z25.0000
 X199.1172 Y50.5400
G1 Z-4.0000
 X199.0967 Y50.5328
 X199.0750 Y50.5313
 X198.9670 Y50.5240
 X198.8397 Y50.5506
 X198.7243 Y50.6106
 X198.2017 Y51.1000
 X190.0000
 X52.2329
G0 Z25.0000
 Y39.9000
G1 Z-4.0000
 X190.0000
 X198.2017
 X198.6453 Y40.3154
 X198.7243 Y40.3894
 X198.7436 Y40.3995
 X198.8397 Y40.4494
 X198.8610 Y40.4538
 X198.9670 Y40.4760
 X198.9887 Y40.4745
G0 Z25.0000
 X199.1172 Y35.5400
G1 Z-4.0000
 X199.0967 Y35.5328
 X199.0750 Y35.5313
 X198.9670 Y35.5240
 X198.8397 Y35.5506
 X198.7243 Y35.6106
 X198.2017 Y36.1000
 X190.0000
 X52.2329
G0 Z25.0000
 X199.1172 Y20.5400
G1 Z-4.0000
 X199.0967 Y20.5328
 X199.0750 Y20.5313
 X198.9670 Y20.5240
 X198.8397 Y20.5506
 X198.8204 Y20.5606
 X198.7243 Y20.6106
 X198.2017 Y21.1000
 X190.0000
 X52.2329
G0 Z25.0000
 Y24.9000
G1 Z-4.0000
 X190.0000
 X198.2017
 X198.6453 Y25.3154
 X198.7243 Y25.3894
 X198.7436 Y25.3995
G0 Z25.0000
 X60.0000 Y111.1000
G1 Z-4.0000
 X58.8904
G0 Z25.0000
 X60.0000 Y96.1000
G1 Z-4.0000
 X58.8904
G0 Z25.0000
 X60.0000 Y81.1000
G1 Z-4.0000
 X58.8904
G0 Z25.0000
 X60.0000 Y66.1000
G1 Z-4.0000
 X58.8904
G0 Z25.0000
 X60.0000 Y51.1000
G1 Z-4.0000
 X58.8904
G0 Z25.0000
 X60.0000 Y36.1000
G1 Z-4.0000
 X58.8904
G0 Z25.0000
 X60.0000 Y21.1000
G1 Z-4.0000
 X58.8904
G0 Z25.0000
 X51.2824 Y55.3860
G1 Z-4.0000
 X51.7933 Y54.9000
 X60.0000
 X190.0000
 X191.1096
G0 Z25.0000
 X51.2824 Y40.3860
G1 Z-4.0000
 X51.2974 Y40.3718
G0 Z25.0000
 X51.2824 Y25.3860
G1 Z-4.0000
 X51.2974 Y25.3718
G0 Z25.0000
 X190.0000 Y21.1000
G1 Z-4.0000
 X60.0000
 X51.7933
 X51.2824 Y20.6140
G0 Z25.0000
 X51.0555 Y115.4751
G1 Z-4.0000
 X51.1748 Y115.4452
 X51.1929 Y115.4353
 X51.2824 Y115.3860
 X51.2974 Y115.3718
 X51.7933 Y114.9000
 X60.0000
 X190.0000
 X191.1096
G0 Z25.0000
 X51.2825 Y110.6140
G1 Z-4.0000
 X51.2643 Y110.6040
G0 Z25.0000
 X51.0555 Y100.4751
G1 Z-4.0000
 X51.1748 Y100.4452
 X51.1929 Y100.4353
 X51.2824 Y100.3860
 X51.2974 Y100.3718
 X51.7933 Y99.9000
 X60.0000
 X190.0000
 X191.1096
G0 Z25.0000
 X51.2825 Y95.6140
G1 Z-4.0000
 X51.2643 Y95.6040
G0 Z25.0000
 X50.9127 Y115.4680
G1 Z-4.0000
 X50.9327 Y115.4735
G0 Z25.0000
 X50.9127 Y100.4680
G1 Z-4.0000
 X50.9327 Y100.4735
G0 Z25.0000
 X50.9127 Y85.4680
G1 Z-4.0000
 X50.9327 Y85.4735
 X51.0555 Y85.4751
 X51.1748 Y85.4452
 X51.1929 Y85.4353
 X51.2824 Y85.3860
 X51.2974 Y85.3718
 X51.7933 Y84.9000
 X60.0000
 X190.0000
 X191.1096
G0 Z25.0000
 X51.2825 Y80.6140
G1 Z-4.0000
 X51.2643 Y80.6040
G0 Z25.0000
 X50.9127 Y70.4680
G1 Z-4.0000
 X50.9327 Y70.4735
 X51.0555 Y70.4751
 X51.1748 Y70.4452
 X51.1929 Y70.4353
 X51.2824 Y70.3860
 X51.2974 Y70.3718
 X51.7933 Y69.9000
 X60.0000
 X190.0000
 X191.1096
G0 Z25.0000
 X51.2825 Y65.6140
G1 Z-4.0000
 X51.2643 Y65.6040
G0 Z25.0000
 X51.0555 Y55.4751
G1 Z-4.0000
 X51.1748 Y55.4452
 X51.1929 Y55.4353
 X51.2824 Y55.3860
 X51.2974 Y55.3718
 X50.9127 Y55.4680
 X50.9327 Y55.4735
G0 Z25.0000
 X190.0000 Y51.1000
G1 Z-4.0000
 X60.0000
 X51.7933
 X51.2824 Y50.6140
 X51.2643 Y50.6040
G0 Z25.0000
 X50.9127 Y40.4680
G1 Z-4.0000
 X50.9327 Y40.4735
 X51.0555 Y40.4751
 X51.1748 Y40.4452
 X51.1929 Y40.4353
 X51.2824 Y40.3860
 X51.7933 Y39.9000
 X60.0000
 X190.0000
 X191.1096
G0 Z25.0000
 X190.0000 Y36.1000
G1 Z-4.0000
 X60.0000
 X51.7933
 X51.2824 Y35.6140
 X51.2643 Y35.6040
G0 Z25.0000
 X51.1747 Y25.4452
G1 Z-4.0000
 X51.2824 Y25.3860
 X51.7933 Y24.9000
 X60.0000
 X190.0000
 X191.1096
G0 Z25.0000
 X50.6107 Y115.2741
G1 Z-4.0000
 X50.6212 Y115.2920
G0 Z25.0000
 X51.1000 Y112.2329
G1 Z-4.0000
 Y112.8466
 X50.6212 Y110.7080
 X50.6107 Y110.7259
 X50.8143 Y110.5592
 X50.7964 Y110.5697
G0 Z25.0000
 X51.1000 Y97.2329
G1 Z-4.0000
 Y97.8466
G0 Z25.0000
 X50.5262 Y115.0467
G1 Z-4.0000
 X50.5265 Y115.0673
 X50.6357 Y115.3066
 X50.7080 Y115.3789
 X50.7259 Y115.3893
 X50.8142 Y115.4407
 X50.9327 Y115.4735
 X51.0349 Y115.4748
 X51.0555 Y115.4751
 X51.0756 Y115.4700
G0 Z25.0000
 X50.6107 Y100.2741
G1 Z-4.0000
 X50.6212 Y100.2920
G0 Z25.0000
 X190.0000 Y111.1000
G1 Z-4.0000
 X60.0000
 X51.7933
 X51.2974 Y110.6282
 X51.2824 Y110.6140
 X51.1748 Y110.5548
 X51.1547 Y110.5498
 X51.0555 Y110.5249
 X51.0349 Y110.5252
 X50.9327 Y110.5265
 X50.6357 Y110.6934
 X50.6211 Y110.7081
 X50.5593 Y110.8142
 X50.5265 Y110.9327
 X50.5249 Y111.0555
 X50.5548 Y111.1748
 X50.5647 Y111.1929
 X50.6140 Y111.2824
 X50.6282 Y111.2974
 X51.1000 Y111.7933
 Y114.2067
 X50.6282 Y114.7026
 X50.6140 Y114.7176
 X50.5647 Y114.8071
 X50.5548 Y114.8252
 X50.5498 Y114.8453
 X50.5249 Y114.9445
G0 Z25.0000
 X50.5252 Y111.0349
G1 Z-4.0000
 X50.5249 Y111.0555
 X50.5300 Y111.0756
G0 Z25.0000
 X50.5262 Y100.0467
G1 Z-4.0000
 X50.5265 Y100.0673
G0 Z25.0000
 X50.6212 Y95.7080
G1 Z-4.0000
 X50.5593 Y95.8142
 X50.5265 Y95.9327
 X50.5249 Y96.0555
 X50.5548 Y96.1748
 X50.5647 Y96.1929
 X50.6140 Y96.2824
 X50.6282 Y96.2974
 X51.1000 Y96.7933
 Y99.2067
 X50.6282 Y99.7026
 X50.6140 Y99.7176
 X50.5647 Y99.8071
 X50.5548 Y99.8252
 X50.5498 Y99.8453
 X50.5249 Y99.9445
 X50.6357 Y100.3066
 X50.7080 Y100.3789
 X50.7259 Y100.3893
 X50.8142 Y100.4407
 X50.9327 Y100.4735
 X51.0349 Y100.4748
 X51.0555 Y100.4751
 X51.0756 Y100.4700
G0 Z25.0000
 X50.5252 Y96.0349
G1 Z-4.0000
 X50.5249 Y96.0555
 X50.5300 Y96.0756
 X50.6357 Y95.6934
 X50.6211 Y95.7081
 X50.6107 Y95.7259
G0 Z25.0000
 X190.0000 Y96.1000
G1 Z-4.0000
 X60.0000
 X51.7933
 X51.2974 Y95.6282
 X51.2824 Y95.6140
 X51.1748 Y95.5548
 X51.1547 Y95.5498
 X51.0555 Y95.5249
 X51.0349 Y95.5252
 X50.9327 Y95.5265
 X50.8142 Y95.5593
 X50.7964 Y95.5697
G0 Z25.0000
 X50.6107 Y85.2741
G1 Z-4.0000
 X50.6212 Y85.2920
 X50.5262 Y85.0467
 X50.5265 Y85.0673
G0 Z25.0000
 X51.1000 Y82.2329
G1 Z-4.0000
 Y82.8466
 X50.5252 Y81.0349
 X50.5249 Y81.0555
 X50.5548 Y81.1748
 X50.5647 Y81.1929
 X50.6140 Y81.2824
 X50.6282 Y81.2974
 X51.1000 Y81.7933
 Y84.2067
 X50.6282 Y84.7026
 X50.6140 Y84.7176
 X50.5647 Y84.8071
 X50.5548 Y84.8252
 X50.5498 Y84.8453
 X50.5249 Y84.9445
 X50.6357 Y85.3066
 X50.7080 Y85.3789
 X50.7259 Y85.3893
 X50.8142 Y85.4407
 X50.9327 Y85.4735
 X51.0349 Y85.4748
 X51.0555 Y85.4751
 X51.0756 Y85.4700
G0 Z25.0000
 X50.6212 Y80.7080
G1 Z-4.0000
 X50.5593 Y80.8142
 X50.5265 Y80.9327
 X50.5249 Y81.0555
 X50.5300 Y81.0756
 X50.6357 Y80.6934
 X50.6211 Y80.7081
 X50.6107 Y80.7259
G0 Z25.0000
 X190.0000 Y81.1000
G1 Z-4.0000
 X60.0000
 X51.7933
 X51.2974 Y80.6282
 X51.2824 Y80.6140
 X51.1748 Y80.5548
 X51.1547 Y80.5498
 X51.0555 Y80.5249
 X51.0349 Y80.5252
 X50.9327 Y80.5265
 X50.8142 Y80.5593
 X50.7964 Y80.5697
G0 Z25.0000
 X50.6107 Y70.2741
G1 Z-4.0000
 X50.6212 Y70.2920
 X50.5262 Y70.0467
 X50.5265 Y70.0673
G0 Z25.0000
 X51.1000 Y67.2329
G1 Z-4.0000
 Y67.8466
 X50.5252 Y66.0349
 X50.5249 Y66.0555
 X50.5548 Y66.1748
 X50.5647 Y66.1929
 X50.6140 Y66.2824
 X50.6282 Y66.2974
 X51.1000 Y66.7933
 Y69.2067
 X50.6282 Y69.7026
 X50.6140 Y69.7176
 X50.5647 Y69.8071
 X50.5548 Y69.8252
 X50.5498 Y69.8453
 X50.5249 Y69.9445
 X50.6357 Y70.3066
 X50.7080 Y70.3789
 X50.7259 Y70.3893
 X50.8142 Y70.4407
 X50.9327 Y70.4735
 X51.0349 Y70.4748
 X51.0555 Y70.4751
 X51.0756 Y70.4700
G0 Z25.0000
 X50.6212 Y65.7080
G1 Z-4.0000
 X50.5593 Y65.8142
 X50.5265 Y65.9327
 X50.5249 Y66.0555
 X50.5300 Y66.0756
 X50.6357 Y65.6934
 X50.6211 Y65.7081
 X50.6107 Y65.7259
G0 Z25.0000
 X190.0000 Y66.1000
G1 Z-4.0000
 X60.0000
 X51.7933
 X51.2974 Y65.6282
 X51.2824 Y65.6140
 X51.1748 Y65.5548
 X51.1547 Y65.5498
 X51.0555 Y65.5249
 X51.0349 Y65.5252
 X50.9327 Y65.5265
 X50.8142 Y65.5593
 X50.7964 Y65.5697
G0 Z25.0000
 X50.7080 Y55.3788
G1 Z-4.0000
 X50.8142 Y55.4407
 X50.9327 Y55.4735
 X51.0349 Y55.4748
 X51.0555 Y55.4751
 X51.0756 Y55.4700
 X50.6107 Y55.2741
 X50.6211 Y55.2920
 X50.6358 Y55.3066
 X50.6282 Y54.7026
 X50.6140 Y54.7176
 X50.5262 Y55.0467
 X50.5265 Y55.0673
G0 Z25.0000
 X51.1000 Y52.2329
G1 Z-4.0000
 Y52.8466
 X50.6140 Y51.2824
 X51.1000 Y51.7933
 Y54.2067
 X50.6140 Y54.7176
 X50.5647 Y54.8071
 X50.5548 Y54.8252
 X50.5498 Y54.8453
 X50.5249 Y54.9445
 X50.5265 Y55.0673
 X50.5593 Y55.1858
 X50.6211 Y55.2920
 X50.7080 Y55.3789
 X50.7259 Y55.3893
G0 Z25.0000
 X50.5249 Y51.0555
G1 Z-4.0000
 X50.5548 Y51.1748
 X50.5647 Y51.1929
 X50.6140 Y51.2824
 X50.6282 Y51.2974
 X50.6358 Y50.6934
 X50.6211 Y50.7080
 X50.5593 Y50.8142
 X50.5265 Y50.9327
 X50.5252 Y51.0349
 X50.5249 Y51.0555
 X50.5300 Y51.0756
 X51.2974 Y50.6282
 X51.2824 Y50.6140
 X51.1748 Y50.5548
 X51.1547 Y50.5498
 X51.0555 Y50.5249
 X51.0349 Y50.5252
 X50.9327 Y50.5265
 X50.8142 Y50.5593
 X50.7964 Y50.5697
 X50.7080 Y50.6211
 X50.6211 Y50.7080
 X50.6107 Y50.7259
G0 Z25.0000
 X50.7080 Y40.3788
G1 Z-4.0000
 X50.8142 Y40.4407
 X50.9327 Y40.4735
 X51.0349 Y40.4748
 X51.0555 Y40.4751
 X51.0756 Y40.4700
 X50.6107 Y40.2741
 X50.6211 Y40.2920
 X50.6358 Y40.3066
 X50.6282 Y39.7026
 X50.6140 Y39.7176
 X50.5262 Y40.0467
 X50.5265 Y40.0673
G0 Z25.0000
 X51.1000 Y37.2329
G1 Z-4.0000
 Y37.8466
G0 Z25.0000
 X50.9127 Y25.4680
G1 Z-4.0000
 X50.9327 Y25.4735
 X50.7080 Y25.3788
 X50.8142 Y25.4407
 X50.9327 Y25.4735
 X51.0349 Y25.4748
 X51.0555 Y25.4751
 X51.0756 Y25.4700
 X51.1748 Y25.4452
 X51.1929 Y25.4353
G0 Z25.0000
 X51.1000 Y22.2329
G1 Z-4.0000
 Y22.8466
G0 Z25.0000
 X50.6140 Y36.2824
G1 Z-4.0000
 X51.1000 Y36.7933
 Y39.2067
 X50.6140 Y39.7176
 X50.5647 Y39.8071
 X50.5548 Y39.8252
 X50.5498 Y39.8453
 X50.5249 Y39.9445
 X50.5265 Y40.0673
 X50.5593 Y40.1858
 X50.6211 Y40.2920
 X50.7080 Y40.3789
 X50.7259 Y40.3893
G0 Z25.0000
 X50.6140 Y21.2824
G1 Z-4.0000
 X50.6282 Y21.2974
G0 Z25.0000
 X50.6358 Y35.6934
G1 Z-4.0000
 X50.6211 Y35.7080
 X50.6107 Y35.7259
G0 Z25.0000
 X50.6358 Y20.6934
G1 Z-4.0000
 X50.6211 Y20.7080
 X50.6107 Y20.7259
G0 Z25.0000
 Y25.2741
G1 Z-4.0000
 X50.6211 Y25.2920
 X50.7080 Y25.3789
 X50.7259 Y25.3893
 X50.5265 Y25.0673
 X50.5593 Y25.1858
 X50.6211 Y25.2920
 X50.6358 Y25.3066
 X50.5265 Y25.0673
 X50.5320 Y25.0873
G0 Z25.0000
 X50.5249 Y36.0555
G1 Z-4.0000
 X50.5548 Y36.1748
 X50.5647 Y36.1929
 X50.6140 Y36.2824
 X50.6282 Y36.2974
 X51.2974 Y35.6282
 X51.2824 Y35.6140
 X51.1748 Y35.5548
 X51.1547 Y35.5498
 X51.0555 Y35.5249
 X51.0349 Y35.5252
 X50.9327 Y35.5265
 X50.8142 Y35.5593
 X50.7964 Y35.5697
 X50.7080 Y35.6211
 X50.6211 Y35.7080
 X50.5593 Y35.8142
 X50.5265 Y35.9327
 X50.5252 Y36.0349
 X50.5249 Y36.0555
 X50.5300 Y36.0756
G0 Z25.0000
 X51.2974 Y20.6282
G1 Z-4.0000
 X51.2824 Y20.6140
 X51.2643 Y20.6040
 X51.1748 Y20.5548
 X51.0555 Y20.5249
 X51.0349 Y20.5252
 X50.9327 Y20.5265
 X50.8142 Y20.5593
 X50.7964 Y20.5697
 X50.7080 Y20.6211
 X50.6211 Y20.7080
 X50.5593 Y20.8142
 X50.5537 Y20.8341
 X50.5265 Y20.9327
 X50.5647 Y21.1929
 X50.6140 Y21.2824
 X51.1000 Y21.7933
 Y24.2067
 X50.6140 Y24.7176
 X50.6282 Y24.7026
 X50.6140 Y24.7176
 X50.5647 Y24.8071
 X50.5548 Y24.8252
 X50.5498 Y24.8453
 X50.5249 Y24.9445
 X50.5262 Y25.0467
G0 Z25.0000
 X50.5252 Y21.0349
G1 Z-4.0000
 X50.5249 Y21.0555
 X50.5300 Y21.0756
G0 Z25.0000
 X199.4545 Y111.1389
G1 Z-6.0000
 X199.4718 Y111.0231
G0 Z25.0000
 X199.4545 Y96.1389
G1 Z-6.0000
 X199.4718 Y96.0231
G0 Z25.0000
 X199.4594 Y110.8712
G1 Z-6.0000
 X199.4163 Y110.7719
 X199.4076 Y110.7520
 X199.3392 Y110.6680
G0 Z25.0000
 X199.3942 Y114.7344
G1 Z-6.0000
 X199.3151 Y114.6481
 X198.9000 Y113.1534
 Y112.2329
G0 Z25.0000
 X198.9669 Y115.4760
G1 Z-6.0000
 X199.0967 Y115.4672
 X199.1987 Y115.4311
 X199.2192 Y115.4238
 X199.3077 Y115.3614
 X199.3255 Y115.3489
 X199.3938 Y115.2649
 X199.4076 Y115.2480
 X199.4508 Y115.1487
 X199.4594 Y115.1288
 X199.4742 Y115.0216
 X199.4762 Y115.0064
 X199.4580 Y114.8842
 X199.4546 Y114.8611
 X199.4042 Y114.7554
 X199.3942 Y114.7344
 X198.9000 Y114.1944
 Y111.8056
 X199.3942 Y111.2656
 X199.3255 Y110.6512
 X199.2370 Y110.5887
G0 Z25.0000
 X199.3942 Y99.7344
G1 Z-6.0000
 X199.3151 Y99.6481
 X198.9000 Y98.1534
 Y97.2329
G0 Z25.0000
 X198.9669 Y100.4760
G1 Z-6.0000
 X199.0967 Y100.4672
 X199.1987 Y100.4311
 X199.2192 Y100.4238
 X199.3077 Y100.3614
 X199.3255 Y100.3489
 X199.3938 Y100.2649
 X199.4076 Y100.2480
 X199.4508 Y100.1487
 X199.4594 Y100.1288
 X199.4742 Y100.0216
 X199.4762 Y100.0064
 X199.4580 Y99.8842
 X199.4546 Y99.8611
 X199.4042 Y99.7554
 X199.3942 Y99.7344
 X198.9000 Y99.1944
 Y96.8056
 X199.3942 Y96.2656
 X199.4594 Y95.8712
 X199.4163 Y95.7719
 X199.4076 Y95.7520
 X199.3392 Y95.6680
 X199.3255 Y95.6512
 X199.2370 Y95.5887
G0 Z25.0000
 X199.3942 Y84.7344
G1 Z-6.0000
 X199.3151 Y84.6481
 X198.9000 Y83.1534
 Y82.2329
G0 Z25.0000
 X198.9669 Y85.4760
G1 Z-6.0000
 X199.0967 Y85.4672
 X199.1987 Y85.4311
 X199.2192 Y85.4238
 X199.3077 Y85.3614
 X199.3255 Y85.3489
 X199.3938 Y85.2649
 X199.4076 Y85.2480
 X199.4508 Y85.1487
 X199.4594 Y85.1288
 X199.4742 Y85.0216
 X199.4762 Y85.0064
 X199.4580 Y84.8842
 X199.4546 Y84.8611
 X199.4042 Y84.7554
 X199.3942 Y84.7344
 X198.9000 Y84.1944
 Y81.8056
 X199.3942 Y81.2656
 X199.4545 Y81.1389
 X199.4718 Y81.0231
 X199.4594 Y80.8712
 X199.4163 Y80.7719
 X199.4076 Y80.7520
 X199.3392 Y80.6680
 X199.3255 Y80.6512
 X199.2370 Y80.5887
G0 Z25.0000
 X199.3942 Y69.7344
G1 Z-6.0000
 X199.3151 Y69.6481
 X198.9000 Y68.1534
 Y67.2329
G0 Z25.0000
 X198.9669 Y70.4760
G1 Z-6.0000
 X199.0967 Y70.4672
 X199.1987 Y70.4311
 X199.2192 Y70.4238
 X199.3077 Y70.3614
 X199.3255 Y70.3489
 X199.3938 Y70.2649
 X199.4076 Y70.2480
 X199.4508 Y70.1487
 X199.4594 Y70.1288
 X199.4742 Y70.0216
 X199.4762 Y70.0064
 X199.4580 Y69.8842
 X199.4546 Y69.8611
 X199.4042 Y69.7554
 X199.3942 Y69.7344
 X198.9000 Y69.1944
 Y66.8056
 X199.3942 Y66.2656
 X199.4545 Y66.1389
 X199.4718 Y66.0231
 X199.4594 Y65.8712
 X199.4163 Y65.7719
 X199.4076 Y65.7520
 X199.3392 Y65.6680
 X199.3255 Y65.6512
 X199.2370 Y65.5887
G0 Z25.0000
 X199.3942 Y54.7344
G1 Z-6.0000
 X199.3151 Y54.6481
 X198.9000 Y53.1534
 Y52.2329
G0 Z25.0000
 X199.3255 Y55.3489
G1 Z-6.0000
 X199.4076 Y55.2480
 X199.4508 Y55.1487
 X199.4594 Y55.1288
 X199.4742 Y55.0216
 X199.4762 Y55.0064
 X199.4580 Y54.8842
 X199.4546 Y54.8611
 X199.4042 Y54.7554
 X199.3942 Y54.7344
 X198.9000 Y54.1944
 Y51.8056
 X199.3942 Y51.2656
 X199.4545 Y51.1389
 X199.4718 Y51.0231
 X199.4594 Y50.8712
 X199.4163 Y50.7719
 X199.3255 Y50.6511
 X199.2370 Y50.5887
 X199.0967 Y50.5328
 X198.9887 Y50.5255
G0 Z25.0000
 X199.4545 Y36.1389
G1 Z-6.0000
 X199.4718 Y36.0231
G0 Z25.0000
 X199.4545 Y21.1389
G1 Z-6.0000
 X199.4718 Y21.0231
G0 Z25.0000
 X199.4594 Y35.8712
G1 Z-6.0000
 X199.4163 Y35.7719
G0 Z25.0000
 X199.4594 Y20.8712
G1 Z-6.0000
 X199.4163 Y20.7719
G0 Z25.0000
 X199.3942 Y39.7344
G1 Z-6.0000
 X199.3151 Y39.6481
 X198.9000 Y38.1534
 Y37.2329
 X199.3255 Y35.6511
 X199.2370 Y35.5887
G0 Z25.0000
 X199.3255 Y40.3489
G1 Z-6.0000
 X199.4076 Y40.2480
 X199.4508 Y40.1487
 X199.4594 Y40.1288
 X199.4742 Y40.0216
 X199.4762 Y40.0064
 X199.4580 Y39.8842
 X199.4546 Y39.8611
 X199.4042 Y39.7554
 X199.3942 Y39.7344
 X198.9000 Y39.1944
 Y36.8056
 X199.3942 Y36.2656
 X199.0967 Y35.5328
 X198.9887 Y35.5255
G0 Z25.0000
 X199.4076 Y20.7520
G1 Z-6.0000
 X199.3392 Y20.6680
G0 Z25.0000
 X198.9000 Y23.1534
G1 Z-6.0000
 Y22.2329
G0 Z25.0000
 X199.3942 Y24.7344
G1 Z-6.0000
 X198.9000 Y24.1944
 Y21.8056
 X199.3942 Y21.2656
 X199.3255 Y20.6511
 X199.2370 Y20.5887
G0 Z25.0000
 X198.7243 Y115.3894
G1 Z-6.0000
 X198.8397 Y115.4494
 X198.9457 Y115.4715
 X198.9670 Y115.4760
 X199.0750 Y115.4687
G0 Z25.0000
 X198.9670 Y110.5240
G1 Z-6.0000
 X198.8610 Y110.5462
G0 Z25.0000
 X198.7243 Y100.3894
G1 Z-6.0000
 X198.8397 Y100.4494
 X198.9457 Y100.4715
 X198.9670 Y100.4760
 X199.0750 Y100.4687
G0 Z25.0000
 X198.9670 Y95.5240
G1 Z-6.0000
 X198.8610 Y95.5462
G0 Z25.0000
 X198.7243 Y85.3894
G1 Z-6.0000
 X198.8397 Y85.4494
 X198.9457 Y85.4715
 X198.9670 Y85.4760
 X199.0750 Y85.4687
G0 Z25.0000
 X198.9670 Y80.5240
G1 Z-6.0000
 X198.8610 Y80.5462
G0 Z25.0000
 X198.7243 Y70.3894
G1 Z-6.0000
 X198.8397 Y70.4494
 X198.9457 Y70.4715
 X198.9670 Y70.4760
 X199.0750 Y70.4687
G0 Z25.0000
 X198.9670 Y65.5240
G1 Z-6.0000
 X198.8610 Y65.5462
G0 Z25.0000
 X198.8397 Y55.4494
G1 Z-6.0000
 X198.9670 Y55.4760
 X199.0750 Y55.4687
 X199.0967 Y55.4672
 X199.1987 Y55.4311
 X199.2192 Y55.4238
 X199.3077 Y55.3614
 X199.3255 Y55.3489
 X199.3938 Y55.2649
 X198.7243 Y55.3894
 X198.8397 Y55.4494
 X198.9457 Y55.4715
G0 Z25.0000
 X198.8397 Y40.4494
G1 Z-6.0000
 X198.9670 Y40.4760
 X199.0750 Y40.4687
 X199.0967 Y40.4672
 X199.1987 Y40.4311
 X199.2192 Y40.4238
 X199.3077 Y40.3614
 X199.3255 Y40.3489
 X199.3938 Y40.2649
 X198.7243 Y40.3894
 X198.8397 Y40.4494
 X198.9457 Y40.4715
G0 Z25.0000
 X198.8397 Y25.4494
G1 Z-6.0000
 X198.9670 Y25.4760
 X199.0750 Y25.4687
 X199.0967 Y25.4672
 X199.1987 Y25.4311
 X199.2192 Y25.4238
 X199.3077 Y25.3614
 X199.3255 Y25.3489
 X199.3938 Y25.2649
 X199.4076 Y25.2480
 X199.4508 Y25.1487
 X199.4594 Y25.1288
 X199.4742 Y25.0216
 X199.4762 Y25.0064
 X199.4580 Y24.8842
 X199.4546 Y24.8611
 X199.4042 Y24.7554
 X199.3942 Y24.7344
 X199.3151 Y24.6481
G0 Z25.0000
 X199.0967 Y20.5328
G1 Z-6.0000
 X198.9887 Y20.5255
 X198.8397 Y20.5506
 X198.7436 Y20.6005
G0 Z25.0000
 X134.2857 Y114.9000
G1 Z-6.0000
 X190.0000
G0 Z25.0000
 Y111.1000
G1 Z-6.0000
 X134.2857
G0 Z25.0000
 Y99.9000
G1 Z-6.0000
 X190.0000
G0 Z25.0000
 Y96.1000
G1 Z-6.0000
 X134.2857
G0 Z25.0000
 Y84.9000
G1 Z-6.0000
 X190.0000
G0 Z25.0000
 Y81.1000
G1 Z-6.0000
 X134.2857
G0 Z25.0000
 Y69.9000
G1 Z-6.0000
 X190.0000
G0 Z25.0000
 Y66.1000
G1 Z-6.0000
 X134.2857
G0 Z25.0000
 Y54.9000
G1 Z-6.0000
 X190.0000
G0 Z25.0000
 Y51.1000
G1 Z-6.0000
 X134.2857
G0 Z25.0000
 Y39.9000
G1 Z-6.0000
 X190.0000
G0 Z25.0000
 Y36.1000
G1 Z-6.0000
 X134.2857
G0 Z25.0000
 X190.0000 Y21.1000
G1 Z-6.0000
 X134.2857
G0 Z25.0000
 Y24.9000
G1 Z-6.0000
 X190.0000
G0 Z25.0000
 X52.2329 Y114.9000
G1 Z-6.0000
 X198.2017
 X198.7243 Y115.3894
 X198.8204 Y115.4394
G0 Z25.0000
 X197.7671 Y111.1000
G1 Z-6.0000
 X52.2329
G0 Z25.0000
 Y99.9000
G1 Z-6.0000
 X198.2017
 X198.7243 Y100.3894
 X198.8204 Y100.4394
G0 Z25.0000
 X197.7671 Y96.1000
G1 Z-6.0000
 X52.2329
G0 Z25.0000
 Y84.9000
G1 Z-6.0000
 X198.2017
 X198.7243 Y85.3894
 X198.8204 Y85.4394
G0 Z25.0000
 X197.7671 Y81.1000
G1 Z-6.0000
 X52.2329
G0 Z25.0000
 Y69.9000
G1 Z-6.0000
 X198.2017
 X198.7243 Y70.3894
 X198.8204 Y70.4394
G0 Z25.0000
 X197.7671 Y66.1000
G1 Z-6.0000
 X52.2329
G0 Z25.0000
 X197.7671 Y51.1000
G1 Z-6.0000
 X52.2329
G0 Z25.0000
 Y54.9000
G1 Z-6.0000
 X198.2017
 X198.7243 Y55.3894
 X198.8204 Y55.4394
G0 Z25.0000
 X52.2329 Y39.9000
G1 Z-6.0000
 X198.2017
 X198.7243 Y40.3894
 X198.8204 Y40.4394
G0 Z25.0000
 X197.7671 Y36.1000
G1 Z-6.0000
 X52.2329
G0 Z25.0000
 Y24.9000
G1 Z-6.0000
 X198.2017
 X198.7243 Y25.3894
 X198.8204 Y25.4394
 X198.8397 Y25.4494
 X198.9457 Y25.4715
G0 Z25.0000
 X197.7671 Y21.1000
G1 Z-6.0000
 X52.2329
G0 Z25.0000
 Y114.9000
G1 Z-6.0000
 X190.0000
 X198.2017
 X198.7085 Y115.3746
G0 Z25.0000
 X199.3151 Y111.3519
G1 Z-6.0000
 X199.3942 Y111.2656
 X199.4042 Y111.2446
 X199.4546 Y111.1389
 X199.4762 Y110.9936
 X199.4742 Y110.9784
 X199.4594 Y110.8712
 X199.4076 Y110.7520
 X199.3255 Y110.6511
 X199.2192 Y110.5762
 X199.1987 Y110.5689
 X199.0967 Y110.5328
 X198.9887 Y110.5255
 X198.9670 Y110.5240
 X198.8397 Y110.5506
 X198.7436 Y110.6005
 X198.7243 Y110.6106
 X198.6453 Y110.6846
 X198.2017 Y111.1000
 X190.0000
 X52.2329
G0 Z25.0000
 Y99.9000
G1 Z-6.0000
 X190.0000
 X198.2017
 X198.7085 Y100.3746
G0 Z25.0000
 X199.3151 Y96.3519
G1 Z-6.0000
 X199.3942 Y96.2656
 X199.4042 Y96.2446
 X199.4546 Y96.1389
 X199.4762 Y95.9936
 X199.4742 Y95.9784
 X199.4594 Y95.8712
 X199.4076 Y95.7520
 X199.3255 Y95.6511
 X199.2192 Y95.5762
 X199.1987 Y95.5689
 X199.0967 Y95.5328
 X198.9887 Y95.5255
 X198.9670 Y95.5240
 X198.8397 Y95.5506
 X198.7436 Y95.6005
 X198.7243 Y95.6106
 X198.6453 Y95.6846
 X198.2017 Y96.1000
 X190.0000
 X52.2329
G0 Z25.0000
 Y84.9000
G1 Z-6.0000
 X190.0000
 X198.2017
 X198.7085 Y85.3746
G0 Z25.0000
 X199.3151 Y81.3519
G1 Z-6.0000
 X199.3942 Y81.2656
 X199.4042 Y81.2446
 X199.4546 Y81.1389
 X199.4762 Y80.9936
 X199.4742 Y80.9784
 X199.4594 Y80.8712
 X199.4076 Y80.7520
 X199.3255 Y80.6511
 X199.2192 Y80.5762
 X199.1987 Y80.5689
 X199.0967 Y80.5328
 X198.9887 Y80.5255
 X198.9670 Y80.5240
 X198.8397 Y80.5506
 X198.7436 Y80.6005
 X198.7243 Y80.6106
 X198.6453 Y80.6846
 X198.2017 Y81.1000
 X190.0000
 X52.2329
G0 Z25.0000
 Y69.9000
G1 Z-6.0000
 X190.0000
 X198.2017
 X198.7085 Y70.3746
G0 Z25.0000
 X199.3151 Y66.3519
G1 Z-6.0000
 X199.3942 Y66.2656
 X199.4042 Y66.2446
 X199.4546 Y66.1389
 X199.4762 Y65.9936
 X199.4742 Y65.9784
 X199.4594 Y65.8712
 X199.4076 Y65.7520
 X199.3255 Y65.6511
 X199.2192 Y65.5762
 X199.1987 Y65.5689
 X199.0967 Y65.5328
 X198.9887 Y65.5255
 X198.9670 Y65.5240
 X198.8397 Y65.5506
 X198.7436 Y65.6005
 X198.7243 Y65.6106
 X198.6453 Y65.6846
 X198.2017 Y66.1000
 X190.0000
 X52.2329
G0 Z25.0000
 Y54.9000
G1 Z-6.0000
 X190.0000
 X198.2017
 X198.7085 Y55.3746
G0 Z25.0000
 X199.3151 Y51.3519
G1 Z-6.0000
 X199.3942 Y51.2656
 X199.4042 Y51.2446
 X199.4546 Y51.1389
 X199.4762 Y50.9936
 X199.4742 Y50.9784
 X199.4594 Y50.8712
 X199.4076 Y50.7520
 X199.3392 Y50.6680
 X199.3255 Y50.6511
 X199.2192 Y50.5762
 X199.1987 Y50.5689
 X199.0967 Y50.5328
 X198.9670 Y50.5240
 X198.8610 Y50.5462
 X198.8397 Y50.5506
 X198.7436 Y50.6005
 X198.7243 Y50.6106
 X198.6453 Y50.6846
 X198.2017 Y51.1000
 X190.0000
 X52.2329
G0 Z25.0000
 Y39.9000
G1 Z-6.0000
 X190.0000
 X198.2017
 X198.7085 Y40.3746
G0 Z25.0000
 X199.3151 Y36.3519
G1 Z-6.0000
 X199.3942 Y36.2656
 X199.4042 Y36.2446
 X199.4546 Y36.1389
 X199.4762 Y35.9936
 X199.4742 Y35.9784
 X199.4594 Y35.8712
 X199.4076 Y35.7520
 X199.3392 Y35.6680
 X199.3255 Y35.6511
 X199.2192 Y35.5762
 X199.1987 Y35.5689
 X199.0967 Y35.5328
 X198.9670 Y35.5240
 X198.8610 Y35.5462
 X198.8397 Y35.5506
 X198.7436 Y35.6005
 X198.7243 Y35.6106
 X198.6453 Y35.6846
 X198.2017 Y36.1000
 X190.0000
 X52.2329
G0 Z25.0000
 X199.3151 Y21.3519
G1 Z-6.0000
 X199.3942 Y21.2656
 X199.4042 Y21.2446
 X199.4546 Y21.1389
 X199.4762 Y20.9936
 X199.4742 Y20.9784
 X199.4594 Y20.8712
 X199.4076 Y20.7520
 X199.3255 Y20.6511
 X199.2192 Y20.5762
 X199.1987 Y20.5689
 X199.0967 Y20.5328
 X198.9670 Y20.5240
 X198.8610 Y20.5462
 X198.8397 Y20.5506
 X198.7243 Y20.6106
 X198.6453 Y20.6846
 X198.2017 Y21.1000
 X190.0000
 X52.2329
G0 Z25.0000
 Y24.9000
G1 Z-6.0000
 X190.0000
 X198.2017
 X198.7085 Y25.3746
G0 Z25.0000
 X56.6713 Y114.9000
G1 Z-6.0000
 X60.0000
G0 Z25.0000
 Y111.1000
G1 Z-6.0000
 X56.6713
G0 Z25.0000
 Y99.9000
G1 Z-6.0000
 X60.0000
G0 Z25.0000
 Y96.1000
G1 Z-6.0000
 X56.6713
G0 Z25.0000
 Y84.9000
G1 Z-6.0000
 X60.0000
G0 Z25.0000
 Y81.1000
G1 Z-6.0000
 X56.6713
G0 Z25.0000
 Y69.9000
G1 Z-6.0000
 X60.0000
G0 Z25.0000
 Y66.1000
G1 Z-6.0000
 X56.6713
G0 Z25.0000
 Y54.9000
G1 Z-6.0000
 X60.0000
G0 Z25.0000
 Y51.1000
G1 Z-6.0000
 X56.6713
G0 Z25.0000
 Y39.9000
G1 Z-6.0000
 X60.0000
G0 Z25.0000
 Y36.1000
G1 Z-6.0000
 X56.6713
G0 Z25.0000
 X51.2824 Y115.3860
G1 Z-6.0000
 X51.7933 Y114.9000
 X60.0000
 X190.0000
 X193.3287
G0 Z25.0000
 X56.6713 Y24.9000
G1 Z-6.0000
 X60.0000
G0 Z25.0000
 Y21.1000
G1 Z-6.0000
 X56.6713
G0 Z25.0000
 X51.2824 Y100.3860
G1 Z-6.0000
 X51.7933 Y99.9000
 X60.0000
 X190.0000
 X193.3287
G0 Z25.0000
 Y111.1000
G1 Z-6.0000
 X190.0000
 X60.0000
 X51.7933
 X51.2824 Y110.6140
G0 Z25.0000
 X193.3287 Y96.1000
G1 Z-6.0000
 X190.0000
 X60.0000
 X51.7933
 X51.2824 Y95.6140
G0 Z25.0000
 Y85.3860
G1 Z-6.0000
 X51.7933 Y84.9000
 X60.0000
 X190.0000
 X193.3287
G0 Z25.0000
 Y81.1000
G1 Z-6.0000
 X190.0000
 X60.0000
 X51.7933
 X51.2824 Y80.6140
G0 Z25.0000
 Y70.3860
G1 Z-6.0000
 X51.7933 Y69.9000
 X60.0000
 X190.0000
 X193.3287
G0 Z25.0000
 Y66.1000
G1 Z-6.0000
 X190.0000
 X60.0000
 X51.7933
 X51.2824 Y65.6140
G0 Z25.0000
 X50.9533 Y115.4738
G1 Z-6.0000
 X51.0556 Y115.4751
 X51.1747 Y115.4452
 X51.2824 Y115.3860
 X51.3565 Y115.3155
G0 Z25.0000
 X51.1748 Y110.5548
G1 Z-6.0000
 X51.0756 Y110.5300
G0 Z25.0000
 X50.9533 Y100.4738
G1 Z-6.0000
 X51.0556 Y100.4751
G0 Z25.0000
 Y110.5249
G1 Z-6.0000
 X50.9533 Y110.5262
G0 Z25.0000
 X51.1747 Y100.4452
G1 Z-6.0000
 X51.2824 Y100.3860
 X51.3565 Y100.3155
G0 Z25.0000
 X50.8341 Y115.4463
G1 Z-6.0000
 X50.9327 Y115.4735
G0 Z25.0000
 X50.8341 Y100.4463
G1 Z-6.0000
 X50.9327 Y100.4735
G0 Z25.0000
 Y110.5265
G1 Z-6.0000
 X50.8341 Y110.5537
G0 Z25.0000
 X50.9327 Y95.5265
G1 Z-6.0000
 X50.8341 Y95.5537
 X51.1748 Y95.5548
 X51.0756 Y95.5300
 X51.0556 Y95.5249
 X50.9533 Y95.5262
G0 Z25.0000
 Y85.4738
G1 Z-6.0000
 X51.0556 Y85.4751
 X51.1747 Y85.4452
 X51.2824 Y85.3860
 X51.3565 Y85.3155
 X50.8341 Y85.4463
 X50.9327 Y85.4735
G0 Z25.0000
 X51.1748 Y80.5548
G1 Z-6.0000
 X51.0756 Y80.5300
 X50.9327 Y80.5265
 X50.8341 Y80.5537
 X51.0556 Y80.5249
 X50.9533 Y80.5262
G0 Z25.0000
 Y70.4738
G1 Z-6.0000
 X51.0556 Y70.4751
 X51.1747 Y70.4452
 X51.2824 Y70.3860
 X51.3565 Y70.3155
 X50.8341 Y70.4463
 X50.9327 Y70.4735
G0 Z25.0000
 Y65.5265
G1 Z-6.0000
 X50.8341 Y65.5537
 X51.1748 Y65.5548
 X51.0756 Y65.5300
 X51.0556 Y65.5249
 X50.9533 Y65.5262
G0 Z25.0000
 Y55.4738
G1 Z-6.0000
 X51.0556 Y55.4751
 X51.1747 Y55.4452
 X51.2824 Y55.3860
 X51.3565 Y55.3155
 X51.7933 Y54.9000
 X60.0000
 X190.0000
 X193.3287
G0 Z25.0000
 X50.8341 Y55.4463
G1 Z-6.0000
 X50.9327 Y55.4735
G0 Z25.0000
 Y50.5265
G1 Z-6.0000
 X50.8341 Y50.5537
 X51.1748 Y50.5548
 X51.0756 Y50.5300
 X51.0556 Y50.5249
 X50.9533 Y50.5262
G0 Z25.0000
 Y40.4738
G1 Z-6.0000
 X51.0556 Y40.4751
 X51.1747 Y40.4452
 X51.2824 Y40.3860
 X51.3565 Y40.3155
 X51.7933 Y39.9000
 X60.0000
 X190.0000
 X193.3287
G0 Z25.0000
 X50.8341 Y40.4463
G1 Z-6.0000
 X50.9327 Y40.4735
G0 Z25.0000
 X51.1748 Y35.5548
G1 Z-6.0000
 X51.0756 Y35.5300
 X51.0556 Y35.5249
 X50.9533 Y35.5262
G0 Z25.0000
 Y25.4738
G1 Z-6.0000
 X51.0555 Y25.4751
 X51.1748 Y25.4452
 X51.2643 Y25.3960
 X51.2824 Y25.3860
 X51.3565 Y25.3155
 X51.7933 Y24.9000
 X60.0000
 X190.0000
 X193.3287
G0 Z25.0000
 X51.2825 Y20.6140
G1 Z-6.0000
 X51.1929 Y20.5647
 X51.0556 Y20.5249
 X50.9533 Y20.5262
G0 Z25.0000
 X50.9327 Y35.5265
G1 Z-6.0000
 X50.8341 Y35.5537
G0 Z25.0000
 X50.9327 Y20.5265
G1 Z-6.0000
 X50.8341 Y20.5537
G0 Z25.0000
 X50.7080 Y115.3788
G1 Z-6.0000
 X50.8142 Y115.4407
 X50.9327 Y115.4735
 X51.0555 Y115.4751
 X51.1547 Y115.4502
 X51.1748 Y115.4452
 X51.2643 Y115.3960
 X50.6211 Y115.2919
 X50.7080 Y115.3789
 X50.7964 Y115.4303
G0 Z25.0000
 X51.1000 Y112.2329
G1 Z-6.0000
 Y113.1534
 X50.6140 Y111.2824
 X51.1000 Y111.7933
 Y114.2067
 X50.6140 Y114.7176
G0 Z25.0000
 X51.3565 Y110.6845
G1 Z-6.0000
 X51.2824 Y110.6140
 X51.1929 Y110.5647
 X51.1748 Y110.5548
 X51.0555 Y110.5249
 X50.9327 Y110.5265
 X50.8142 Y110.5593
 X50.7259 Y110.6107
 X50.7080 Y110.6211
 X50.6211 Y110.7081
G0 Z25.0000
 X50.7080 Y100.3788
G1 Z-6.0000
 X50.8142 Y100.4407
 X50.9327 Y100.4735
 X51.0555 Y100.4751
 X51.1547 Y100.4502
 X51.1748 Y100.4452
 X51.2643 Y100.3960
 X50.6211 Y100.2919
 X50.7080 Y100.3789
 X50.7964 Y100.4303
G0 Z25.0000
 X51.1000 Y97.2329
G1 Z-6.0000
 Y98.1534
 X50.6140 Y96.2824
 X51.1000 Y96.7933
 Y99.2067
 X50.6140 Y99.7176
G0 Z25.0000
 X50.5548 Y111.1747
G1 Z-6.0000
 X50.6140 Y111.2824
 X50.6845 Y111.3565
G0 Z25.0000
 X50.5252 Y114.9651
G1 Z-6.0000
 X50.5265 Y115.0673
 X50.5537 Y115.1659
G0 Z25.0000
 X50.5548 Y96.1747
G1 Z-6.0000
 X50.6140 Y96.2824
 X50.6845 Y96.3565
G0 Z25.0000
 X50.5593 Y110.8142
G1 Z-6.0000
 X50.5320 Y110.9127
G0 Z25.0000
 X50.5593 Y95.8142
G1 Z-6.0000
 X50.5320 Y95.9127
G0 Z25.0000
 X50.6845 Y114.6435
G1 Z-6.0000
 X50.6140 Y114.7176
 X50.5548 Y114.8252
 X50.5249 Y114.9445
 X50.5265 Y115.0673
 X50.5593 Y115.1858
 X50.5697 Y115.2036
 X50.6211 Y115.2919
 X50.6934 Y115.3642
 X50.6040 Y114.7357
 X50.5548 Y114.8252
 X50.5300 Y114.9244
G0 Z25.0000
 X50.6934 Y110.6358
G1 Z-6.0000
 X50.6211 Y110.7081
 X50.5697 Y110.7964
 X50.5593 Y110.8142
 X50.5265 Y110.9327
 X50.5249 Y111.0556
 X50.5262 Y110.9533
 X50.5249 Y111.0555
 X50.5498 Y111.1547
 X50.5548 Y111.1748
 X50.6040 Y111.2643
G0 Z25.0000
 X50.5252 Y99.9651
G1 Z-6.0000
 X50.5265 Y100.0673
 X50.5537 Y100.1659
 X50.6845 Y99.6435
 X50.6140 Y99.7176
 X50.5548 Y99.8252
 X50.5249 Y99.9445
 X50.5265 Y100.0673
 X50.5593 Y100.1858
 X50.5697 Y100.2036
 X50.6211 Y100.2919
 X50.6934 Y100.3642
 X50.6040 Y99.7357
 X50.5548 Y99.8252
 X50.5300 Y99.9244
G0 Z25.0000
 X50.5262 Y95.9533
G1 Z-6.0000
 X50.5249 Y96.0556
 X50.6934 Y95.6358
 X50.6211 Y95.7081
 X51.3565 Y95.6845
 X51.2824 Y95.6140
 X51.1929 Y95.5647
 X51.1748 Y95.5548
 X51.0555 Y95.5249
 X50.9327 Y95.5265
 X50.8142 Y95.5593
 X50.7259 Y95.6107
 X50.7080 Y95.6211
 X50.6211 Y95.7081
 X50.5697 Y95.7964
 X50.5593 Y95.8142
 X50.5265 Y95.9327
 X50.5249 Y96.0555
 X50.5498 Y96.1547
 X50.5548 Y96.1748
 X50.6040 Y96.2643
G0 Z25.0000
 X50.7080 Y85.3788
G1 Z-6.0000
 X50.8142 Y85.4407
 X50.9327 Y85.4735
 X51.0555 Y85.4751
 X51.1547 Y85.4502
 X51.1748 Y85.4452
 X51.2643 Y85.3960
 X50.6211 Y85.2919
 X50.7080 Y85.3789
 X50.7964 Y85.4303
 X50.5252 Y84.9651
 X50.5265 Y85.0673
 X50.5537 Y85.1659
 X50.6040 Y84.7357
 X50.5548 Y84.8252
 X50.5249 Y84.9445
 X50.5265 Y85.0673
 X50.5593 Y85.1858
 X50.5697 Y85.2036
 X50.6211 Y85.2919
 X50.6934 Y85.3642
 X50.6845 Y84.6435
 X50.6140 Y84.7176
G0 Z25.0000
 X51.1000 Y82.2329
G1 Z-6.0000
 Y83.1534
 X50.6140 Y81.2824
 X50.6845 Y81.3565
 X50.5548 Y81.1747
 X50.6140 Y81.2824
 X51.1000 Y81.7933
 Y84.2067
 X50.6140 Y84.7176
 X50.5548 Y84.8252
 X50.5300 Y84.9244
G0 Z25.0000
 X50.5593 Y80.8142
G1 Z-6.0000
 X50.5320 Y80.9127
 X50.5262 Y80.9533
 X50.5249 Y81.0556
 X50.6934 Y80.6358
 X50.6211 Y80.7081
 X51.3565 Y80.6845
 X51.2824 Y80.6140
 X51.1929 Y80.5647
 X51.1748 Y80.5548
 X51.0555 Y80.5249
 X50.9327 Y80.5265
 X50.8142 Y80.5593
 X50.7259 Y80.6107
 X50.7080 Y80.6211
 X50.6211 Y80.7081
 X50.5697 Y80.7964
 X50.5593 Y80.8142
 X50.5265 Y80.9327
 X50.5249 Y81.0555
 X50.5498 Y81.1547
 X50.5548 Y81.1748
 X50.6040 Y81.2643
G0 Z25.0000
 X50.7080 Y70.3788
G1 Z-6.0000
 X50.8142 Y70.4407
 X50.9327 Y70.4735
 X51.0555 Y70.4751
 X51.1547 Y70.4502
 X51.1748 Y70.4452
 X51.2643 Y70.3960
 X50.6211 Y70.2919
 X50.7080 Y70.3789
 X50.7964 Y70.4303
 X50.6845 Y69.6435
 X50.6140 Y69.7176
 X50.5252 Y69.9651
 X50.5265 Y70.0673
 X50.5537 Y70.1659
 X50.6040 Y69.7357
 X50.5548 Y69.8252
 X50.5249 Y69.9445
 X50.5265 Y70.0673
 X50.5593 Y70.1858
 X50.5697 Y70.2036
 X50.6211 Y70.2919
 X50.6934 Y70.3642
G0 Z25.0000
 X51.1000 Y67.2329
G1 Z-6.0000
 Y68.1534
 X50.6140 Y66.2824
 X50.6845 Y66.3565
 X50.5548 Y66.1747
 X50.6140 Y66.2824
 X51.1000 Y66.7933
 Y69.2067
 X50.6140 Y69.7176
 X50.5548 Y69.8252
 X50.5300 Y69.9244
G0 Z25.0000
 X50.5593 Y65.8142
G1 Z-6.0000
 X50.5320 Y65.9127
 X50.6934 Y65.6358
 X50.6211 Y65.7081
 X50.5262 Y65.9533
 X50.5249 Y66.0556
 X51.3565 Y65.6845
 X51.2824 Y65.6140
 X51.1929 Y65.5647
 X51.1748 Y65.5548
 X51.0555 Y65.5249
 X50.9327 Y65.5265
 X50.8142 Y65.5593
 X50.7259 Y65.6107
 X50.7080 Y65.6211
 X50.6211 Y65.7081
 X50.5697 Y65.7964
 X50.5593 Y65.8142
 X50.5265 Y65.9327
 X50.5249 Y66.0555
 X50.5498 Y66.1547
 X50.5548 Y66.1748
 X50.6040 Y66.2643
G0 Z25.0000
 X50.6211 Y55.2919
G1 Z-6.0000
 X50.6934 Y55.3642
 X50.5265 Y55.0673
 X50.5537 Y55.1659
 X50.6040 Y54.7357
 X50.5548 Y54.8252
 X50.5249 Y54.9445
 X50.5252 Y54.9651
 X50.5265 Y55.0673
 X50.5593 Y55.1858
 X50.5697 Y55.2036
 X50.6211 Y55.2920
 X50.7080 Y55.3789
 X50.7964 Y55.4303
 X50.8142 Y55.4407
 X50.9327 Y55.4735
 X51.0555 Y55.4751
 X51.1547 Y55.4502
 X51.1748 Y55.4452
 X51.2643 Y55.3960
G0 Z25.0000
 X51.1000 Y52.2329
G1 Z-6.0000
 Y53.1534
G0 Z25.0000
 X50.5593 Y50.8142
G1 Z-6.0000
 X50.5320 Y50.9127
 X50.5548 Y51.1747
 X50.6140 Y51.2824
 X50.6845 Y51.3565
 X51.1000 Y51.7933
 Y54.2067
 X50.6845 Y54.6435
 X50.6140 Y54.7176
 X50.5548 Y54.8252
 X50.5300 Y54.9244
G0 Z25.0000
 X50.5262 Y50.9533
G1 Z-6.0000
 X50.5249 Y51.0556
 X50.6934 Y50.6358
 X50.6211 Y50.7081
 X50.8143 Y50.5592
 X50.7080 Y50.6211
 X50.6211 Y50.7080
 X50.5697 Y50.7964
 X50.5593 Y50.8142
 X50.5265 Y50.9327
 X50.5249 Y51.0555
 X50.5498 Y51.1547
 X50.5548 Y51.1748
 X50.6040 Y51.2643
G0 Z25.0000
 X193.3287 Y51.1000
G1 Z-6.0000
 X190.0000
 X60.0000
 X51.7933
 X51.3565 Y50.6845
 X51.2824 Y50.6140
 X51.1929 Y50.5647
 X51.1748 Y50.5548
 X51.0555 Y50.5249
 X50.9327 Y50.5265
 X50.8142 Y50.5593
 X50.7259 Y50.6107
G0 Z25.0000
 X50.6211 Y40.2919
G1 Z-6.0000
 X50.6934 Y40.3642
 X50.5265 Y40.0673
 X50.5537 Y40.1659
 X50.6040 Y39.7357
 X50.5548 Y39.8252
 X50.5249 Y39.9445
 X50.5252 Y39.9651
 X50.5265 Y40.0673
 X50.5593 Y40.1858
 X50.5697 Y40.2036
 X50.6211 Y40.2920
 X50.7080 Y40.3789
 X50.7964 Y40.4303
 X50.8142 Y40.4407
 X50.9327 Y40.4735
 X51.0555 Y40.4751
 X51.1547 Y40.4502
 X51.1748 Y40.4452
 X51.2643 Y40.3960
G0 Z25.0000
 X51.1000 Y37.2329
G1 Z-6.0000
 Y38.1534
G0 Z25.0000
 X50.8143 Y35.5592
G1 Z-6.0000
 X50.7259 Y35.6107
G0 Z25.0000
 X50.8341 Y25.4463
G1 Z-6.0000
 X50.9327 Y25.4735
G0 Z25.0000
 X50.6934 Y35.6358
G1 Z-6.0000
 X50.6211 Y35.7081
G0 Z25.0000
 X51.1000 Y22.2329
G1 Z-6.0000
 Y23.1534
G0 Z25.0000
 X50.8143 Y20.5592
G1 Z-6.0000
 X50.7259 Y20.6107
 X50.6934 Y20.6358
 X50.6211 Y20.7081
G0 Z25.0000
 Y25.2919
G1 Z-6.0000
 X50.6934 Y25.3642
G0 Z25.0000
 X50.5548 Y36.1747
G1 Z-6.0000
 X50.6140 Y36.2824
 X50.6845 Y36.3565
 X51.1000 Y36.7933
 Y39.2067
 X50.6845 Y39.6435
 X50.6140 Y39.7176
 X50.5548 Y39.8252
 X50.5300 Y39.9244
G0 Z25.0000
 X50.5593 Y35.8142
G1 Z-6.0000
 X50.5320 Y35.9127
G0 Z25.0000
 X193.3287 Y36.1000
G1 Z-6.0000
 X190.0000
 X60.0000
 X51.7933
 X51.3565 Y35.6845
 X51.2824 Y35.6140
 X51.1929 Y35.5647
 X51.1748 Y35.5548
 X51.0555 Y35.5249
 X50.9327 Y35.5265
 X50.8142 Y35.5593
 X50.7080 Y35.6211
 X50.6211 Y35.7080
 X50.5697 Y35.7964
 X50.5593 Y35.8142
 X50.5265 Y35.9327
G0 Z25.0000
 X50.5593 Y20.8142
G1 Z-6.0000
 X50.5320 Y20.9127
 X50.5548 Y21.1747
 X50.6040 Y21.2643
 X50.5548 Y21.1747
 X50.6140 Y21.2824
 X50.6845 Y21.3565
 X51.1000 Y21.7933
 Y24.2067
 X50.6845 Y24.6435
 X50.6140 Y24.7176
 X50.5548 Y24.8252
 X50.5300 Y24.9244
G0 Z25.0000
 X50.5262 Y35.9533
G1 Z-6.0000
 X50.5249 Y36.0556
G0 Z25.0000
 X50.6040 Y24.7357
G1 Z-6.0000
 X50.5548 Y24.8252
 X50.5249 Y24.9445
 X50.5265 Y25.0673
 X50.5537 Y25.1659
 X50.5593 Y25.1858
 X50.5697 Y25.2036
 X50.6211 Y25.2920
 X50.7080 Y25.3789
 X50.7964 Y25.4303
 X50.8142 Y25.4407
 X50.9327 Y25.4735
 X51.0555 Y25.4751
 X51.1547 Y25.4502
 X50.5252 Y24.9651
 X50.5265 Y25.0674
G0 Z25.0000
 Y35.9326
G1 Z-6.0000
 X50.5249 Y36.0555
 X50.5498 Y36.1547
 X50.5548 Y36.1748
 X50.6040 Y36.2643
G0 Z25.0000
 X193.3287 Y21.1000
G1 Z-6.0000
 X190.0000
 X60.0000
 X51.7933
 X51.3565 Y20.6845
 X51.2824 Y20.6140
 X51.1748 Y20.5548
 X51.0756 Y20.5300
 X51.0555 Y20.5249
 X50.9327 Y20.5265
 X50.8142 Y20.5593
 X50.7080 Y20.6211
 X50.6211 Y20.7080
 X50.5697 Y20.7964
 X50.5593 Y20.8142
 X50.5265 Y20.9327
 X50.5262 Y20.9533
 X50.5249 Y21.0555
 X50.5498 Y21.1547
G0 Z25.0000
 X199.4594 Y115.1288
G1 Z-8.0000
 X199.4763 Y115.0064
G0 Z25.0000
 X199.4545 Y111.1389
G1 Z-8.0000
 X199.4763 Y110.9935
G0 Z25.0000
 Y115.0065
G1 Z-8.0000
 X199.4545 Y114.8611
G0 Z25.0000
 X199.4594 Y100.1288
G1 Z-8.0000
 X199.4763 Y100.0064
G0 Z25.0000
 X199.4545 Y96.1389
G1 Z-8.0000
 X199.4763 Y95.9935
G0 Z25.0000
 Y100.0065
G1 Z-8.0000
 X199.4545 Y99.8611
G0 Z25.0000
 X199.4076 Y115.2481
G1 Z-8.0000
 X199.4594 Y115.1288
G0 Z25.0000
 X199.3942 Y111.2656
G1 Z-8.0000
 X199.4546 Y111.1389
 X199.4763 Y110.9935
G0 Z25.0000
 X199.4546 Y114.8612
G1 Z-8.0000
 X199.3942 Y114.7344
G0 Z25.0000
 X199.4594 Y110.8712
G1 Z-8.0000
 X199.4076 Y110.7519
G0 Z25.0000
 Y100.2481
G1 Z-8.0000
 X199.4594 Y100.1288
G0 Z25.0000
 X199.4076 Y110.7520
G1 Z-8.0000
 X199.3255 Y110.6511
G0 Z25.0000
 X199.4546 Y99.8612
G1 Z-8.0000
 X199.3942 Y99.7344
G0 Z25.0000
 Y96.2656
G1 Z-8.0000
 X199.4546 Y96.1389
 X199.4763 Y95.9935
G0 Z25.0000
 X199.2192 Y115.4238
G1 Z-8.0000
 X199.3255 Y115.3489
 X199.4076 Y115.2480
 X199.0966 Y115.4672
 X199.2192 Y115.4238
 X199.3255 Y115.3488
 X198.9669 Y115.4760
 X199.0967 Y115.4672
 X199.2193 Y115.4238
 X198.9000 Y113.4602
 Y112.2329
G0 Z25.0000
 X199.3942 Y114.7344
G1 Z-8.0000
 X199.2518 Y114.5789
 X198.9000 Y114.1944
 Y111.8056
 X199.2518 Y111.4211
 X199.3942 Y111.2656
 X199.4763 Y110.9936
 X199.4594 Y110.8712
 X199.4076 Y110.7520
 X199.3255 Y110.6511
 X199.2192 Y110.5762
 X199.2193
 X199.0966 Y110.5328
 X199.2193 Y110.5762
 X199.0967 Y110.5328
 X198.9669 Y110.5240
G0 Z25.0000
 X199.0966 Y100.4672
G1 Z-8.0000
 X199.2193 Y100.4238
 X199.2192
 X199.3255 Y100.3488
 X198.9669 Y100.4760
 X199.0967 Y100.4672
 X199.2192 Y100.4238
 X199.3255 Y100.3489
 X199.4076 Y100.2480
 X198.9000 Y98.4602
 Y97.2329
G0 Z25.0000
 X199.3942 Y99.7344
G1 Z-8.0000
 X199.2518 Y99.5789
 X198.9000 Y99.1944
 Y96.8056
 X199.2518 Y96.4211
 X199.3942 Y96.2656
 X199.4594 Y95.8712
 X199.4076 Y95.7519
 Y95.7520
 X199.3255 Y95.6511
 X199.4763 Y95.9936
 X199.4594 Y95.8712
 X199.4076 Y95.7520
 X199.3255 Y95.6511
 X199.2192 Y95.5762
 X199.2193
 X199.0966 Y95.5328
 X199.2193 Y95.5762
 X199.0967 Y95.5328
 X198.9669 Y95.5240
G0 Z25.0000
 X199.0966 Y85.4672
G1 Z-8.0000
 X199.2193 Y85.4238
 X199.2192
 X199.3255 Y85.3488
 X198.9669 Y85.4760
 X199.0967 Y85.4672
 X199.2192 Y85.4238
 X199.3255 Y85.3489
 X199.4076 Y85.2480
 Y85.2481
 X199.4594 Y85.1288
 X199.4763 Y85.0064
 Y85.0065
 X199.4545 Y84.8611
 X199.4546 Y84.8612
 X199.3942 Y84.7344
 X198.9000 Y83.4602
 Y82.2329
G0 Z25.0000
 X199.3942 Y84.7344
G1 Z-8.0000
 X199.2518 Y84.5789
 X198.9000 Y84.1944
 Y81.8056
 X199.2518 Y81.4211
 X199.3942 Y81.2656
 X199.4545 Y81.1389
 X199.4763 Y80.9935
 X199.3942 Y81.2656
 X199.4546 Y81.1389
 X199.4763 Y80.9935
 X199.4594 Y80.8712
 X199.4076 Y80.7519
 Y80.7520
 X199.3255 Y80.6511
 X199.4763 Y80.9936
 X199.4594 Y80.8712
 X199.4076 Y80.7520
 X199.3255 Y80.6511
 X199.2192 Y80.5762
 X199.2193
 X199.0966 Y80.5328
 X199.2193 Y80.5762
 X199.0967 Y80.5328
 X198.9669 Y80.5240
G0 Z25.0000
 X199.2192 Y70.4238
G1 Z-8.0000
 X199.3255 Y70.3489
 X199.4076 Y70.2480
 X199.0966 Y70.4672
 X199.2192 Y70.4238
 X199.3255 Y70.3488
 X198.9669 Y70.4760
 X199.0967 Y70.4672
 X199.2193 Y70.4238
 X199.4076 Y70.2481
 X199.4594 Y70.1288
 X199.4763 Y70.0064
 Y70.0065
 X199.4545 Y69.8611
 X199.4546 Y69.8612
 X199.3942 Y69.7344
 X198.9000 Y68.4602
 Y67.2329
G0 Z25.0000
 X199.3942 Y69.7344
G1 Z-8.0000
 X199.2518 Y69.5789
 X198.9000 Y69.1944
 Y66.8056
 X199.2518 Y66.4211
 X199.3942 Y66.2656
 X199.4545 Y66.1389
 X199.4763 Y65.9935
 X199.3942 Y66.2656
 X199.4546 Y66.1389
 X199.4763 Y65.9935
 X199.4594 Y65.8712
 X199.4076 Y65.7519
 Y65.7520
 X199.3255 Y65.6511
 X199.4763 Y65.9936
 X199.4594 Y65.8712
 X199.4076 Y65.7520
 X199.3255 Y65.6511
 X199.2192 Y65.5762
 X199.2193
 X199.0966 Y65.5328
 X199.2193 Y65.5762
 X199.0967 Y65.5328
 X198.9669 Y65.5240
G0 Z25.0000
 Y55.4760
G1 Z-8.0000
 X199.0967 Y55.4672
 X199.0966
 X199.2193 Y55.4238
 X199.2192
 X199.3255 Y55.3489
 X199.4076 Y55.2480
 X198.9669 Y55.4760
 X199.0967 Y55.4672
 X199.2192 Y55.4238
 X199.3255 Y55.3489
 X199.4076 Y55.2480
 X199.4594 Y55.1288
 X199.4763 Y55.0064
 Y55.0065
 X199.4545 Y54.8611
 X199.4546 Y54.8612
 X199.3942 Y54.7344
 X198.9000 Y53.4602
 Y52.2329
G0 Z25.0000
 X199.3942 Y54.7344
G1 Z-8.0000
 X199.2518 Y54.5789
 X198.9000 Y54.1944
 Y51.8056
 X199.2518 Y51.4211
 X199.3942 Y51.2656
 X199.4545 Y51.1389
 X199.4763 Y50.9935
 X199.3942 Y51.2656
 X199.4546 Y51.1389
 X199.4763 Y50.9935
 X199.4594 Y50.8712
 X199.4076 Y50.7519
 X199.4763 Y50.9936
 X199.4594 Y50.8712
 X199.4076 Y50.7520
 X199.3255 Y50.6511
 X199.2192 Y50.5762
G0 Z25.0000
 X199.3255 Y40.3489
G1 Z-8.0000
 X199.4076 Y40.2480
G0 Z25.0000
 X199.2193 Y50.5762
G1 Z-8.0000
 X199.0966 Y50.5328
 X199.2193 Y50.5762
 X199.0967 Y50.5328
 X198.9669 Y50.5240
G0 Z25.0000
 Y40.4760
G1 Z-8.0000
 X199.0967 Y40.4672
 X199.0966
 X199.2193 Y40.4238
 X199.2192
 X199.3255 Y40.3489
 X199.4594 Y40.1288
 X199.4763 Y40.0064
 Y40.0065
 X199.4545 Y39.8611
G0 Z25.0000
 Y36.1389
G1 Z-8.0000
 X199.4763 Y35.9935
G0 Z25.0000
 X199.4594 Y25.1288
G1 Z-8.0000
 X199.4763 Y25.0064
 Y25.0065
 X199.4545 Y24.8611
G0 Z25.0000
 Y21.1389
G1 Z-8.0000
 X199.4763 Y20.9935
G0 Z25.0000
 X199.4546 Y39.8612
G1 Z-8.0000
 X199.3942 Y39.7344
 X198.9669 Y40.4760
 X199.0967 Y40.4672
 X199.2192 Y40.4238
 X199.3255 Y40.3489
 X199.4076 Y40.2480
 X199.4594 Y40.1288
G0 Z25.0000
 Y35.8712
G1 Z-8.0000
 X199.4076 Y35.7519
 X199.3942 Y36.2656
 X199.4546 Y36.1389
 X199.4763 Y35.9935
 Y35.9936
 X199.4594 Y35.8712
 X199.4076 Y35.7520
 X199.3255 Y35.6511
G0 Z25.0000
 X199.4546 Y24.8612
G1 Z-8.0000
 X199.3942 Y24.7344
G0 Z25.0000
 X199.4594 Y20.8712
G1 Z-8.0000
 X199.4076 Y20.7519
 X199.3942 Y21.2656
 X199.4546 Y21.1389
 X199.4763 Y20.9935
G0 Z25.0000
 X198.9000 Y38.4602
G1 Z-8.0000
 Y37.2329
G0 Z25.0000
 X199.3942 Y39.7344
G1 Z-8.0000
 X199.2518 Y39.5789
 X198.9000 Y39.1944
 Y36.8056
 X199.2518 Y36.4211
 X199.3942 Y36.2656
 X199.3255 Y35.6511
 X199.2192 Y35.5762
 X199.2193
 X199.0966 Y35.5328
 X199.2193 Y35.5762
 X199.0967 Y35.5328
 X198.9669 Y35.5240
G0 Z25.0000
 X199.2192 Y25.4238
G1 Z-8.0000
 X199.3255 Y25.3489
 X199.4076 Y25.2480
 X199.4594 Y25.1288
 X199.0966 Y25.4672
 X199.2192 Y25.4238
 X199.3255 Y25.3489
 X199.4076 Y25.2480
 X198.9000 Y23.4602
 Y22.2329
 X199.4763 Y20.9936
 X199.4594 Y20.8712
 X199.4076 Y20.7520
 X199.3255 Y20.6511
G0 Z25.0000
 X199.3942 Y24.7344
G1 Z-8.0000
 X199.2518 Y24.5789
 X198.9000 Y24.1944
 Y21.8056
 X199.2518 Y21.4211
 X199.3942 Y21.2656
 X199.3255 Y20.6511
 X199.2192 Y20.5762
 X199.2193
 X199.0966 Y20.5328
G0 Z25.0000
 X198.8397 Y115.4494
G1 Z-8.0000
 X198.9670 Y115.4760
 X199.0967 Y115.4672
 X198.8397 Y115.4494
 X198.9670 Y115.4760
G0 Z25.0000
 X198.8397 Y110.5506
G1 Z-8.0000
 X198.7243 Y110.6106
G0 Z25.0000
 X198.8397 Y100.4494
G1 Z-8.0000
 X198.9670 Y100.4760
 X199.0967 Y100.4672
G0 Z25.0000
 X198.9670 Y110.5240
G1 Z-8.0000
 X198.8397 Y110.5506
G0 Z25.0000
 Y100.4494
G1 Z-8.0000
 X198.9670 Y100.4760
G0 Z25.0000
 X198.8397 Y95.5506
G1 Z-8.0000
 X198.7243 Y95.6106
 X198.9670 Y95.5240
 X198.8397 Y95.5506
G0 Z25.0000
 Y85.4494
G1 Z-8.0000
 X198.9670 Y85.4760
 X199.0967 Y85.4672
 X198.8397 Y85.4494
 X198.9670 Y85.4760
G0 Z25.0000
 X198.8397 Y80.5506
G1 Z-8.0000
 X198.7243 Y80.6106
 X198.9670 Y80.5240
 X198.8397 Y80.5506
G0 Z25.0000
 Y70.4494
G1 Z-8.0000
 X198.9670 Y70.4760
 X199.0967 Y70.4672
 X198.8397 Y70.4494
 X198.9670 Y70.4760
G0 Z25.0000
 X198.8397 Y65.5506
G1 Z-8.0000
 X198.7243 Y65.6106
 X198.9670 Y65.5240
 X198.8397 Y65.5506
G0 Z25.0000
 X198.7243 Y55.3894
G1 Z-8.0000
 X198.8397 Y55.4494
 X198.9670 Y55.4760
G0 Z25.0000
 Y50.5240
G1 Z-8.0000
 X198.8397 Y50.5506
 X198.7243 Y50.6106
 X198.9670 Y50.5240
 X198.8397 Y50.5506
G0 Z25.0000
 X198.7243 Y40.3894
G1 Z-8.0000
 X198.8397 Y40.4494
 X198.9670 Y40.4760
G0 Z25.0000
 Y35.5240
G1 Z-8.0000
 X198.8397 Y35.5506
 X198.7243 Y35.6106
 X198.9670 Y35.5240
 X198.8397 Y35.5506
G0 Z25.0000
 X198.9669 Y25.4760
G1 Z-8.0000
 X199.0967 Y25.4672
 X199.2193 Y25.4238
 X198.9669 Y25.4760
 X199.0967 Y25.4672
 X198.7243 Y25.3894
 X198.8397 Y25.4494
 X198.9670 Y25.4760
G0 Z25.0000
 X199.2193 Y20.5762
G1 Z-8.0000
 X199.0967 Y20.5328
 X198.9669 Y20.5240
 X198.9670
 X198.8397 Y20.5506
 X198.9670 Y20.5240
 X198.8397 Y20.5506
 X198.7243 Y20.6106
G0 Z25.0000
 X97.1429 Y114.9000
G1 Z-8.0000
 X190.0000
G0 Z25.0000
 Y111.1000
G1 Z-8.0000
 X97.1429
G0 Z25.0000
 Y99.9000
G1 Z-8.0000
 X190.0000
G0 Z25.0000
 Y96.1000
G1 Z-8.0000
 X97.1429
G0 Z25.0000
 Y84.9000
G1 Z-8.0000
 X190.0000
G0 Z25.0000
 Y81.1000
G1 Z-8.0000
 X97.1429
G0 Z25.0000
 Y69.9000
G1 Z-8.0000
 X190.0000
G0 Z25.0000
 Y66.1000
G1 Z-8.0000
 X97.1429
G0 Z25.0000
 Y54.9000
G1 Z-8.0000
 X190.0000
G0 Z25.0000
 Y51.1000
G1 Z-8.0000
 X97.1429
G0 Z25.0000
 Y39.9000
G1 Z-8.0000
 X190.0000
G0 Z25.0000
 Y36.1000
G1 Z-8.0000
 X97.1429
G0 Z25.0000
 X190.0000 Y21.1000
G1 Z-8.0000
 X97.1429
G0 Z25.0000
 Y24.9000
G1 Z-8.0000
 X190.0000
G0 Z25.0000
 X52.2329 Y114.9000
G1 Z-8.0000
 X198.2017
 X198.7243 Y115.3894
 X198.8397 Y115.4494
G0 Z25.0000
 X197.7671 Y111.1000
G1 Z-8.0000
 X52.2329
G0 Z25.0000
 Y99.9000
G1 Z-8.0000
 X198.2017
 X198.7243 Y100.3894
 X198.8397 Y100.4494
G0 Z25.0000
 X197.7671 Y96.1000
G1 Z-8.0000
 X52.2329
G0 Z25.0000
 Y84.9000
G1 Z-8.0000
 X198.2017
 X198.7243 Y85.3894
 X198.8397 Y85.4494
G0 Z25.0000
 X197.7671 Y81.1000
G1 Z-8.0000
 X52.2329
G0 Z25.0000
 Y69.9000
G1 Z-8.0000
 X198.2017
 X198.7243 Y70.3894
 X198.8397 Y70.4494
G0 Z25.0000
 X197.7671 Y66.1000
G1 Z-8.0000
 X52.2329
G0 Z25.0000
 X197.7671 Y51.1000
G1 Z-8.0000
 X52.2329
G0 Z25.0000
 Y54.9000
G1 Z-8.0000
 X198.2017
 X198.7243 Y55.3894
 X198.8397 Y55.4494
G0 Z25.0000
 X52.2329 Y39.9000
G1 Z-8.0000
 X198.2017
 X198.7243 Y40.3894
 X198.8397 Y40.4494
G0 Z25.0000
 X197.7671 Y36.1000
G1 Z-8.0000
 X52.2329
G0 Z25.0000
 Y24.9000
G1 Z-8.0000
 X198.2017
 X198.7243 Y25.3894
 X198.8397 Y25.4494
G0 Z25.0000
 X197.7671 Y21.1000
G1 Z-8.0000
 X52.2329
G0 Z25.0000
 Y114.9000
G1 Z-8.0000
 X190.0000
 X198.2017
 X198.7244 Y115.3895
G0 Z25.0000
 X198.8397 Y110.5506
G1 Z-8.0000
 X198.7243 Y110.6106
 X198.5822 Y110.7437
 X198.2017 Y111.1000
 X190.0000
 X52.2329
G0 Z25.0000
 Y99.9000
G1 Z-8.0000
 X190.0000
 X198.2017
 X198.7244 Y100.3895
G0 Z25.0000
 X198.8397 Y95.5506
G1 Z-8.0000
 X198.7243 Y95.6106
 X198.5822 Y95.7437
 X198.2017 Y96.1000
 X190.0000
 X52.2329
G0 Z25.0000
 Y84.9000
G1 Z-8.0000
 X190.0000
 X198.2017
 X198.7244 Y85.3895
G0 Z25.0000
 X198.8397 Y80.5506
G1 Z-8.0000
 X198.7243 Y80.6106
 X198.5822 Y80.7437
 X198.2017 Y81.1000
 X190.0000
 X52.2329
G0 Z25.0000
 Y69.9000
G1 Z-8.0000
 X190.0000
 X198.2017
 X198.7244 Y70.3895
G0 Z25.0000
 X198.8397 Y65.5506
G1 Z-8.0000
 X198.7243 Y65.6106
 X198.5822 Y65.7437
 X198.2017 Y66.1000
 X190.0000
 X52.2329
G0 Z25.0000
 Y54.9000
G1 Z-8.0000
 X190.0000
 X198.2017
 X198.7244 Y55.3895
G0 Z25.0000
 Y50.6105
G1 Z-8.0000
 X198.5822 Y50.7437
 X198.2017 Y51.1000
 X190.0000
 X52.2329
G0 Z25.0000
 Y39.9000
G1 Z-8.0000
 X190.0000
 X198.2017
 X198.7244 Y40.3895
G0 Z25.0000
 Y35.6105
G1 Z-8.0000
 X198.5822 Y35.7437
 X198.2017 Y36.1000
 X190.0000
 X52.2329
G0 Z25.0000
 X198.7244 Y20.6105
G1 Z-8.0000
 X198.5822 Y20.7437
 X198.2017 Y21.1000
 X190.0000
 X52.2329
G0 Z25.0000
 Y24.9000
G1 Z-8.0000
 X190.0000
 X198.2017
 X198.7244 Y25.3895
G0 Z25.0000
 X54.4521 Y114.9000
G1 Z-8.0000
 X60.0000
G0 Z25.0000
 Y111.1000
G1 Z-8.0000
 X54.4521
G0 Z25.0000
 Y99.9000
G1 Z-8.0000
 X60.0000
G0 Z25.0000
 Y96.1000
G1 Z-8.0000
 X54.4521
G0 Z25.0000
 Y84.9000
G1 Z-8.0000
 X60.0000
G0 Z25.0000
 Y81.1000
G1 Z-8.0000
 X54.4521
G0 Z25.0000
 Y69.9000
G1 Z-8.0000
 X60.0000
G0 Z25.0000
 Y66.1000
G1 Z-8.0000
 X54.4521
G0 Z25.0000
 Y54.9000
G1 Z-8.0000
 X60.0000
G0 Z25.0000
 Y51.1000
G1 Z-8.0000
 X54.4521
G0 Z25.0000
 Y39.9000
G1 Z-8.0000
 X60.0000
G0 Z25.0000
 Y36.1000
G1 Z-8.0000
 X54.4521
G0 Z25.0000
 Y24.9000
G1 Z-8.0000
 X60.0000
G0 Z25.0000
 X51.2824 Y115.3860
G1 Z-8.0000
 X51.7933 Y114.9000
 X60.0000
 X190.0000
 X195.5479
G0 Z25.0000
 X51.2824 Y115.3860
G1 Z-8.0000
 X51.4156 Y115.2593
G0 Z25.0000
 X60.0000 Y21.1000
G1 Z-8.0000
 X54.4521
G0 Z25.0000
 X51.2824 Y100.3860
G1 Z-8.0000
 X51.7933 Y99.9000
 X60.0000
 X190.0000
 X195.5479
G0 Z25.0000
 X51.2824 Y100.3860
G1 Z-8.0000
 X51.4156 Y100.2593
G0 Z25.0000
 X51.2824 Y85.3860
G1 Z-8.0000
 X51.7933 Y84.9000
 X60.0000
 X190.0000
 X195.5479
G0 Z25.0000
 X51.2824 Y85.3860
G1 Z-8.0000
 X51.4156 Y85.2593
G0 Z25.0000
 X51.2824 Y70.3860
G1 Z-8.0000
 X51.7933 Y69.9000
 X60.0000
 X190.0000
 X195.5479
G0 Z25.0000
 X51.2824 Y70.3860
G1 Z-8.0000
 X51.4156 Y70.2593
G0 Z25.0000
 X51.2824 Y55.3860
G1 Z-8.0000
 X51.4156 Y55.2593
G0 Z25.0000
 X195.5479 Y51.1000
G1 Z-8.0000
 X190.0000
 X60.0000
 X51.7933
 X51.2824 Y50.6140
G0 Z25.0000
 Y40.3860
G1 Z-8.0000
 X51.7933 Y39.9000
 X60.0000
 X190.0000
 X195.5479
G0 Z25.0000
 Y36.1000
G1 Z-8.0000
 X190.0000
 X60.0000
 X51.7933
 X51.2824 Y35.6140
G0 Z25.0000
 Y25.3860
G1 Z-8.0000
 X51.4156 Y25.2593
G0 Z25.0000
 X195.5479 Y21.1000
G1 Z-8.0000
 X190.0000
 X60.0000
 X51.7933
 X51.2824 Y20.6140
G0 Z25.0000
 X50.9326 Y115.4735
G1 Z-8.0000
 X51.0555 Y115.4751
 X51.1748 Y115.4452
 X51.2825 Y115.3860
G0 Z25.0000
 X195.5479 Y111.1000
G1 Z-8.0000
 X190.0000
 X60.0000
 X51.7933
 X51.2824 Y110.6140
 X51.1747 Y110.5548
 X51.4156 Y110.7407
 X51.2824 Y110.6140
 X51.1748 Y110.5548
 X51.0555 Y110.5249
 X51.0556
 X50.9326 Y110.5265
G0 Z25.0000
 Y100.4735
G1 Z-8.0000
 X51.0555 Y100.4751
 X51.1748 Y100.4452
 X51.2825 Y100.3860
G0 Z25.0000
 X195.5479 Y96.1000
G1 Z-8.0000
 X190.0000
 X60.0000
 X51.7933
 X51.2824 Y95.6140
 X51.1747 Y95.5548
G0 Z25.0000
 X50.8142 Y115.4407
G1 Z-8.0000
 X50.9327 Y115.4735
 X50.8142 Y115.4407
 X50.9327 Y115.4735
 X51.0555 Y115.4751
 X51.1748 Y115.4452
G0 Z25.0000
 X50.8142 Y100.4407
G1 Z-8.0000
 X50.9327 Y100.4735
 X50.8142 Y100.4407
 X50.9327 Y100.4735
 X51.0555 Y100.4751
 X51.1748 Y100.4452
G0 Z25.0000
 X50.9327 Y110.5265
G1 Z-8.0000
 X50.8142 Y110.5593
G0 Z25.0000
 X50.9327 Y95.5265
G1 Z-8.0000
 X50.8142 Y95.5593
 X51.4156 Y95.7407
 X51.2824 Y95.6140
 X51.1748 Y95.5548
 X51.0555 Y95.5249
 X51.0556
 X50.9326 Y95.5265
G0 Z25.0000
 X50.8142 Y85.4407
G1 Z-8.0000
 X50.9327 Y85.4735
 X50.8142 Y85.4407
 X50.9327 Y85.4735
 X51.0555 Y85.4751
 X51.1748 Y85.4452
 X50.9326 Y85.4735
 X51.0555 Y85.4751
 X51.1748 Y85.4452
 X51.2825 Y85.3860
G0 Z25.0000
 X195.5479 Y81.1000
G1 Z-8.0000
 X190.0000
 X60.0000
 X51.7933
 X51.2824 Y80.6140
 X51.1747 Y80.5548
 X51.4156 Y80.7407
 X51.2824 Y80.6140
 X51.1748 Y80.5548
 X51.0555 Y80.5249
 X50.9327 Y80.5265
 X50.8142 Y80.5593
 X51.0556 Y80.5249
 X50.9326 Y80.5265
G0 Z25.0000
 X50.8142 Y70.4407
G1 Z-8.0000
 X50.9327 Y70.4735
 X50.9326
 X51.0555 Y70.4751
 X51.1748 Y70.4452
 X51.2825 Y70.3860
 X50.8142 Y70.4407
 X50.9327 Y70.4735
 X51.0555 Y70.4751
 X51.1748 Y70.4452
G0 Z25.0000
 X195.5479 Y66.1000
G1 Z-8.0000
 X190.0000
 X60.0000
 X51.7933
 X51.2824 Y65.6140
 X51.1747 Y65.5548
 X50.9327 Y65.5265
 X50.8142 Y65.5593
 X51.4156 Y65.7407
 X51.2824 Y65.6140
 X51.1748 Y65.5548
 X51.0555 Y65.5249
 X51.0556
 X50.9326 Y65.5265
G0 Z25.0000
 Y55.4735
G1 Z-8.0000
 X51.0556 Y55.4751
 X51.1747 Y55.4452
 X51.2824 Y55.3860
 X51.7933 Y54.9000
 X60.0000
 X190.0000
 X195.5479
G0 Z25.0000
 X51.1747 Y55.4452
G1 Z-8.0000
 X51.2825 Y55.3860
 X50.8142 Y55.4407
 X50.9327 Y55.4735
G0 Z25.0000
 X51.4156 Y50.7407
G1 Z-8.0000
 X51.2824 Y50.6140
 X51.1747 Y50.5548
 X50.9327 Y50.5265
 X50.8142 Y50.5593
 X51.1748 Y50.5548
 X51.0555 Y50.5249
 X51.0556
 X50.9326 Y50.5265
G0 Z25.0000
 Y40.4735
G1 Z-8.0000
 X51.0556 Y40.4751
 X51.1747 Y40.4452
 X51.2824 Y40.3860
 X51.4156 Y40.2593
 X51.1747 Y40.4452
 X51.2825 Y40.3860
 X50.8142 Y40.4407
 X50.9327 Y40.4735
G0 Z25.0000
 X51.4156 Y35.7407
G1 Z-8.0000
 X51.2824 Y35.6140
 X51.1747 Y35.5548
 X51.1748
 X51.0555 Y35.5249
 X51.0556
 X50.9326 Y35.5265
G0 Z25.0000
 X51.1747 Y25.4452
G1 Z-8.0000
 X51.2824 Y25.3860
 X51.7933 Y24.9000
 X60.0000
 X190.0000
 X195.5479
G0 Z25.0000
 X50.9326 Y25.4735
G1 Z-8.0000
 X51.0555 Y25.4751
 X51.1748 Y25.4452
 X51.2825 Y25.3860
G0 Z25.0000
 X51.4156 Y20.7407
G1 Z-8.0000
 X51.2824 Y20.6140
 X51.1747 Y20.5548
 X51.1748
 X51.0555 Y20.5249
 X51.0556
 X50.9326 Y20.5265
G0 Z25.0000
 X50.9327 Y35.5265
G1 Z-8.0000
 X50.8142 Y35.5593
G0 Z25.0000
 X50.9327 Y20.5265
G1 Z-8.0000
 X50.8142 Y20.5593
G0 Z25.0000
 X50.7080 Y115.3788
G1 Z-8.0000
 X50.8143 Y115.4408
 X50.5592 Y115.1857
 X50.6212 Y115.2920
G0 Z25.0000
 X51.1000 Y112.2329
G1 Z-8.0000
 Y113.4602
G0 Z25.0000
 X50.6140 Y111.2824
G1 Z-8.0000
 X51.1000 Y111.7933
 Y114.2067
 X50.6140 Y114.7176
G0 Z25.0000
 X50.6212 Y110.7080
G1 Z-8.0000
 X50.5592 Y110.8143
 X50.8143 Y110.5592
 X50.7080 Y110.6212
 X51.0556 Y110.5249
 X50.9327 Y110.5265
 X50.8142 Y110.5593
 X50.7080 Y110.6212
G0 Z25.0000
 Y100.3788
G1 Z-8.0000
 X50.8143 Y100.4408
G0 Z25.0000
 X51.1000 Y97.2329
G1 Z-8.0000
 Y98.4602
G0 Z25.0000
 X50.6140 Y96.2824
G1 Z-8.0000
 X51.1000 Y96.7933
 Y99.2067
 X50.6140 Y99.7176
G0 Z25.0000
 X50.5548 Y111.1747
G1 Z-8.0000
 X50.6140 Y111.2824
 X50.7407 Y111.4156
G0 Z25.0000
 X50.5249 Y114.9444
G1 Z-8.0000
 X50.5265 Y115.0673
 X50.5593 Y115.1858
 X50.6211 Y115.2919
 X50.7081 Y115.3789
G0 Z25.0000
 X50.5548 Y111.1747
G1 Z-8.0000
 X50.6140 Y111.2825
 X50.5593 Y110.8142
 X50.5265 Y110.9327
 X50.7081 Y110.6211
 X50.6211 Y110.7081
 X50.5593 Y110.8142
 X50.5265 Y110.9327
G0 Z25.0000
 X50.5592 Y100.1857
G1 Z-8.0000
 X50.6212 Y100.2920
G0 Z25.0000
 X50.5548 Y96.1747
G1 Z-8.0000
 X50.6140 Y96.2824
 X50.7407 Y96.4156
 X50.5548 Y96.1747
 X50.6140 Y96.2825
 X50.5593 Y95.8142
 X50.5265 Y95.9327
 X50.6212 Y95.7080
 X50.5593 Y95.8142
 X50.5265 Y95.9327
G0 Z25.0000
 X50.7407 Y114.5844
G1 Z-8.0000
 X50.6140 Y114.7176
 X50.5548 Y114.8252
 X50.5249 Y114.9445
 X50.5265 Y115.0673
 X50.5593 Y115.1858
 X50.6140 Y114.7175
 X50.5548 Y114.8252
 X50.5249 Y114.9445
G0 Z25.0000
 X50.5265 Y110.9326
G1 Z-8.0000
 X50.5249 Y111.0555
 X50.5548 Y111.1748
G0 Z25.0000
 X50.5249 Y99.9444
G1 Z-8.0000
 X50.5265 Y100.0673
 X50.5593 Y100.1858
 X50.6211 Y100.2919
 X50.7081 Y100.3789
 X50.7407 Y99.5844
 X50.6140 Y99.7176
 X50.5548 Y99.8252
 X50.5249 Y99.9445
 X50.5265 Y100.0673
 X50.5593 Y100.1858
 X50.6140 Y99.7175
 X50.5548 Y99.8252
 X50.5249 Y99.9445
G0 Z25.0000
 X50.5265 Y95.9326
G1 Z-8.0000
 X50.5249 Y96.0555
 X50.5548 Y96.1748
 X50.7081 Y95.6211
 X50.6211 Y95.7081
 X50.5592 Y95.8143
 X50.8143 Y95.5592
 X50.7080 Y95.6212
 X51.0556 Y95.5249
 X50.9327 Y95.5265
 X50.8142 Y95.5593
 X50.7080 Y95.6212
G0 Z25.0000
 Y85.3788
G1 Z-8.0000
 X50.8143 Y85.4408
 X50.5592 Y85.1857
 X50.6212 Y85.2920
 X50.5249 Y84.9444
 X50.5265 Y85.0673
 X50.5593 Y85.1858
 X50.6211 Y85.2919
 X50.7081 Y85.3789
 X50.6140 Y84.7175
 X50.5548 Y84.8252
 X50.5249 Y84.9445
 X50.5265 Y85.0673
 X50.5593 Y85.1858
 X50.7407 Y84.5844
 X50.6140 Y84.7176
G0 Z25.0000
 X51.1000 Y82.2329
G1 Z-8.0000
 Y83.4602
G0 Z25.0000
 X50.6140 Y81.2824
G1 Z-8.0000
 X50.7407 Y81.4156
 X50.5548 Y81.1747
 X50.6140 Y81.2824
 X51.1000 Y81.7933
 Y84.2067
 X50.6140 Y84.7176
 X50.5548 Y84.8252
 X50.5249 Y84.9445
G0 Z25.0000
 X50.5548 Y81.1747
G1 Z-8.0000
 X50.6140 Y81.2825
 X50.5593 Y80.8142
 X50.5265 Y80.9327
 Y80.9326
 X50.5249 Y81.0555
 X50.5548 Y81.1748
 X50.6212 Y80.7080
 X50.5593 Y80.8142
 X50.5265 Y80.9327
 X50.7081 Y80.6211
 X50.6211 Y80.7081
 X50.5592 Y80.8143
 X50.8143 Y80.5592
 X50.7080 Y80.6212
 X51.0556 Y80.5249
 X50.9327 Y80.5265
 X50.8142 Y80.5593
 X50.7080 Y80.6212
G0 Z25.0000
 Y70.3788
G1 Z-8.0000
 X50.8143 Y70.4408
 X50.5592 Y70.1857
 X50.6212 Y70.2920
 X50.5249 Y69.9444
 X50.5265 Y70.0673
 X50.5593 Y70.1858
 X50.6211 Y70.2919
 X50.7081 Y70.3789
 X50.6140 Y69.7175
 X50.5548 Y69.8252
 X50.5249 Y69.9445
 X50.5265 Y70.0673
 X50.5593 Y70.1858
 X50.7407 Y69.5844
 X50.6140 Y69.7176
G0 Z25.0000
 X51.1000 Y67.2329
G1 Z-8.0000
 Y68.4602
G0 Z25.0000
 X50.6140 Y66.2824
G1 Z-8.0000
 X51.1000 Y66.7933
 Y69.2067
 X50.6140 Y69.7176
 X50.5548 Y69.8252
 X50.5249 Y69.9445
G0 Z25.0000
 X50.5548 Y66.1747
G1 Z-8.0000
 X50.6140 Y66.2824
 X50.7407 Y66.4156
 X50.5548 Y66.1747
 X50.6140 Y66.2825
 X50.5593 Y65.8142
 X50.5265 Y65.9327
 X50.6212 Y65.7080
 X50.5593 Y65.8142
 X50.5265 Y65.9327
 Y65.9326
 X50.5249 Y66.0555
 X50.5548 Y66.1748
 X50.8143 Y65.5592
 X50.7080 Y65.6212
 X50.7081 Y65.6211
 X50.6211 Y65.7081
 X50.5592 Y65.8143
 X51.0556 Y65.5249
 X50.9327 Y65.5265
 X50.8142 Y65.5593
 X50.7080 Y65.6212
G0 Z25.0000
 Y55.3788
G1 Z-8.0000
 X50.8142 Y55.4407
 X50.9327 Y55.4735
 X51.0555 Y55.4751
 X51.1748 Y55.4452
 X50.5592 Y55.1857
 X50.6211 Y55.2920
 X50.7080 Y55.3789
 X50.8143 Y55.4408
 X50.5265 Y55.0673
 X50.5593 Y55.1858
 X50.6211 Y55.2920
 X50.7081 Y55.3789
 X50.5249 Y54.9444
 X50.5265 Y55.0673
 X50.5593 Y55.1858
 X50.7407 Y54.5844
 X50.6140 Y54.7176
 Y54.7175
 X50.5548 Y54.8252
 X50.5249 Y54.9445
G0 Z25.0000
 X51.1000 Y52.2329
G1 Z-8.0000
 Y53.4602
G0 Z25.0000
 X50.6140 Y51.2824
G1 Z-8.0000
 X51.1000 Y51.7933
 Y54.2067
 X50.6140 Y54.7176
 X50.5548 Y54.8252
 X50.5249 Y54.9445
G0 Z25.0000
 X50.5548 Y51.1747
G1 Z-8.0000
 X50.6140 Y51.2824
 X50.7407 Y51.4156
 X50.5548 Y51.1747
 X50.6140 Y51.2825
 X50.5593 Y50.8142
 X50.5265 Y50.9327
 X50.5249 Y51.0556
 X50.5265 Y50.9326
 X50.5249 Y51.0555
 X50.5548 Y51.1748
 X50.7081 Y50.6211
 X50.6211 Y50.7080
 X50.5593 Y50.8142
 X50.5265 Y50.9327
 X50.7081 Y50.6211
 X50.6211 Y50.7080
 X50.5592 Y50.8143
 X51.1748 Y50.5548
 X51.0555 Y50.5249
 X50.9327 Y50.5265
 X50.8142 Y50.5593
 X50.7080 Y50.6212
G0 Z25.0000
 Y40.3788
G1 Z-8.0000
 X50.8142 Y40.4407
 X50.9327 Y40.4735
 X51.0555 Y40.4751
 X51.1748 Y40.4452
 X50.5592 Y40.1857
 X50.6211 Y40.2920
 X50.7081 Y40.3789
 X50.5265 Y40.0673
 X50.5593 Y40.1858
 X50.6211 Y40.2920
 X50.7080 Y40.3789
 X50.8143 Y40.4408
 X50.5249 Y39.9444
 X50.5265 Y40.0673
 X50.5593 Y40.1858
 X50.6140 Y39.7175
 X50.5548 Y39.8252
 X50.5249 Y39.9445
 X50.7407 Y39.5844
 X50.6140 Y39.7176
G0 Z25.0000
 X51.1000 Y37.2329
G1 Z-8.0000
 Y38.4602
G0 Z25.0000
 X51.1748 Y35.5548
G1 Z-8.0000
 X51.0555 Y35.5249
 X50.9327 Y35.5265
 X50.8142 Y35.5593
 X50.7080 Y35.6212
G0 Z25.0000
 X50.8142 Y25.4407
G1 Z-8.0000
 X50.9327 Y25.4735
 X50.7080 Y25.3788
 X50.8142 Y25.4407
 X50.9327 Y25.4735
 X51.0555 Y25.4751
 X51.1748 Y25.4452
G0 Z25.0000
 X51.1000 Y22.2329
G1 Z-8.0000
 Y23.4602
G0 Z25.0000
 X51.0556 Y20.5249
G1 Z-8.0000
 X50.9327 Y20.5265
 X50.8142 Y20.5593
 X50.7080 Y20.6212
G0 Z25.0000
 X50.6140 Y36.2824
G1 Z-8.0000
 X51.1000 Y36.7933
 Y39.2067
 X50.6140 Y39.7176
 X50.5548 Y39.8252
 X50.5249 Y39.9445
G0 Z25.0000
 X50.7081 Y20.6211
G1 Z-8.0000
 X50.6211 Y20.7081
G0 Z25.0000
 Y25.2919
G1 Z-8.0000
 X50.7080 Y25.3789
 X50.8143 Y25.4408
G0 Z25.0000
 X50.6140 Y21.2824
G1 Z-8.0000
 X51.1000 Y21.7933
 Y24.2067
 X50.6140 Y24.7176
G0 Z25.0000
 X50.5548 Y36.1747
G1 Z-8.0000
 X50.6140 Y36.2824
 X50.7407 Y36.4156
 X50.7081 Y35.6211
 X50.6211 Y35.7080
 X50.5592 Y35.8143
 X50.5548 Y36.1747
 X50.6140 Y36.2825
G0 Z25.0000
 X50.5592 Y25.1857
G1 Z-8.0000
 X50.6211 Y25.2920
 X50.7081 Y25.3789
G0 Z25.0000
 Y20.6211
G1 Z-8.0000
 X50.6211 Y20.7080
 X50.5592 Y20.8143
G0 Z25.0000
 X50.5593 Y35.8142
G1 Z-8.0000
 X50.5265 Y35.9327
G0 Z25.0000
 Y25.0673
G1 Z-8.0000
 X50.5593 Y25.1858
G0 Z25.0000
 X50.5548 Y21.1747
G1 Z-8.0000
 X50.6140 Y21.2824
 X50.7407 Y21.4156
 X50.5548 Y21.1747
 X50.6140 Y21.2825
 X50.5593 Y20.8142
 X50.5265 Y20.9327
G0 Z25.0000
 X50.7407 Y24.5844
G1 Z-8.0000
 X50.6140 Y24.7176
 X50.5548 Y24.8252
 X50.5249 Y24.9445
G0 Z25.0000
 X50.7081 Y35.6211
G1 Z-8.0000
 X50.6211 Y35.7080
 X50.5593 Y35.8142
 X50.5265 Y35.9327
 X50.5249 Y36.0556
 X50.5265 Y35.9326
 X50.5249 Y36.0555
 X50.5548 Y36.1748
G0 Z25.0000
 X50.5249 Y24.9444
G1 Z-8.0000
 X50.5265 Y25.0673
 X50.5593 Y25.1858
 X50.5548 Y24.8252
 Y24.8253
G0 Z25.0000
M5 (stop spindle)
G04 P3 (wait for 3 seconds)
G0 Z25.0000
M2 (end program)
