;PYCAM-META-DATA: Filename: /home/framlin/tinker/acrylic-lamp/cad/socket-f360-top.stl
;PYCAM-META-DATA: Timestamp: 2016-05-20 20:11:12.572942
;PYCAM-META-DATA: Version: 0.5.1
;Estimated machine time: 309 minutes
G40 (disable tool radius compensation)
G49 (disable tool length compensation)
G80 (cancel modal motion)
G54 (select coordinate system 1)
G90 (disable incremental moves)
G21 (metric)
G61 (exact path mode)
F400.00000
S1000.00000
;PYCAM_TOOLPATH_SETTINGS: START
;[Bounds]
;maxz = 0.0
;maxx = 248.4125
;maxy = 133.4125
;minx = 1.5875
;miny = 1.5875
;minz = -19.0
;
;[Tool]
;torus_radius = 0.125
;speed = 1000.0
;shape = SphericalCutter
;tool_radius = 1.5875
;feedrate = 400.0
;
;[Process]
;engrave_offset = 0.0
;step_down = 1.5
;generator = ContourFollow
;postprocessor = SimpleCutter
;milling_style = conventional
;material_allowance = 0.0
;pocketing_type = none
;path_direction = x
;
;PYCAM_TOOLPATH_SETTINGS: END
T4 M6
G0 Z25.0000
M3 (start spindle)
G04 P3 (wait for 3 seconds)
 X199.4695 Y95.9699
G1 Z-1.4615
 X174.5616
G0 Z25.0000
 X199.4695 Y50.9699
G1 Z-1.4615
 X174.5616
G0 Z25.0000
 X199.4695 Y110.9699
G1 Z-1.4615
 X174.5616
G0 Z25.0000
 X199.4695 Y80.9699
G1 Z-1.4615
 X174.5616
G0 Z25.0000
 X199.4695 Y65.9699
G1 Z-1.4615
 X174.5616
G0 Z25.0000
 X199.4695 Y35.9699
G1 Z-1.4615
 X174.5616
G0 Z25.0000
 X50.6345 Y53.8049
G1 Z-1.4615
 X199.4695
 Y50.9699
 X50.6345
 Y53.8049
 X75.5424
G0 Z25.0000
 X50.6345 Y113.8049
G1 Z-1.4615
 X199.4695
 Y110.9699
 X50.6345
 Y113.8049
 X75.5424
G0 Z25.0000
 X50.6345 Y98.8049
G1 Z-1.4615
 X199.4695
 Y95.9699
 X50.6345
 Y98.8049
 X75.5424
G0 Z25.0000
 X50.6345 Y83.8049
G1 Z-1.4615
 X199.4695
 Y80.9699
 X50.6345
 Y83.8049
 X75.5424
G0 Z25.0000
 X50.6345 Y68.8049
G1 Z-1.4615
 X199.4695
 Y65.9699
 X50.6345
 Y68.8049
 X75.5424
G0 Z25.0000
 X50.6345 Y38.8049
G1 Z-1.4615
 X199.4695
 Y35.9699
 X50.6345
 Y38.8049
 X75.5424
G0 Z25.0000
 X50.8057 Y21.0507
G1 Z-1.4615
 Y23.8857
 X199.6407
 Y21.0507
 X50.8057
 Y23.8857
 X76.9924
G0 Z25.0000
 X79.4622 Y21.0507
G1 Z-1.4615
 X50.8057
G0 Z25.0000
 X199.4645 Y113.7999
G1 Z-2.9231
 Y113.1951
 Y110.9749
 X198.4943
G0 Z25.0000
 X199.4645 Y95.9749
G1 Z-2.9231
 X198.4943
G0 Z25.0000
 X199.4645 Y80.9749
G1 Z-2.9231
 X198.4943
G0 Z25.0000
 X199.4645 Y68.7999
G1 Z-2.9231
 Y68.1951
 Y65.9749
 X198.4943
G0 Z25.0000
 X199.4645 Y53.7999
G1 Z-2.9231
 Y53.1951
 Y50.9749
 X198.4943
G0 Z25.0000
 X199.4645 Y38.7999
G1 Z-2.9231
 Y38.1951
G0 Z25.0000
 X199.6357 Y23.8807
G1 Z-2.9231
 Y23.2759
G0 Z25.0000
 X199.4645 Y35.9749
G1 Z-2.9231
 X198.4943
G0 Z25.0000
 X199.4645 Y98.7999
G1 Z-2.9231
 Y98.1951
G0 Z25.0000
 Y83.7999
G1 Z-2.9231
 Y83.1951
G0 Z25.0000
 Y50.9749
G1 Z-2.9231
 X148.0712
G0 Z25.0000
 X199.4645 Y95.9749
G1 Z-2.9231
 X148.0712
G0 Z25.0000
 X199.4645 Y110.9749
G1 Z-2.9231
 X148.0712
G0 Z25.0000
 X199.4645 Y80.9749
G1 Z-2.9231
 X148.0712
G0 Z25.0000
 X199.4645 Y65.9749
G1 Z-2.9231
 X148.0712
G0 Z25.0000
 X199.4645 Y35.9749
G1 Z-2.9231
 X148.0712
G0 Z25.0000
 X50.6395 Y113.7999
G1 Z-2.9231
 X102.0328
G0 Z25.0000
 X50.6395 Y68.7999
G1 Z-2.9231
 X102.0328
G0 Z25.0000
 X50.6395 Y53.7999
G1 Z-2.9231
 X199.4645
 Y50.9749
 X50.6395
G0 Z25.0000
 Y98.7999
G1 Z-2.9231
 X102.0328
G0 Z25.0000
 X50.6395 Y83.7999
G1 Z-2.9231
 X102.0328
G0 Z25.0000
 X50.6395 Y113.7999
G1 Z-2.9231
 X199.4645
 Y110.9749
 X50.6395
 Y111.5797
 Y110.9749
 Y113.7999
 X51.6097
G0 Z25.0000
 X50.6395 Y98.7999
G1 Z-2.9231
 X199.4645
 Y95.9749
 X50.6395
 Y96.5797
 Y95.9749
 Y98.7999
 X51.6097
G0 Z25.0000
 X50.6395 Y83.7999
G1 Z-2.9231
 X199.4645
 Y80.9749
 X50.6395
 Y81.5797
 Y80.9749
 Y83.7999
 X51.6097
G0 Z25.0000
 X50.6395 Y68.7999
G1 Z-2.9231
 X199.4645
 Y65.9749
 X50.6395
 Y66.5797
 Y65.9749
 Y68.7999
 X51.6097
G0 Z25.0000
 X50.6395 Y50.9749
G1 Z-2.9231
 Y53.7999
 X102.0328
G0 Z25.0000
 X50.6395 Y38.7999
G1 Z-2.9231
 X199.4645
 Y35.9749
 X50.6395
 Y36.5797
 Y35.9749
 Y38.7999
 X102.0328
G0 Z25.0000
 X50.8107 Y21.0557
G1 Z-2.9231
 Y23.8807
 X199.6357
 Y21.0557
 X50.8107
 Y23.8807
G0 Z25.0000
 Y35.9749
G1 Z-2.9231
 Y38.7999
 X51.6097
G0 Z25.0000
 X198.4943 Y113.7999
G1 Z-2.9231
 X199.4645
G0 Z25.0000
 X198.4943 Y68.7999
G1 Z-2.9231
 X199.4645
G0 Z25.0000
 X198.4943 Y53.7999
G1 Z-2.9231
 X199.4645
G0 Z25.0000
 X198.4943 Y38.7999
G1 Z-2.9231
 X199.4645
G0 Z25.0000
 X199.6357 Y21.0557
G1 Z-2.9231
 X198.2286
G0 Z25.0000
 X198.4943 Y98.7999
G1 Z-2.9231
 X199.4645
G0 Z25.0000
 X198.4943 Y83.7999
G1 Z-2.9231
 X199.4645
G0 Z25.0000
 X50.8107 Y23.8807
G1 Z-2.9231
 X104.7617
G0 Z25.0000
 X52.0748 Y21.0557
G1 Z-2.9231
 X50.8107
G0 Z25.0000
 X51.6097 Y110.9749
G1 Z-2.9231
 X50.6395
G0 Z25.0000
 X51.6097 Y95.9749
G1 Z-2.9231
 X50.6395
G0 Z25.0000
 X51.6097 Y80.9749
G1 Z-2.9231
 X50.6395
G0 Z25.0000
 X51.6097 Y65.9749
G1 Z-2.9231
 X50.6395
G0 Z25.0000
 X51.6097 Y50.9749
G1 Z-2.9231
 X50.6395
G0 Z25.0000
 X51.6097 Y35.9749
G1 Z-2.9231
 X50.6395
G0 Z25.0000
 X109.7012 Y21.0557
G1 Z-2.9231
 X50.8107
G0 Z25.0000
 X197.2155 Y113.7999
G1 Z-4.3846
 X199.4645
 Y112.0989
 Y110.9749
 X197.2155
G0 Z25.0000
 X199.4645 Y95.9749
G1 Z-4.3846
 X197.2155
G0 Z25.0000
 X199.4645 Y80.9749
G1 Z-4.3846
 X197.2155
G0 Z25.0000
 Y68.7999
G1 Z-4.3846
 X199.4645
 Y67.0989
 Y65.9749
 X197.2155
G0 Z25.0000
 Y53.7999
G1 Z-4.3846
 X199.4645
 Y52.0989
 Y50.9749
 X197.2155
G0 Z25.0000
 Y38.7999
G1 Z-4.3846
 X199.4645
 Y37.0989
G0 Z25.0000
 X199.6357 Y23.8807
G1 Z-4.3846
 Y22.1797
G0 Z25.0000
 X199.4645 Y35.9749
G1 Z-4.3846
 X197.2155
G0 Z25.0000
 X199.6357 Y21.0557
G1 Z-4.3846
 X196.7313
G0 Z25.0000
 X197.2155 Y98.7999
G1 Z-4.3846
 X199.4645
 Y97.0989
G0 Z25.0000
 X197.2155 Y83.7999
G1 Z-4.3846
 X199.4645
 Y82.0989
G0 Z25.0000
 Y95.9749
G1 Z-4.3846
 X121.5808
G0 Z25.0000
 X199.4645 Y50.9749
G1 Z-4.3846
 X121.5808
G0 Z25.0000
 X199.4645 Y110.9749
G1 Z-4.3846
 X121.5808
G0 Z25.0000
 X199.4645 Y80.9749
G1 Z-4.3846
 X121.5808
G0 Z25.0000
 X199.4645 Y65.9749
G1 Z-4.3846
 X121.5808
G0 Z25.0000
 X199.4645 Y35.9749
G1 Z-4.3846
 X121.5808
G0 Z25.0000
 X50.8107 Y23.8807
G1 Z-4.3846
 X132.5309
G0 Z25.0000
 X50.6395 Y113.7999
G1 Z-4.3846
 X128.5231
G0 Z25.0000
 X50.6395 Y68.7999
G1 Z-4.3846
 X128.5231
G0 Z25.0000
 X50.6395 Y53.7999
G1 Z-4.3846
 X199.4645
 Y50.9749
 X50.6395
G0 Z25.0000
 X139.9401 Y21.0557
G1 Z-4.3846
 X50.8107
G0 Z25.0000
 X50.6395 Y83.7999
G1 Z-4.3846
 X128.5231
G0 Z25.0000
 X50.6395 Y98.7999
G1 Z-4.3846
 X128.5231
G0 Z25.0000
 X50.6395 Y113.7999
G1 Z-4.3846
 X199.4645
 Y110.9749
 X50.6395
 Y112.6758
 X52.8885 Y110.9749
 X50.6395
 Y113.7999
 X52.8885
G0 Z25.0000
 X50.6395 Y98.7999
G1 Z-4.3846
 X199.4645
 Y95.9749
 X50.6395
 Y97.6758
 X52.8885 Y95.9749
 X50.6395
 Y98.7999
 X52.8885
G0 Z25.0000
 X50.6395 Y83.7999
G1 Z-4.3846
 X199.4645
 Y80.9749
 X50.6395
 Y82.6758
 X52.8885 Y80.9749
 X50.6395
 Y83.7999
 X52.8885
G0 Z25.0000
 X50.6395 Y68.7999
G1 Z-4.3846
 X199.4645
 Y65.9749
 X50.6395
 Y67.6758
 X52.8885 Y65.9749
 X50.6395
 Y68.7999
 X52.8885
G0 Z25.0000
 Y50.9749
G1 Z-4.3846
 X50.6395
 Y53.7999
 X128.5231
G0 Z25.0000
 X50.6395 Y38.7999
G1 Z-4.3846
 X199.4645
 Y35.9749
 X50.6395
 Y37.6759
 X52.8885 Y35.9749
 X50.6395
 Y38.7999
 X128.5231
G0 Z25.0000
 X53.5006 Y21.0557
G1 Z-4.3846
 X50.8107
 Y23.8807
 X199.6357
 Y21.0557
 X50.8107
 Y23.8807
G0 Z25.0000
 Y35.9749
G1 Z-4.3846
 Y38.7999
 X52.8885
G0 Z25.0000
 X195.9366 Y113.7999
G1 Z-5.8462
 X199.4645
 Y111.0028
 Y110.9749
 X195.9366
G0 Z25.0000
 X199.4645 Y95.9749
G1 Z-5.8462
 X195.9366
G0 Z25.0000
 X199.4645 Y80.9749
G1 Z-5.8462
 X195.9366
G0 Z25.0000
 Y68.7999
G1 Z-5.8462
 X199.4645
 Y66.0028
 Y65.9749
 X195.9366
G0 Z25.0000
 Y53.7999
G1 Z-5.8462
 X199.4645
 Y51.0028
 Y50.9749
 X195.9366
G0 Z25.0000
 Y38.7999
G1 Z-5.8462
 X199.4645
 Y36.0028
G0 Z25.0000
 X199.6357 Y23.8807
G1 Z-5.8462
 Y21.0836
G0 Z25.0000
 X199.4645 Y35.9749
G1 Z-5.8462
 X195.9366
G0 Z25.0000
 Y98.7999
G1 Z-5.8462
 X199.4645
 Y96.0028
G0 Z25.0000
 X195.9366 Y83.7999
G1 Z-5.8462
 X199.4645
 Y81.0028
G0 Z25.0000
 Y50.9749
G1 Z-5.8462
 X95.0905
G0 Z25.0000
 X199.4645 Y95.9749
G1 Z-5.8462
 X95.0905
G0 Z25.0000
 X199.4645 Y110.9749
G1 Z-5.8462
 X95.0905
G0 Z25.0000
 X199.4645 Y80.9749
G1 Z-5.8462
 X95.0905
G0 Z25.0000
 X199.4645 Y65.9749
G1 Z-5.8462
 X95.0905
G0 Z25.0000
 X199.4645 Y35.9749
G1 Z-5.8462
 X95.0905
G0 Z25.0000
 X50.8107 Y23.8807
G1 Z-5.8462
 X160.3001
G0 Z25.0000
 X50.6395 Y113.7999
G1 Z-5.8462
 X155.0135
G0 Z25.0000
 X50.6395 Y68.7999
G1 Z-5.8462
 X155.0135
G0 Z25.0000
 X50.6395 Y53.7999
G1 Z-5.8462
 X199.4645
 Y50.9749
 X50.6395
G0 Z25.0000
 X170.1791 Y21.0557
G1 Z-5.8462
 X50.8107
G0 Z25.0000
 X50.6395 Y98.7999
G1 Z-5.8462
 X155.0135
G0 Z25.0000
 X50.6395 Y83.7999
G1 Z-5.8462
 X155.0135
G0 Z25.0000
 X50.6395 Y113.7999
G1 Z-5.8462
 X199.4645
 Y110.9749
 X50.6395
 Y113.7720
G0 Z25.0000
 X54.1674 Y110.9749
G1 Z-5.8462
 X50.6395
 Y113.7999
 X54.1674
G0 Z25.0000
 X50.6395 Y98.7999
G1 Z-5.8462
 X199.4645
 Y95.9749
 X50.6395
 Y98.7720
G0 Z25.0000
 X54.1674 Y95.9749
G1 Z-5.8462
 X50.6395
 Y98.7999
 X54.1674
G0 Z25.0000
 X50.6395 Y83.7999
G1 Z-5.8462
 X199.4645
 Y80.9749
 X50.6395
 Y83.7720
G0 Z25.0000
 X54.1674 Y80.9749
G1 Z-5.8462
 X50.6395
 Y83.7999
 X54.1674
G0 Z25.0000
 X50.6395 Y68.7999
G1 Z-5.8462
 X199.4645
 Y65.9749
 X50.6395
 Y68.7720
G0 Z25.0000
 X54.1674 Y65.9749
G1 Z-5.8462
 X50.6395
 Y68.7999
 X54.1674
G0 Z25.0000
 Y50.9749
G1 Z-5.8462
 X50.6395
 Y53.7999
 X155.0135
G0 Z25.0000
 X50.6395 Y38.7999
G1 Z-5.8462
 X199.4645
 Y35.9749
 X50.6395
 Y38.7720
G0 Z25.0000
 X54.1674 Y35.9749
G1 Z-5.8462
 X50.6395
 Y38.7999
 X155.0135
G0 Z25.0000
 X54.9264 Y21.0557
G1 Z-5.8462
 X50.8107
 Y23.8807
 X199.6357
 Y21.0557
 X50.8107
 Y23.8807
G0 Z25.0000
 Y35.9749
G1 Z-5.8462
 Y38.7999
 X54.1674
G0 Z25.0000
 X199.6357 Y21.0557
G1 Z-5.8462
 X195.2341
G0 Z25.0000
 X199.4645 Y113.7999
G1 Z-7.3077
 Y110.9749
G0 Z25.0000
 Y68.7999
G1 Z-7.3077
 Y65.9749
G0 Z25.0000
 Y53.7999
G1 Z-7.3077
 Y50.9749
G0 Z25.0000
 Y38.7999
G1 Z-7.3077
 Y35.9749
G0 Z25.0000
 X199.6357 Y23.8807
G1 Z-7.3077
 Y21.0557
G0 Z25.0000
 X199.4645 Y98.7999
G1 Z-7.3077
 Y95.9749
G0 Z25.0000
 Y83.7999
G1 Z-7.3077
 Y80.9749
G0 Z25.0000
 X50.6395 Y110.9749
G1 Z-7.3077
 Y113.7999
G0 Z25.0000
 Y95.9749
G1 Z-7.3077
 Y98.7999
G0 Z25.0000
 Y80.9749
G1 Z-7.3077
 Y83.7999
G0 Z25.0000
 Y65.9749
G1 Z-7.3077
 Y68.7999
G0 Z25.0000
 Y50.9749
G1 Z-7.3077
 Y53.7999
G0 Z25.0000
 Y35.9749
G1 Z-7.3077
 Y38.7999
G0 Z25.0000
 X50.8107 Y21.0557
G1 Z-7.3077
 Y23.8807
G0 Z25.0000
 X194.6578 Y113.7999
G1 Z-7.3077
 X199.4645
 Y110.9749
 X194.6578
G0 Z25.0000
 X199.4645 Y95.9749
G1 Z-7.3077
 X194.6578
G0 Z25.0000
 X199.4645 Y80.9749
G1 Z-7.3077
 X194.6578
G0 Z25.0000
 Y68.7999
G1 Z-7.3077
 X199.4645
 Y65.9749
 X194.6578
G0 Z25.0000
 Y53.7999
G1 Z-7.3077
 X199.4645
 Y50.9749
 X194.6578
G0 Z25.0000
 Y38.7999
G1 Z-7.3077
 X199.4645
 Y35.9749
 X194.6578
G0 Z25.0000
 X196.2585 Y21.0557
G1 Z-7.3077
 X194.0520
G0 Z25.0000
 X194.6578 Y98.7999
G1 Z-7.3077
 X199.4645
G0 Z25.0000
 X194.6578 Y83.7999
G1 Z-7.3077
 X199.4645
G0 Z25.0000
 Y50.9749
G1 Z-7.3077
 X68.6001
G0 Z25.0000
 X199.4645 Y95.9749
G1 Z-7.3077
 X68.6001
G0 Z25.0000
 X199.4645 Y110.9749
G1 Z-7.3077
 X68.6001
G0 Z25.0000
 X199.4645 Y80.9749
G1 Z-7.3077
 X68.6001
G0 Z25.0000
 X199.4645 Y65.9749
G1 Z-7.3077
 X68.6001
G0 Z25.0000
 X199.4645 Y35.9749
G1 Z-7.3077
 X68.6001
G0 Z25.0000
 X50.8107 Y23.8807
G1 Z-7.3077
 X188.0694
G0 Z25.0000
 X50.6395 Y113.7999
G1 Z-7.3077
 X181.5039
G0 Z25.0000
 X50.6395 Y68.7999
G1 Z-7.3077
 X181.5039
G0 Z25.0000
 X50.6395 Y53.7999
G1 Z-7.3077
 X199.4645
 Y50.9749
 X50.6395
 Y53.7999
 X181.5039
G0 Z25.0000
 X199.6357 Y21.0557
G1 Z-7.3077
 X194.0520
 X50.8107
G0 Z25.0000
 X50.6395 Y98.7999
G1 Z-7.3077
 X181.5039
G0 Z25.0000
 X56.0520 Y21.0557
G1 Z-7.3077
 X53.9508
G0 Z25.0000
 X50.6395 Y83.7999
G1 Z-7.3077
 X181.5039
G0 Z25.0000
 X50.6395 Y113.7999
G1 Z-7.3077
 X199.4645
 Y110.9749
 X50.6395
G0 Z25.0000
 X55.4462
G1 Z-7.3077
 X50.6395
 Y113.7999
 X55.4462
G0 Z25.0000
 X50.6395 Y98.7999
G1 Z-7.3077
 X199.4645
 Y95.9749
 X50.6395
G0 Z25.0000
 X55.4462
G1 Z-7.3077
 X50.6395
 Y98.7999
 X55.4462
G0 Z25.0000
 X50.6395 Y83.7999
G1 Z-7.3077
 X199.4645
 Y80.9749
 X50.6395
G0 Z25.0000
 X55.4462
G1 Z-7.3077
 X50.6395
 Y83.7999
 X55.4462
G0 Z25.0000
 X50.6395 Y68.7999
G1 Z-7.3077
 X199.4645
 Y65.9749
 X50.6395
G0 Z25.0000
 X55.4462
G1 Z-7.3077
 X50.6395
 Y68.7999
 X55.4462
G0 Z25.0000
 Y50.9749
G1 Z-7.3077
 X50.6395
G0 Z25.0000
 Y38.7999
G1 Z-7.3077
 X199.4645
 Y35.9749
 X50.6395
G0 Z25.0000
 X55.4462
G1 Z-7.3077
 X50.6395
 Y38.7999
 X181.5039
G0 Z25.0000
 X56.0520 Y21.0557
G1 Z-7.3077
 X50.8107
 Y23.8807
 X199.6357
 Y21.0557
 X50.8107
G0 Z25.0000
 Y35.9749
G1 Z-7.3077
 Y38.7999
 X55.4462
G0 Z25.0000
 X192.6916 Y50.9749
G1 Z-8.7692
 X57.4124
G0 Z25.0000
 X192.6916 Y95.9749
G1 Z-8.7692
 X57.4124
G0 Z25.0000
 Y113.7999
G1 Z-8.7692
 X192.6916
 Y110.9749
 X57.4124
G0 Z25.0000
 X192.6916 Y80.9749
G1 Z-8.7692
 X57.4124
G0 Z25.0000
 X192.6916 Y65.9749
G1 Z-8.7692
 X57.4124
G0 Z25.0000
 X192.6916 Y50.9749
G1 Z-8.7692
 X172.8212
G0 Z25.0000
 X192.6916 Y35.9749
G1 Z-8.7692
 X57.4124
G0 Z25.0000
 X192.6916
G1 Z-8.7692
 X172.8212
G0 Z25.0000
 X57.4124 Y98.7999
G1 Z-8.7692
 X192.6916
G0 Z25.0000
 X57.4124 Y83.7999
G1 Z-8.7692
 X192.6916
G0 Z25.0000
 X57.4124 Y68.7999
G1 Z-8.7692
 X192.6916
G0 Z25.0000
 X57.4124 Y53.7999
G1 Z-8.7692
 X192.6916
G0 Z25.0000
 X57.4124 Y38.7999
G1 Z-8.7692
 X192.6916
G0 Z25.0000
 Y110.9749
G1 Z-8.7692
 X57.4124
 Y113.7999
 X77.2828
G0 Z25.0000
 X192.6916 Y95.9749
G1 Z-8.7692
 X57.4124
 Y98.7999
 X77.2828
G0 Z25.0000
 X192.6916 Y80.9749
G1 Z-8.7692
 X57.4124
 Y83.7999
 X77.2828
G0 Z25.0000
 X192.6916 Y65.9749
G1 Z-8.7692
 X57.4124
 Y68.7999
 X77.2828
G0 Z25.0000
 X57.4124 Y21.0557
G1 Z-8.7692
 Y23.8807
G0 Z25.0000
 Y113.7999
G1 Z-8.7692
 X192.6916
G0 Z25.0000
 Y95.9749
G1 Z-8.7692
 X57.4124
G0 Z25.0000
 X192.6916 Y50.9749
G1 Z-8.7692
 X57.4124
G0 Z25.0000
 X192.6916 Y35.9749
G1 Z-8.7692
 X57.4124
G0 Z25.0000
 Y23.8807
G1 Z-8.7692
 X192.6916
 Y21.0557
 X57.4124
G0 Z25.0000
 Y113.7999
G1 Z-8.7692
 X192.6916
 Y110.9749
 X172.8212
G0 Z25.0000
 X57.4124 Y98.7999
G1 Z-8.7692
 X192.6916
G0 Z25.0000
 Y110.9749
G1 Z-8.7692
 X57.4124
G0 Z25.0000
 Y83.7999
G1 Z-8.7692
 X192.6916
 Y80.9749
 X57.4124
G0 Z25.0000
 Y68.7999
G1 Z-8.7692
 X192.6916
 Y65.9749
 X172.8212
G0 Z25.0000
 X57.4124 Y68.7999
G1 Z-8.7692
 X192.6916
 Y65.9749
 X57.4124
G0 Z25.0000
 Y53.7999
G1 Z-8.7692
 X192.6916
G0 Z25.0000
 X57.4124
G1 Z-8.7692
 X192.6916
 Y50.9749
 X57.4124
 Y53.7999
 X77.2828
G0 Z25.0000
 X57.4124 Y38.7999
G1 Z-8.7692
 X192.6916
G0 Z25.0000
 X57.4124
G1 Z-8.7692
 X192.6916
 Y35.9749
 X57.4124
 Y38.7999
 X77.2828
G0 Z25.0000
 X192.6916 Y23.8807
G1 Z-8.7692
 Y21.0557
 X57.4124
G0 Z25.0000
 Y98.7999
G1 Z-8.7692
 X192.6916
 Y95.9749
 X172.8212
G0 Z25.0000
 X57.4124 Y83.7999
G1 Z-8.7692
 X192.6916
 Y80.9749
 X172.8212
G0 Z25.0000
 X192.4645 Y22.1091
G1 Z-10.2308
 Y21.0557
G0 Z25.0000
 Y95.9749
G1 Z-10.2308
 X132.4828
G0 Z25.0000
 X192.4645 Y50.9749
G1 Z-10.2308
 X132.4828
G0 Z25.0000
 X192.4645 Y110.9749
G1 Z-10.2308
 X132.4828
G0 Z25.0000
 X57.6395 Y83.7999
G1 Z-10.2308
 X192.4645
 Y82.7105
G0 Z25.0000
 X57.6395 Y68.7999
G1 Z-10.2308
 X192.4645
 Y67.7105
G0 Z25.0000
 X57.6395 Y38.7999
G1 Z-10.2308
 X192.4645
 Y37.7105
G0 Z25.0000
 X57.6395 Y23.7999
G1 Z-10.2308
 X117.6212
G0 Z25.0000
 X192.4645 Y50.9749
G1 Z-10.2308
 X57.6395
 Y52.0643
 Y53.7999
 X192.4645
 Y50.9749
 X57.6395
 Y53.7999
 X117.6212
G0 Z25.0000
 X192.4645 Y110.9749
G1 Z-10.2308
 X57.6395
 Y112.0643
 Y113.7999
 X192.4645
 Y110.9749
 X57.6395
 Y113.7999
 X117.6212
G0 Z25.0000
 X192.4645 Y35.9749
G1 Z-10.2308
 X57.6395
 Y38.7999
 X117.6212
G0 Z25.0000
 X192.4645 Y35.9749
G1 Z-10.2308
 X57.6395
 Y37.0643
G0 Z25.0000
 X192.4645 Y95.9749
G1 Z-10.2308
 X57.6395
 Y97.0643
 Y98.7999
 X192.4645
 Y95.9749
 X57.6395
 Y98.7999
 X117.6212
G0 Z25.0000
 X192.4645 Y80.9749
G1 Z-10.2308
 X57.6395
 Y82.0643
G0 Z25.0000
 X192.4645 Y80.9749
G1 Z-10.2308
 X57.6395
 Y83.7999
 X117.6212
G0 Z25.0000
 X192.4645 Y65.9749
G1 Z-10.2308
 X57.6395
 Y67.0643
G0 Z25.0000
 X192.4645 Y65.9749
G1 Z-10.2308
 X57.6395
 Y68.7999
 X117.6212
G0 Z25.0000
 X57.6395 Y21.0557
G1 Z-10.2308
 Y22.1091
G0 Z25.0000
 Y113.7999
G1 Z-10.2308
 X192.4645
G0 Z25.0000
 Y95.9749
G1 Z-10.2308
 X57.6395
G0 Z25.0000
 X192.4645 Y50.9749
G1 Z-10.2308
 X57.6395
G0 Z25.0000
 X192.4645 Y35.9749
G1 Z-10.2308
 X57.6395
G0 Z25.0000
 X192.4645 Y21.0557
G1 Z-10.2308
 X57.6395
G0 Z25.0000
 Y113.7999
G1 Z-10.2308
 X192.4645
 Y112.7105
G0 Z25.0000
 X57.6395 Y98.7999
G1 Z-10.2308
 X192.4645
G0 Z25.0000
 Y110.9749
G1 Z-10.2308
 X57.6395
G0 Z25.0000
 Y83.7999
G1 Z-10.2308
 X192.4645
 Y80.9749
 X57.6395
G0 Z25.0000
 Y68.7999
G1 Z-10.2308
 X192.4645
G0 Z25.0000
 X57.6395
G1 Z-10.2308
 X192.4645
 Y65.9749
 X132.4828
G0 Z25.0000
 X192.4645
G1 Z-10.2308
 X57.6395
G0 Z25.0000
 Y53.7999
G1 Z-10.2308
 X192.4645
G0 Z25.0000
 X57.6395
G1 Z-10.2308
 X192.4645
 Y52.7105
G0 Z25.0000
 X57.6395 Y38.7999
G1 Z-10.2308
 X192.4645
G0 Z25.0000
 X57.6395
G1 Z-10.2308
 X192.4645
 Y35.9749
 X132.4828
G0 Z25.0000
 X57.6395 Y21.0557
G1 Z-10.2308
 Y23.7999
 X192.4645
 Y21.0557
 X57.6395
G0 Z25.0000
 Y98.7999
G1 Z-10.2308
 X192.4645
 Y97.7105
G0 Z25.0000
 X57.6395 Y83.7999
G1 Z-10.2308
 X192.4645
 Y80.9749
 X132.4828
G0 Z25.0000
 X192.4645 Y23.7999
G1 Z-11.6923
 Y21.0557
G0 Z25.0000
 X57.6395 Y113.7999
G1 Z-11.6923
 X157.9597
G0 Z25.0000
 X192.4645 Y95.9749
G1 Z-11.6923
 X92.1443
G0 Z25.0000
 X192.4645 Y80.9749
G1 Z-11.6923
 X92.1443
G0 Z25.0000
 X192.4645 Y65.9749
G1 Z-11.6923
 X92.1443
G0 Z25.0000
 X192.4645 Y50.9749
G1 Z-11.6923
 X92.1443
G0 Z25.0000
 X192.4645 Y35.9749
G1 Z-11.6923
 X92.1443
G0 Z25.0000
 X192.4645 Y110.9749
G1 Z-11.6923
 X92.1443
G0 Z25.0000
 X57.6395 Y98.7999
G1 Z-11.6923
 X157.9597
G0 Z25.0000
 X57.6395 Y83.7999
G1 Z-11.6923
 X157.9597
G0 Z25.0000
 X57.6395 Y68.7999
G1 Z-11.6923
 X157.9597
G0 Z25.0000
 X57.6395 Y53.7999
G1 Z-11.6923
 X157.9597
G0 Z25.0000
 X57.6395 Y23.7999
G1 Z-11.6923
 X157.9597
G0 Z25.0000
 X192.4645 Y50.9749
G1 Z-11.6923
 X57.6395
 Y53.7999
 X192.4645
 Y50.9749
 X57.6395
 Y53.7999
G0 Z25.0000
 X192.4645 Y110.9749
G1 Z-11.6923
 X57.6395
 Y113.7999
 X192.4645
 Y110.9749
 X57.6395
 Y113.7999
G0 Z25.0000
 Y38.7999
G1 Z-11.6923
 X192.4645
 Y35.9749
 X57.6395
 Y38.7999
 X157.9597
G0 Z25.0000
 X192.4645 Y35.9749
G1 Z-11.6923
 X57.6395
 Y38.7999
G0 Z25.0000
 X192.4645 Y95.9749
G1 Z-11.6923
 X57.6395
 Y98.7999
 X192.4645
 Y95.9749
 X57.6395
 Y98.7999
G0 Z25.0000
 X192.4645 Y80.9749
G1 Z-11.6923
 X57.6395
 Y83.7999
 X192.4645
 Y80.9749
 X57.6395
 Y83.7999
G0 Z25.0000
 X192.4645 Y65.9749
G1 Z-11.6923
 X57.6395
 Y68.7999
 X192.4645
 Y65.9749
 X57.6395
 Y68.7999
G0 Z25.0000
 Y21.0557
G1 Z-11.6923
 Y23.7999
G0 Z25.0000
 Y113.7999
G1 Z-11.6923
 X192.4645
G0 Z25.0000
 Y95.9749
G1 Z-11.6923
 X57.6395
G0 Z25.0000
 X192.4645 Y50.9749
G1 Z-11.6923
 X57.6395
G0 Z25.0000
 X192.4645 Y35.9749
G1 Z-11.6923
 X57.6395
G0 Z25.0000
 X192.4645 Y21.0557
G1 Z-11.6923
 X57.6395
G0 Z25.0000
 Y113.7999
G1 Z-11.6923
 X192.4645
 Y110.9749
G0 Z25.0000
 X57.6395 Y98.7999
G1 Z-11.6923
 X192.4645
G0 Z25.0000
 Y110.9749
G1 Z-11.6923
 X57.6395
G0 Z25.0000
 Y83.7999
G1 Z-11.6923
 X192.4645
G0 Z25.0000
 X57.6395 Y68.7999
G1 Z-11.6923
 X192.4645
G0 Z25.0000
 Y80.9749
G1 Z-11.6923
 X57.6395
G0 Z25.0000
 Y68.7999
G1 Z-11.6923
 X192.4645
 Y65.9749
 X57.6395
G0 Z25.0000
 Y53.7999
G1 Z-11.6923
 X192.4645
G0 Z25.0000
 X57.6395
G1 Z-11.6923
 X192.4645
 Y50.9749
G0 Z25.0000
 X57.6395 Y38.7999
G1 Z-11.6923
 X192.4645
G0 Z25.0000
 X57.6395
G1 Z-11.6923
 X192.4645
 Y35.9749
G0 Z25.0000
 X57.6395 Y21.0557
G1 Z-11.6923
 Y23.7999
 X192.4645
 Y21.0557
 X57.6395
G0 Z25.0000
 Y98.7999
G1 Z-11.6923
 X192.4645
 Y95.9749
G0 Z25.0000
 X57.6395 Y83.7999
G1 Z-11.6923
 X192.4645
 Y80.9749
G0 Z25.0000
 Y23.7999
G1 Z-13.1538
 Y21.0557
G0 Z25.0000
 Y50.9749
G1 Z-13.1538
 X57.6395
G0 Z25.0000
 X192.4645 Y95.9749
G1 Z-13.1538
 X57.6395
G0 Z25.0000
 X192.4645 Y110.9749
G1 Z-13.1538
 X57.6395
G0 Z25.0000
 X192.4645 Y80.9749
G1 Z-13.1538
 X57.6395
G0 Z25.0000
 X192.4645 Y65.9749
G1 Z-13.1538
 X57.6395
G0 Z25.0000
 X192.4645 Y35.9749
G1 Z-13.1538
 X57.6395
G0 Z25.0000
 Y21.0557
G1 Z-13.1538
 Y23.7999
G0 Z25.0000
 Y113.7999
G1 Z-13.1538
 X192.4645
G0 Z25.0000
 Y95.9749
G1 Z-13.1538
 X57.6395
G0 Z25.0000
 X192.4645 Y50.9749
G1 Z-13.1538
 X57.6395
G0 Z25.0000
 X192.4645 Y35.9749
G1 Z-13.1538
 X57.6395
G0 Z25.0000
 X192.4645 Y21.0557
G1 Z-13.1538
 X57.6395
G0 Z25.0000
 Y113.7999
G1 Z-13.1538
 X192.4645
 Y110.9749
 X57.6395
 Y113.7999
 X192.4645
G0 Z25.0000
 X57.6395 Y98.7999
G1 Z-13.1538
 X192.4645
G0 Z25.0000
 Y110.9749
G1 Z-13.1538
 X57.6395
G0 Z25.0000
 Y83.7999
G1 Z-13.1538
 X192.4645
 Y80.9749
 X57.6395
G0 Z25.0000
 Y68.7999
G1 Z-13.1538
 X192.4645
 Y65.9749
 X57.6395
 Y68.7999
 X192.4645
 Y65.9749
 X57.6395
 Y68.7999
 X192.4645
G0 Z25.0000
 X57.6395 Y53.7999
G1 Z-13.1538
 X192.4645
G0 Z25.0000
 X57.6395
G1 Z-13.1538
 X192.4645
 Y50.9749
 X57.6395
 Y53.7999
 X192.4645
G0 Z25.0000
 X57.6395 Y38.7999
G1 Z-13.1538
 X192.4645
G0 Z25.0000
 X57.6395
G1 Z-13.1538
 X192.4645
 Y35.9749
 X57.6395
 Y38.7999
 X192.4645
G0 Z25.0000
 X57.6395 Y21.0557
G1 Z-13.1538
 Y23.7999
 X192.4645
 Y21.0557
 X57.6395
G0 Z25.0000
 Y98.7999
G1 Z-13.1538
 X192.4645
 Y95.9749
 X57.6395
 Y98.7999
 X192.4645
G0 Z25.0000
 X57.6395 Y83.7999
G1 Z-13.1538
 X192.4645
 Y80.9749
 X57.6395
 Y83.7999
 X192.4645
G0 Z25.0000
 Y23.7999
G1 Z-14.6154
 Y21.0557
G0 Z25.0000
 Y50.9749
G1 Z-14.6154
 X57.6395
G0 Z25.0000
 X192.4645 Y95.9749
G1 Z-14.6154
 X57.6395
G0 Z25.0000
 X192.4645 Y110.9749
G1 Z-14.6154
 X57.6395
G0 Z25.0000
 X192.4645 Y80.9749
G1 Z-14.6154
 X57.6395
G0 Z25.0000
 X192.4645 Y65.9749
G1 Z-14.6154
 X57.6395
G0 Z25.0000
 X192.4645 Y35.9749
G1 Z-14.6154
 X57.6395
G0 Z25.0000
 Y21.0557
G1 Z-14.6154
 Y23.7999
G0 Z25.0000
 Y113.7999
G1 Z-14.6154
 X192.4645
G0 Z25.0000
 Y95.9749
G1 Z-14.6154
 X57.6395
G0 Z25.0000
 X192.4645 Y50.9749
G1 Z-14.6154
 X57.6395
G0 Z25.0000
 X192.4645 Y35.9749
G1 Z-14.6154
 X57.6395
G0 Z25.0000
 X192.4645 Y21.0557
G1 Z-14.6154
 X57.6395
G0 Z25.0000
 Y113.7999
G1 Z-14.6154
 X192.4645
 Y110.9749
 X57.6395
 Y113.7999
 X192.4645
G0 Z25.0000
 X57.6395 Y98.7999
G1 Z-14.6154
 X192.4645
G0 Z25.0000
 X57.6395 Y83.7999
G1 Z-14.6154
 X192.4645
G0 Z25.0000
 Y110.9749
G1 Z-14.6154
 X57.6395
G0 Z25.0000
 X192.4645 Y80.9749
G1 Z-14.6154
 X57.6395
G0 Z25.0000
 Y68.7999
G1 Z-14.6154
 X192.4645
G0 Z25.0000
 X57.6395
G1 Z-14.6154
 X192.4645
 Y65.9749
 X57.6395
 Y68.7999
 X192.4645
 Y65.9749
 X57.6395
G0 Z25.0000
 Y53.7999
G1 Z-14.6154
 X192.4645
G0 Z25.0000
 X57.6395
G1 Z-14.6154
 X192.4645
 Y50.9749
 X57.6395
 Y53.7999
 X192.4645
G0 Z25.0000
 X57.6395 Y38.7999
G1 Z-14.6154
 X192.4645
G0 Z25.0000
 X57.6395
G1 Z-14.6154
 X192.4645
 Y35.9749
 X57.6395
 Y38.7999
 X192.4645
G0 Z25.0000
 X57.6395 Y21.0557
G1 Z-14.6154
 Y23.7999
 X192.4645
 Y21.0557
 X57.6395
G0 Z25.0000
 Y98.7999
G1 Z-14.6154
 X192.4645
 Y95.9749
 X57.6395
 Y98.7999
 X192.4645
G0 Z25.0000
 X57.6395 Y83.7999
G1 Z-14.6154
 X192.4645
 Y80.9749
 X57.6395
 Y83.7999
 X192.4645
G0 Z25.0000
 Y23.7999
G1 Z-16.0769
 Y21.0557
G0 Z25.0000
 Y50.9749
G1 Z-16.0769
 X57.6395
G0 Z25.0000
 X192.4645 Y95.9749
G1 Z-16.0769
 X57.6395
G0 Z25.0000
 X192.4645 Y110.9749
G1 Z-16.0769
 X57.6395
G0 Z25.0000
 X192.4645 Y80.9749
G1 Z-16.0769
 X57.6395
G0 Z25.0000
 X192.4645 Y65.9749
G1 Z-16.0769
 X57.6395
G0 Z25.0000
 X192.4645 Y35.9749
G1 Z-16.0769
 X57.6395
G0 Z25.0000
 Y21.0557
G1 Z-16.0769
 Y23.7999
G0 Z25.0000
 Y113.7999
G1 Z-16.0769
 X192.4645
G0 Z25.0000
 Y95.9749
G1 Z-16.0769
 X57.6395
G0 Z25.0000
 X192.4645 Y50.9749
G1 Z-16.0769
 X57.6395
G0 Z25.0000
 X192.4645 Y35.9749
G1 Z-16.0769
 X57.6395
G0 Z25.0000
 X192.4645 Y21.0557
G1 Z-16.0769
 X57.6395
G0 Z25.0000
 Y113.7999
G1 Z-16.0769
 X192.4645
 Y110.9749
 X57.6395
 Y113.7999
 X192.4645
G0 Z25.0000
 X57.6395 Y98.7999
G1 Z-16.0769
 X192.4645
G0 Z25.0000
 Y110.9749
G1 Z-16.0769
 X57.6395
G0 Z25.0000
 Y83.7999
G1 Z-16.0769
 X192.4645
 Y80.9749
 X57.6395
G0 Z25.0000
 Y68.7999
G1 Z-16.0769
 X192.4645
G0 Z25.0000
 X57.6395
G1 Z-16.0769
 X192.4645
 Y65.9749
 X57.6395
 Y68.7999
 X192.4645
 Y65.9749
 X57.6395
G0 Z25.0000
 Y53.7999
G1 Z-16.0769
 X192.4645
G0 Z25.0000
 X57.6395
G1 Z-16.0769
 X192.4645
 Y50.9749
 X57.6395
 Y53.7999
 X192.4645
G0 Z25.0000
 X57.6395 Y38.7999
G1 Z-16.0769
 X192.4645
G0 Z25.0000
 X57.6395
G1 Z-16.0769
 X192.4645
 Y35.9749
 X57.6395
 Y38.7999
 X192.4645
G0 Z25.0000
 X57.6395 Y21.0557
G1 Z-16.0769
 Y23.7999
 X192.4645
 Y21.0557
 X57.6395
G0 Z25.0000
 Y98.7999
G1 Z-16.0769
 X192.4645
 Y95.9749
 X57.6395
 Y98.7999
 X192.4645
G0 Z25.0000
 X57.6395 Y83.7999
G1 Z-16.0769
 X192.4645
 Y80.9749
 X57.6395
 Y83.7999
 X192.4645
G0 Z25.0000
 Y23.7999
G1 Z-17.5385
 Y21.0557
G0 Z25.0000
 Y50.9749
G1 Z-17.5385
 X57.6395
G0 Z25.0000
 X192.4645 Y95.9749
G1 Z-17.5385
 X57.6395
G0 Z25.0000
 X192.4645 Y110.9749
G1 Z-17.5385
 X57.6395
G0 Z25.0000
 X192.4645 Y80.9749
G1 Z-17.5385
 X57.6395
G0 Z25.0000
 X192.4645 Y65.9749
G1 Z-17.5385
 X57.6395
G0 Z25.0000
 X192.4645 Y35.9749
G1 Z-17.5385
 X57.6395
G0 Z25.0000
 Y21.0557
G1 Z-17.5385
 Y23.7999
G0 Z25.0000
 Y113.7999
G1 Z-17.5385
 X192.4645
G0 Z25.0000
 Y95.9749
G1 Z-17.5385
 X57.6395
G0 Z25.0000
 X192.4645 Y50.9749
G1 Z-17.5385
 X57.6395
G0 Z25.0000
 X192.4645 Y35.9749
G1 Z-17.5385
 X57.6395
G0 Z25.0000
 X192.4645 Y21.0557
G1 Z-17.5385
 X57.6395
G0 Z25.0000
 Y113.7999
G1 Z-17.5385
 X192.4645
 Y110.9749
 X57.6395
 Y113.7999
 X192.4645
G0 Z25.0000
 X57.6395 Y98.7999
G1 Z-17.5385
 X192.4645
G0 Z25.0000
 Y110.9749
G1 Z-17.5385
 X57.6395
G0 Z25.0000
 Y83.7999
G1 Z-17.5385
 X192.4645
 Y80.9749
 X57.6395
G0 Z25.0000
 Y68.7999
G1 Z-17.5385
 X192.4645
G0 Z25.0000
 X57.6395
G1 Z-17.5385
 X192.4645
 Y65.9749
 X57.6395
 Y68.7999
 X192.4645
 Y65.9749
 X57.6395
G0 Z25.0000
 Y53.7999
G1 Z-17.5385
 X192.4645
G0 Z25.0000
 X57.6395
G1 Z-17.5385
 X192.4645
 Y50.9749
 X57.6395
 Y53.7999
 X192.4645
G0 Z25.0000
 X57.6395 Y38.7999
G1 Z-17.5385
 X192.4645
G0 Z25.0000
 X57.6395
G1 Z-17.5385
 X192.4645
 Y35.9749
 X57.6395
 Y38.7999
 X192.4645
G0 Z25.0000
 X57.6395 Y21.0557
G1 Z-17.5385
 Y23.7999
 X192.4645
 Y21.0557
 X57.6395
G0 Z25.0000
 Y98.7999
G1 Z-17.5385
 X192.4645
 Y95.9749
 X57.6395
 Y98.7999
 X192.4645
G0 Z25.0000
 X57.6395 Y83.7999
G1 Z-17.5385
 X192.4645
 Y80.9749
 X57.6395
 Y83.7999
 X192.4645
G0 Z25.0000
 Y23.7999
G1 Z-19.0000
 Y21.0557
G0 Z25.0000
 Y95.9749
G1 Z-19.0000
 X57.6395
G0 Z25.0000
 X192.4645 Y50.9749
G1 Z-19.0000
 X57.6395
G0 Z25.0000
 X192.4645 Y110.9749
G1 Z-19.0000
 X57.6395
G0 Z25.0000
 X192.4645 Y80.9749
G1 Z-19.0000
 X57.6395
G0 Z25.0000
 X192.4645 Y65.9749
G1 Z-19.0000
 X57.6395
G0 Z25.0000
 X192.4645 Y35.9749
G1 Z-19.0000
 X57.6395
G0 Z25.0000
 Y21.0557
G1 Z-19.0000
 Y23.7999
G0 Z25.0000
 Y113.7999
G1 Z-19.0000
 X192.4645
G0 Z25.0000
 Y95.9749
G1 Z-19.0000
 X57.6395
G0 Z25.0000
 X192.4645 Y50.9749
G1 Z-19.0000
 X57.6395
G0 Z25.0000
 X192.4645 Y35.9749
G1 Z-19.0000
 X57.6395
G0 Z25.0000
 X192.4645 Y21.0557
G1 Z-19.0000
 X57.6395
G0 Z25.0000
 Y113.7999
G1 Z-19.0000
 X192.4645
 Y110.9749
 X57.6395
 Y113.7999
 X192.4645
G0 Z25.0000
 X57.6395 Y98.7999
G1 Z-19.0000
 X192.4645
G0 Z25.0000
 Y110.9749
G1 Z-19.0000
 X57.6395
G0 Z25.0000
 Y83.7999
G1 Z-19.0000
 X192.4645
 Y80.9749
 X57.6395
G0 Z25.0000
 Y68.7999
G1 Z-19.0000
 X192.4645
G0 Z25.0000
 X57.6395
G1 Z-19.0000
 X192.4645
 Y65.9749
 X57.6395
 Y68.7999
 X192.4645
G0 Z25.0000
 X57.6395 Y53.7999
G1 Z-19.0000
 X192.4645
G0 Z25.0000
 Y65.9749
G1 Z-19.0000
 X57.6395
G0 Z25.0000
 Y53.7999
G1 Z-19.0000
 X192.4645
 Y50.9749
 X57.6395
 Y53.7999
 X192.4645
G0 Z25.0000
 X57.6395 Y38.7999
G1 Z-19.0000
 X192.4645
G0 Z25.0000
 X57.6395
G1 Z-19.0000
 X192.4645
 Y35.9749
 X57.6395
 Y38.7999
 X192.4645
G0 Z25.0000
 X57.6395 Y21.0557
G1 Z-19.0000
 Y23.7999
 X192.4645
 Y21.0557
 X57.6395
G0 Z25.0000
 Y98.7999
G1 Z-19.0000
 X192.4645
 Y95.9749
 X57.6395
 Y98.7999
 X192.4645
G0 Z25.0000
 X57.6395 Y83.7999
G1 Z-19.0000
 X192.4645
 Y80.9749
 X57.6395
 Y83.7999
 X192.4645
G0 Z25.0000
M5 (stop spindle)
G04 P3 (wait for 3 seconds)
G0 Z25.0000
M2 (end program)
