;PYCAM-META-DATA: Filename: /home/framlin/tinker/acrylic-lamp/cad/socket-bottom-filled.stl
;PYCAM-META-DATA: Timestamp: 2016-04-11 11:54:22.172295
;PYCAM-META-DATA: Version: 0.5.1
;Estimated machine time: 28 minutes
G40 (disable tool radius compensation)
G49 (disable tool length compensation)
G80 (cancel modal motion)
G54 (select coordinate system 1)
G90 (disable incremental moves)
G21 (metric)
G61 (exact path mode)
F1000.00000
S1000.00000
;PYCAM_TOOLPATH_SETTINGS: START
;[Bounds]
;maxz = 0.0
;maxx = 248.415
;maxy = 134.415
;minx = 1.585
;miny = 1.585
;minz = -22.0
;
;[Tool]
;torus_radius = 0.25
;speed = 1000.0
;shape = CylindricalCutter
;tool_radius = 1.585
;feedrate = 1000.0
;
;[Process]
;engrave_offset = 0.0
;step_down = 3.0
;generator = PushCutter
;postprocessor = SimpleCutter
;milling_style = conventional
;material_allowance = 0.0
;pocketing_type = none
;path_direction = x
;
;PYCAM_TOOLPATH_SETTINGS: END
T4 M6
G0 Z25.0000
M3 (start spindle)
G04 P3 (wait for 3 seconds)
 X51.5318 Y21.8258
G1 Z0.0000
 X198.4682
G0 Z25.0000
 X51.5850 Y23.0908
G1 Z0.0000
 X198.4150
G0 Z25.0000
 X51.4716 Y24.3559
G1 Z0.0000
 X198.5284
G0 Z25.0000
 X51.5687 Y37.0063
G1 Z0.0000
 X198.4313
G0 Z25.0000
 X51.5850 Y38.2714
G1 Z0.0000
 X198.4150
G0 Z25.0000
 X51.3857 Y39.5364
G1 Z0.0000
 X51.6245
G0 Z25.0000
 X198.3755
G1 Z0.0000
 X198.6143
G0 Z25.0000
 X51.5843 Y52.1869
G1 Z0.0000
 X198.4157
G0 Z25.0000
 X51.5850 Y53.4520
G1 Z0.0000
 X198.4150
G0 Z25.0000
 X51.2688 Y54.7170
G1 Z0.0000
 X51.3023
G0 Z25.0000
 X198.6977
G1 Z0.0000
 X198.7312
G0 Z25.0000
 X51.5850 Y67.3675
G1 Z0.0000
 X198.4150
G0 Z25.0000
 X51.5850 Y68.6325
G1 Z0.0000
 X198.4150
G0 Z25.0000
 X51.2688 Y81.2830
G1 Z0.0000
 X51.3023
G0 Z25.0000
 X198.6977
G1 Z0.0000
 X198.7312
G0 Z25.0000
 X51.5850 Y82.5480
G1 Z0.0000
 X198.4150
G0 Z25.0000
 X51.5843 Y83.8131
G1 Z0.0000
 X198.4157
G0 Z25.0000
 X51.3857 Y96.4636
G1 Z0.0000
 X51.6245
G0 Z25.0000
 X198.3755
G1 Z0.0000
 X198.6143
G0 Z25.0000
 X51.5850 Y97.7286
G1 Z0.0000
 X198.4150
G0 Z25.0000
 X51.5687 Y98.9937
G1 Z0.0000
 X198.4313
G0 Z25.0000
 X51.4716 Y111.6441
G1 Z0.0000
 X198.5284
G0 Z25.0000
 X51.5850 Y112.9092
G1 Z0.0000
 X198.4150
G0 Z25.0000
 X51.5318 Y114.1742
G1 Z0.0000
 X198.4682
 Z-2.7500
 X51.5318
G0 Z25.0000
 X198.4150 Y112.9092
G1 Z-2.7500
 X51.5850
G0 Z25.0000
 X198.5284 Y111.6441
G1 Z-2.7500
 X51.4716
G0 Z25.0000
 X198.4313 Y98.9937
G1 Z-2.7500
 X51.5687
G0 Z25.0000
 X198.4150 Y97.7286
G1 Z-2.7500
 X51.5850
G0 Z25.0000
 X198.6143 Y96.4636
G1 Z-2.7500
 X198.3755
G0 Z25.0000
 X51.6245
G1 Z-2.7500
 X51.3857
G0 Z25.0000
 X198.4157 Y83.8131
G1 Z-2.7500
 X51.5843
G0 Z25.0000
 X198.4150 Y82.5480
G1 Z-2.7500
 X51.5850
G0 Z25.0000
 X198.7312 Y81.2830
G1 Z-2.7500
 X198.6977
G0 Z25.0000
 X51.3023
G1 Z-2.7500
 X51.2688
G0 Z25.0000
 X198.4150 Y68.6325
G1 Z-2.7500
 X51.5850
G0 Z25.0000
 X198.4150 Y67.3675
G1 Z-2.7500
 X51.5850
G0 Z25.0000
 X198.7312 Y54.7170
G1 Z-2.7500
 X198.6977
G0 Z25.0000
 X51.3023
G1 Z-2.7500
 X51.2688
G0 Z25.0000
 X198.4150 Y53.4520
G1 Z-2.7500
 X51.5850
G0 Z25.0000
 X198.4157 Y52.1869
G1 Z-2.7500
 X51.5843
G0 Z25.0000
 X198.6143 Y39.5364
G1 Z-2.7500
 X198.3755
G0 Z25.0000
 X51.6245
G1 Z-2.7500
 X51.3857
G0 Z25.0000
 X198.4150 Y38.2714
G1 Z-2.7500
 X51.5850
G0 Z25.0000
 X198.4313 Y37.0063
G1 Z-2.7500
 X51.5687
G0 Z25.0000
 X198.5284 Y24.3559
G1 Z-2.7500
 X51.4716
G0 Z25.0000
 X198.4150 Y23.0908
G1 Z-2.7500
 X51.5850
G0 Z25.0000
 X198.4682 Y21.8258
G1 Z-2.7500
 X51.5318
 Z-5.5000
 X198.4682
G0 Z25.0000
 X51.5850 Y23.0908
G1 Z-5.5000
 X198.4150
G0 Z25.0000
 X51.4716 Y24.3559
G1 Z-5.5000
 X198.5284
G0 Z25.0000
 X51.5687 Y37.0063
G1 Z-5.5000
 X198.4313
G0 Z25.0000
 X51.5850 Y38.2714
G1 Z-5.5000
 X198.4150
G0 Z25.0000
 X51.3857 Y39.5364
G1 Z-5.5000
 X51.6245
G0 Z25.0000
 X198.3755
G1 Z-5.5000
 X198.6143
G0 Z25.0000
 X51.5843 Y52.1869
G1 Z-5.5000
 X198.4157
G0 Z25.0000
 X51.5850 Y53.4520
G1 Z-5.5000
 X198.4150
G0 Z25.0000
 X51.2688 Y54.7170
G1 Z-5.5000
 X51.3023
G0 Z25.0000
 X198.6977
G1 Z-5.5000
 X198.7312
G0 Z25.0000
 X51.5850 Y67.3675
G1 Z-5.5000
 X198.4150
G0 Z25.0000
 X51.5850 Y68.6325
G1 Z-5.5000
 X198.4150
G0 Z25.0000
 X51.2688 Y81.2830
G1 Z-5.5000
 X51.3023
G0 Z25.0000
 X198.6977
G1 Z-5.5000
 X198.7312
G0 Z25.0000
 X51.5850 Y82.5480
G1 Z-5.5000
 X198.4150
G0 Z25.0000
 X51.5843 Y83.8131
G1 Z-5.5000
 X198.4157
G0 Z25.0000
 X51.3857 Y96.4636
G1 Z-5.5000
 X51.6245
G0 Z25.0000
 X198.3755
G1 Z-5.5000
 X198.6143
G0 Z25.0000
 X51.5850 Y97.7286
G1 Z-5.5000
 X198.4150
G0 Z25.0000
 X51.5687 Y98.9937
G1 Z-5.5000
 X198.4313
G0 Z25.0000
 X51.4716 Y111.6441
G1 Z-5.5000
 X198.5284
G0 Z25.0000
 X51.5850 Y112.9092
G1 Z-5.5000
 X198.4150
G0 Z25.0000
 X51.5318 Y114.1742
G1 Z-5.5000
 X198.4682
 Z-8.2500
 X51.5318
G0 Z25.0000
 X198.4150 Y112.9092
G1 Z-8.2500
 X51.5850
G0 Z25.0000
 X198.5284 Y111.6441
G1 Z-8.2500
 X51.4716
G0 Z25.0000
 X198.4313 Y98.9937
G1 Z-8.2500
 X51.5687
G0 Z25.0000
 X198.4150 Y97.7286
G1 Z-8.2500
 X51.5850
G0 Z25.0000
 X198.6143 Y96.4636
G1 Z-8.2500
 X198.3755
G0 Z25.0000
 X51.6245
G1 Z-8.2500
 X51.3857
G0 Z25.0000
 X198.4157 Y83.8131
G1 Z-8.2500
 X51.5843
G0 Z25.0000
 X198.4150 Y82.5480
G1 Z-8.2500
 X51.5850
G0 Z25.0000
 X198.7312 Y81.2830
G1 Z-8.2500
 X198.6977
G0 Z25.0000
 X51.3023
G1 Z-8.2500
 X51.2688
G0 Z25.0000
 X198.4150 Y68.6325
G1 Z-8.2500
 X51.5850
G0 Z25.0000
 X198.4150 Y67.3675
G1 Z-8.2500
 X51.5850
G0 Z25.0000
 X198.7312 Y54.7170
G1 Z-8.2500
 X198.6977
G0 Z25.0000
 X51.3023
G1 Z-8.2500
 X51.2688
G0 Z25.0000
 X198.4150 Y53.4520
G1 Z-8.2500
 X51.5850
G0 Z25.0000
 X198.4157 Y52.1869
G1 Z-8.2500
 X51.5843
G0 Z25.0000
 X198.6143 Y39.5364
G1 Z-8.2500
 X198.3755
G0 Z25.0000
 X51.6245
G1 Z-8.2500
 X51.3857
G0 Z25.0000
 X198.4150 Y38.2714
G1 Z-8.2500
 X51.5850
G0 Z25.0000
 X198.4313 Y37.0063
G1 Z-8.2500
 X51.5687
G0 Z25.0000
 X198.5284 Y24.3559
G1 Z-8.2500
 X51.4716
G0 Z25.0000
 X198.4150 Y23.0908
G1 Z-8.2500
 X51.5850
G0 Z25.0000
 X198.4682 Y21.8258
G1 Z-8.2500
 X51.5318
G0 Z25.0000
M5 (stop spindle)
G04 P3 (wait for 3 seconds)
G0 Z25.0000
M2 (end program)
