;PYCAM-META-DATA: Filename: /home/framlin/tinker/acrylic-lamp/cad/socket-f360-bottom.stl
;PYCAM-META-DATA: Timestamp: 2016-05-20 20:50:58.670581
;PYCAM-META-DATA: Version: 0.5.1
;Estimated machine time: 212 minutes
G40 (disable tool radius compensation)
G49 (disable tool length compensation)
G80 (cancel modal motion)
G54 (select coordinate system 1)
G90 (disable incremental moves)
G21 (metric)
G61 (exact path mode)
F400.00000
S1000.00000
;PYCAM_TOOLPATH_SETTINGS: START
;[Bounds]
;maxz = 0.0
;maxx = 248.4125
;maxy = 133.4125
;minx = 1.5875
;miny = 1.5875
;minz = -19.0
;
;[Tool]
;torus_radius = 0.125
;speed = 1000.0
;shape = SphericalCutter
;tool_radius = 1.5875
;feedrate = 400.0
;
;[Process]
;engrave_offset = 0.0
;step_down = 1.5
;generator = ContourFollow
;postprocessor = SimpleCutter
;overlap_percent = 0
;milling_style = conventional
;material_allowance = 0.0
;pocketing_type = none
;path_direction = x
;
;PYCAM_TOOLPATH_SETTINGS: END
T4 M6
G0 Z25.0000
M3 (start spindle)
G04 P3 (wait for 3 seconds)
 X1.5875 Y123.4175
G1 Z-1.4615
 X218.4175
 Y11.5825
 X31.5825
 Y108.5825
G0 Z25.0000
 X178.3462 Y123.4175
G1 Z-1.4615
 X218.4175
 Y96.9872
G0 Z25.0000
 Y11.5825
G1 Z-1.4615
 X173.7179
G0 Z25.0000
 X31.5825 Y108.5825
G1 Z-1.4615
 X1.5875
G0 Z25.0000
 X136.6923 Y123.4125
G1 Z-2.9231
 X218.4125
 Y68.9744
G0 Z25.0000
 X14.6154 Y108.5875
G1 Z-2.9231
 X1.5875
G0 Z25.0000
 X31.5875 Y11.5875
G1 Z-2.9231
 Y57.2564
G0 Z25.0000
 Y11.5875
G1 Z-2.9231
G0 Z25.0000
 X1.5875 Y123.4125
G1 Z-2.9231
 X23.8718
G0 Z25.0000
 X95.0385
G1 Z-4.3846
 X218.4125
 Y40.9615
G0 Z25.0000
 Y11.5875
G1 Z-4.3846
 X81.1538
G0 Z25.0000
 X1.5875 Y123.4125
G1 Z-4.3846
 X35.8077
G0 Z25.0000
 X1.5875
G1 Z-4.3846
 X218.4125
 Y11.5875
 X31.5875
 Y108.5875
 X1.5875
G0 Z25.0000
 X53.3846 Y123.4125
G1 Z-5.8462
 X218.4125
 Y12.9487
 Y11.5875
 X34.8718
G0 Z25.0000
 X1.5875 Y123.4125
G1 Z-5.8462
 X218.4125
 Y11.5875
 X31.5875
 Y108.5875
 X1.5875
G0 Z25.0000
 X192.4893 Y99.0500
G1 Z-7.3077
 Y99.0434
G0 Z25.0000
 Y84.0500
G1 Z-7.3077
 Y84.0434
G0 Z25.0000
 Y69.0500
G1 Z-7.3077
 Y69.0434
G0 Z25.0000
 Y54.0500
G1 Z-7.3077
 Y54.0434
G0 Z25.0000
 Y39.0500
G1 Z-7.3077
 Y39.0434
G0 Z25.0000
 Y24.0500
G1 Z-7.3077
 Y24.0434
G0 Z25.0000
 X57.6146 Y114.0499
G1 Z-7.3077
 X86.1289
G0 Z25.0000
 X57.6146 Y99.0499
G1 Z-7.3077
 X92.1443
G0 Z25.0000
 X57.6146 Y84.0500
G1 Z-7.3077
 X92.1443
G0 Z25.0000
 X57.6146 Y69.0500
G1 Z-7.3077
 X92.1443
G0 Z25.0000
 X57.6146 Y54.0500
G1 Z-7.3077
 X92.1443
G0 Z25.0000
 X57.6146 Y39.0500
G1 Z-7.3077
 X92.1443
G0 Z25.0000
 X57.6146 Y24.0500
G1 Z-7.3077
 X92.1443
G0 Z25.0000
 X57.6147 Y81.1753
G1 Z-7.3077
 Y81.1819
G0 Z25.0000
 X192.4893 Y81.1753
G1 Z-7.3077
 X57.6147
 Y84.0500
 X192.4893
 Y81.1753
 X157.9597
G0 Z25.0000
 X57.6147 Y96.1753
G1 Z-7.3077
 Y96.1818
G0 Z25.0000
 Y21.1753
G1 Z-7.3077
 Y21.1819
G0 Z25.0000
 X192.4893 Y96.1753
G1 Z-7.3077
 X57.6147
 Y99.0499
 X192.4893
 Y96.1753
 X157.9597
G0 Z25.0000
 X192.4893 Y21.1753
G1 Z-7.3077
 X57.6147
 Y24.0500
 X192.4893
 Y21.1753
 X157.9597
G0 Z25.0000
 X57.6147 Y66.1753
G1 Z-7.3077
 Y66.1819
G0 Z25.0000
 X192.4893 Y111.1753
G1 Z-7.3077
 X57.6147
 Y114.0499
 X192.4893
 Y111.1753
 X157.9597
G0 Z25.0000
 X57.6147 Y36.1753
G1 Z-7.3077
 Y36.1819
G0 Z25.0000
 X192.4893 Y66.1753
G1 Z-7.3077
 X57.6147
 Y69.0500
 X192.4893
 Y66.1753
 X157.9597
G0 Z25.0000
 X57.6147 Y51.1753
G1 Z-7.3077
 Y51.1819
G0 Z25.0000
 X192.4893 Y51.1753
G1 Z-7.3077
 X57.6147
 Y54.0500
 X192.4893
 Y51.1753
 X157.9597
G0 Z25.0000
 X192.4893 Y36.1753
G1 Z-7.3077
 X57.6147
 Y39.0500
 X192.4893
 Y36.1753
 X157.9597
G0 Z25.0000
 X1.5875 Y123.4125
G1 Z-7.3077
 X47.4374
G0 Z25.0000
 X36.1846
G1 Z-7.3077
 X47.4374
G0 Z25.0000
 X34.9692 Y108.5875
G1 Z-7.3077
 X22.1538
G0 Z25.0000
 X47.4373 Y108.5627
G1 Z-7.3077
 Y108.5626
G0 Z25.0000
 X192.4645 Y99.0251
G1 Z-8.7692
 Y97.2895
G0 Z25.0000
 Y84.0251
G1 Z-8.7692
 Y82.2895
G0 Z25.0000
 Y69.0251
G1 Z-8.7692
 Y67.2895
G0 Z25.0000
 Y54.0251
G1 Z-8.7692
 Y52.2895
G0 Z25.0000
 Y39.0251
G1 Z-8.7692
 Y37.2895
G0 Z25.0000
 Y24.0251
G1 Z-8.7692
 Y22.2895
G0 Z25.0000
 X57.6395 Y114.0251
G1 Z-8.7692
 X119.7443
G0 Z25.0000
 X57.6395 Y99.0251
G1 Z-8.7692
 X132.4828
G0 Z25.0000
 X57.6395 Y84.0251
G1 Z-8.7692
 X132.4828
G0 Z25.0000
 X57.6395 Y69.0251
G1 Z-8.7692
 X132.4828
G0 Z25.0000
 X57.6395 Y54.0251
G1 Z-8.7692
 X132.4828
G0 Z25.0000
 X57.6395 Y39.0251
G1 Z-8.7692
 X132.4828
G0 Z25.0000
 X192.4645 Y66.2001
G1 Z-8.7692
 X117.6212
G0 Z25.0000
 X57.6395 Y24.0251
G1 Z-8.7692
 X132.4828
G0 Z25.0000
 X57.6395 Y81.2001
G1 Z-8.7692
 Y82.9357
G0 Z25.0000
 X192.4645 Y81.2001
G1 Z-8.7692
 X57.6395
 Y84.0251
 X192.4645
 Y81.2001
 X117.6212
G0 Z25.0000
 X57.6395 Y96.2001
G1 Z-8.7692
 Y97.9357
G0 Z25.0000
 X192.4645 Y96.2001
G1 Z-8.7692
 X57.6395
 Y99.0251
 X192.4645
 Y96.2001
 X117.6212
G0 Z25.0000
 X57.6395 Y21.2001
G1 Z-8.7692
 Y22.9357
G0 Z25.0000
 X192.4645 Y21.2001
G1 Z-8.7692
 X57.6395
 Y24.0251
 X192.4645
 Y21.2001
 X117.6212
G0 Z25.0000
 X57.6395 Y111.2001
G1 Z-8.7692
 Y112.8909
G0 Z25.0000
 X192.4645
G1 Z-8.7692
 Y111.2001
 X57.6395
 Y114.0251
 X192.4645
 Y111.2001
 X117.6212
G0 Z25.0000
 X57.6395 Y66.2001
G1 Z-8.7692
 Y69.0251
 X192.4645
 Y66.2001
 X57.6395
G0 Z25.0000
 X192.4645 Y51.2001
G1 Z-8.7692
 X57.6395
 Y54.0251
 X192.4645
 Y51.2001
 X117.6212
G0 Z25.0000
 X57.6395 Y36.2001
G1 Z-8.7692
 Y37.9357
G0 Z25.0000
 X192.4645 Y36.2001
G1 Z-8.7692
 X57.6395
 Y39.0251
 X192.4645
 Y36.2001
 X117.6212
G0 Z25.0000
 X1.5875 Y123.4125
G1 Z-8.7692
 X47.4125
G0 Z25.0000
 X21.8615
G1 Z-8.7692
 X47.4125
 Y115.0308
G0 Z25.0000
 X40.5231 Y108.5875
G1 Z-8.7692
 X13.3846
G0 Z25.0000
 X1.5875 Y123.4125
G1 Z-8.7692
 X47.4125
 Y108.5875
 X30.0000
 X1.5875
G0 Z25.0000
 X192.4645 Y99.0251
G1 Z-10.2308
 Y96.2001
G0 Z25.0000
 Y84.0251
G1 Z-10.2308
 Y81.2001
G0 Z25.0000
 Y69.0251
G1 Z-10.2308
 Y66.2001
G0 Z25.0000
 Y54.0251
G1 Z-10.2308
 Y51.2001
G0 Z25.0000
 Y39.0251
G1 Z-10.2308
 Y36.2001
G0 Z25.0000
 Y24.0251
G1 Z-10.2308
 Y21.2001
G0 Z25.0000
 X57.6395 Y114.0251
G1 Z-10.2308
 X153.3597
G0 Z25.0000
 X57.6395 Y84.0251
G1 Z-10.2308
 X172.8212
G0 Z25.0000
 X57.6395 Y69.0251
G1 Z-10.2308
 X172.8212
G0 Z25.0000
 X57.6395 Y54.0251
G1 Z-10.2308
 X172.8212
G0 Z25.0000
 X57.6395 Y39.0251
G1 Z-10.2308
 X172.8212
G0 Z25.0000
 X192.4645 Y96.2001
G1 Z-10.2308
 X77.2828
G0 Z25.0000
 X57.6395 Y24.0251
G1 Z-10.2308
 X172.8212
G0 Z25.0000
 X57.6395 Y81.2001
G1 Z-10.2308
 Y84.0251
G0 Z25.0000
 X192.4645 Y81.2001
G1 Z-10.2308
 X57.6395
 Y84.0251
 X192.4645
 Y81.2001
 X77.2828
G0 Z25.0000
 X57.6395 Y96.2001
G1 Z-10.2308
 Y99.0251
 X192.4645
 Y96.2001
 X57.6395
 Y99.0251
 X172.8212
G0 Z25.0000
 X57.6395 Y21.2001
G1 Z-10.2308
 Y24.0251
G0 Z25.0000
 X192.4645 Y21.2001
G1 Z-10.2308
 X57.6395
 Y24.0251
 X192.4645
 Y21.2001
 X77.2828
G0 Z25.0000
 X57.6395 Y111.2001
G1 Z-10.2308
 Y114.0251
G0 Z25.0000
 X192.4645
G1 Z-10.2308
 Y111.2001
 X57.6395
 Y114.0251
 X192.4645
 Y111.2001
 X77.2828
G0 Z25.0000
 X57.6395 Y66.2001
G1 Z-10.2308
 Y69.0251
G0 Z25.0000
 X192.4645 Y66.2001
G1 Z-10.2308
 X57.6395
 Y69.0251
 X192.4645
 Y66.2001
 X77.2828
G0 Z25.0000
 X57.6395 Y51.2001
G1 Z-10.2308
 Y54.0251
G0 Z25.0000
 X192.4645 Y51.2001
G1 Z-10.2308
 X57.6395
 Y54.0251
 X192.4645
 Y51.2001
 X77.2828
G0 Z25.0000
 X57.6395 Y36.2001
G1 Z-10.2308
 Y39.0251
G0 Z25.0000
 X192.4645 Y36.2001
G1 Z-10.2308
 X57.6395
 Y39.0251
 X192.4645
 Y36.2001
 X77.2828
G0 Z25.0000
 X1.5875 Y123.4125
G1 Z-10.2308
 X47.4125
G0 Z25.0000
 X7.5385
G1 Z-10.2308
 X47.4125
 Y109.7692
 X46.0769 Y108.5875
 X4.6154
G0 Z25.0000
 X1.5875 Y123.4125
G1 Z-10.2308
 X47.4125
 Y108.5875
 X30.0000
 X1.5875
G0 Z25.0000
 X57.6395 Y84.0251
G1 Z-11.6923
 X192.4645
G0 Z25.0000
 X57.6395 Y39.0251
G1 Z-11.6923
 X192.4645
G0 Z25.0000
 X57.6395 Y99.0251
G1 Z-11.6923
 X192.4645
G0 Z25.0000
 X57.6395 Y69.0251
G1 Z-11.6923
 X192.4645
G0 Z25.0000
 X57.6395 Y54.0251
G1 Z-11.6923
 X192.4645
G0 Z25.0000
 X57.6395 Y24.0251
G1 Z-11.6923
 X192.4645
G0 Z25.0000
 X57.6395 Y111.2001
G1 Z-11.6923
 Y114.0251
G0 Z25.0000
 X192.4645
G1 Z-11.6923
 Y111.2001
 X57.6395
 Y114.0251
 X192.4645
 Y111.2001
G0 Z25.0000
 Y96.2001
G1 Z-11.6923
 X57.6395
 Y99.0251
 X192.4645
 Y96.2001
 X57.6395
G0 Z25.0000
 X192.4645 Y81.2001
G1 Z-11.6923
 X57.6395
 Y84.0251
 X192.4645
 Y81.2001
 X57.6395
G0 Z25.0000
 X192.4645 Y66.2001
G1 Z-11.6923
 X57.6395
 Y69.0251
 X192.4645
 Y66.2001
 X57.6395
G0 Z25.0000
 X192.4645 Y21.2001
G1 Z-11.6923
 X57.6395
 Y24.0251
 X192.4645
 Y21.2001
 X57.6395
G0 Z25.0000
 X192.4645 Y36.2001
G1 Z-11.6923
 X57.6395
 Y39.0251
 X192.4645
 Y36.2001
 X57.6395
G0 Z25.0000
 X192.4645 Y51.2001
G1 Z-11.6923
 X57.6395
 Y54.0251
 X192.4645
 Y51.2001
 X57.6395
G0 Z25.0000
 Y114.0251
G1 Z-11.6923
 X186.9751
G0 Z25.0000
 X57.6395 Y99.0251
G1 Z-11.6923
 X68.6001
G0 Z25.0000
 X57.6395 Y84.0251
G1 Z-11.6923
 X68.6001
G0 Z25.0000
 X57.6395 Y39.0251
G1 Z-11.6923
 X68.6001
G0 Z25.0000
 X192.4645 Y21.2001
G1 Z-11.6923
 X181.5039
G0 Z25.0000
 X192.4645 Y96.2001
G1 Z-11.6923
 X181.5039
G0 Z25.0000
 X192.4645 Y81.2001
G1 Z-11.6923
 X181.5039
G0 Z25.0000
 X192.4645 Y66.2001
G1 Z-11.6923
 X181.5039
G0 Z25.0000
 X57.6395 Y69.0251
G1 Z-11.6923
 X68.6001
G0 Z25.0000
 X57.6395 Y54.0251
G1 Z-11.6923
 X68.6001
G0 Z25.0000
 X192.4645 Y51.2001
G1 Z-11.6923
 X181.5039
G0 Z25.0000
 X192.4645 Y36.2001
G1 Z-11.6923
 X181.5039
G0 Z25.0000
 X57.6395 Y24.0251
G1 Z-11.6923
 X68.6001
G0 Z25.0000
 X192.4645 Y114.0047
G1 Z-13.1538
 Y111.2001
G0 Z25.0000
 X57.6395 Y84.0251
G1 Z-13.1538
 X192.4645
G0 Z25.0000
 X57.6395 Y39.0251
G1 Z-13.1538
 X192.4645
G0 Z25.0000
 X57.6395 Y99.0251
G1 Z-13.1538
 X192.4645
G0 Z25.0000
 X57.6395 Y69.0251
G1 Z-13.1538
 X192.4645
G0 Z25.0000
 X57.6395 Y54.0251
G1 Z-13.1538
 X192.4645
G0 Z25.0000
 X57.6395 Y24.0251
G1 Z-13.1538
 X192.4645
G0 Z25.0000
 X57.6395 Y111.2001
G1 Z-13.1538
 Y114.0047
G0 Z25.0000
 X170.1791
G1 Z-13.1538
 X192.4645
G0 Z25.0000
 X57.6395 Y99.0251
G1 Z-13.1538
 X95.0905
G0 Z25.0000
 X57.6395 Y84.0251
G1 Z-13.1538
 X95.0905
G0 Z25.0000
 X57.6395 Y39.0251
G1 Z-13.1538
 X95.0905
G0 Z25.0000
 X192.4645 Y21.2001
G1 Z-13.1538
 X155.0135
G0 Z25.0000
 X57.6395 Y114.0047
G1 Z-13.1538
 X192.4645
 Y111.2001
 X57.6395
 Y114.0047
G0 Z25.0000
 X192.4645 Y96.2001
G1 Z-13.1538
 X155.0135
G0 Z25.0000
 X192.4645
G1 Z-13.1538
 X57.6395
 Y99.0251
 X192.4645
 Y96.2001
 X57.6395
G0 Z25.0000
 X192.4645 Y81.2001
G1 Z-13.1538
 X155.0135
G0 Z25.0000
 X192.4645
G1 Z-13.1538
 X57.6395
 Y84.0251
 X192.4645
 Y81.2001
 X57.6395
G0 Z25.0000
 Y69.0251
G1 Z-13.1538
 X95.0905
G0 Z25.0000
 X192.4645 Y66.2001
G1 Z-13.1538
 X155.0135
G0 Z25.0000
 X192.4645
G1 Z-13.1538
 X57.6395
 Y69.0251
 X192.4645
 Y66.2001
 X57.6395
G0 Z25.0000
 X192.4645 Y51.2001
G1 Z-13.1538
 X155.0135
G0 Z25.0000
 X57.6395 Y54.0251
G1 Z-13.1538
 X95.0905
G0 Z25.0000
 X192.4645 Y36.2001
G1 Z-13.1538
 X155.0135
G0 Z25.0000
 X192.4645
G1 Z-13.1538
 X57.6395
 Y39.0251
 X192.4645
 Y36.2001
 X57.6395
G0 Z25.0000
 Y24.0251
G1 Z-13.1538
 X95.0905
G0 Z25.0000
 X192.4645 Y21.2001
G1 Z-13.1538
 X57.6395
 Y24.0251
 X192.4645
 Y21.2001
 X57.6395
G0 Z25.0000
 X192.4645 Y51.2001
G1 Z-13.1538
 X57.6395
 Y54.0251
 X192.4645
 Y51.2001
 X57.6395
G0 Z25.0000
 X192.4645 Y113.9443
G1 Z-14.6154
 Y111.2001
G0 Z25.0000
 X57.6395 Y84.0251
G1 Z-14.6154
 X192.4645
G0 Z25.0000
 X57.6395 Y39.0251
G1 Z-14.6154
 X192.4645
G0 Z25.0000
 X57.6395 Y99.0251
G1 Z-14.6154
 X192.4645
G0 Z25.0000
 X57.6395 Y69.0251
G1 Z-14.6154
 X192.4645
G0 Z25.0000
 X57.6395 Y54.0251
G1 Z-14.6154
 X192.4645
G0 Z25.0000
 X57.6395 Y24.0251
G1 Z-14.6154
 X192.4645
G0 Z25.0000
 X57.6395 Y111.2001
G1 Z-14.6154
 Y113.9443
G0 Z25.0000
 X139.9401
G1 Z-14.6154
 X192.4645
G0 Z25.0000
 X57.6395 Y99.0251
G1 Z-14.6154
 X121.5808
G0 Z25.0000
 X57.6395 Y84.0251
G1 Z-14.6154
 X121.5808
G0 Z25.0000
 X192.4645 Y21.2001
G1 Z-14.6154
 X128.5231
G0 Z25.0000
 X57.6395 Y39.0251
G1 Z-14.6154
 X121.5808
G0 Z25.0000
 X57.6395 Y113.9443
G1 Z-14.6154
 X192.4645
 Y111.2001
 X57.6395
 Y113.9443
G0 Z25.0000
 X192.4645 Y96.2001
G1 Z-14.6154
 X128.5231
G0 Z25.0000
 X192.4645
G1 Z-14.6154
 X57.6395
 Y99.0251
 X192.4645
 Y96.2001
 X57.6395
G0 Z25.0000
 X192.4645 Y81.2001
G1 Z-14.6154
 X57.6395
 Y84.0251
 X192.4645
 Y81.2001
 X57.6395
G0 Z25.0000
 X192.4645
G1 Z-14.6154
 X128.5231
G0 Z25.0000
 X57.6395 Y69.0251
G1 Z-14.6154
 X121.5808
G0 Z25.0000
 X192.4645 Y66.2001
G1 Z-14.6154
 X128.5231
G0 Z25.0000
 X192.4645
G1 Z-14.6154
 X57.6395
 Y69.0251
 X192.4645
 Y66.2001
 X57.6395
G0 Z25.0000
 Y54.0251
G1 Z-14.6154
 X121.5808
G0 Z25.0000
 X192.4645 Y51.2001
G1 Z-14.6154
 X128.5231
G0 Z25.0000
 X192.4645 Y36.2001
G1 Z-14.6154
 X128.5231
G0 Z25.0000
 X192.4645 Y21.2001
G1 Z-14.6154
 X57.6395
 Y24.0251
 X192.4645
 Y21.2001
 X57.6395
 Y24.0251
 X121.5808
G0 Z25.0000
 X192.4645 Y36.2001
G1 Z-14.6154
 X57.6395
 Y39.0251
 X192.4645
 Y36.2001
 X57.6395
G0 Z25.0000
 X192.4645 Y51.2001
G1 Z-14.6154
 X57.6395
 Y54.0251
 X192.4645
 Y51.2001
 X57.6395
G0 Z25.0000
 X192.4645 Y113.9443
G1 Z-16.0769
 Y111.2001
G0 Z25.0000
 X57.6395 Y84.0251
G1 Z-16.0769
 X192.4645
G0 Z25.0000
 X57.6395 Y39.0251
G1 Z-16.0769
 X192.4645
G0 Z25.0000
 X57.6395 Y99.0251
G1 Z-16.0769
 X192.4645
G0 Z25.0000
 X57.6395 Y69.0251
G1 Z-16.0769
 X192.4645
G0 Z25.0000
 X57.6395 Y54.0251
G1 Z-16.0769
 X192.4645
G0 Z25.0000
 X57.6395 Y24.0251
G1 Z-16.0769
 X192.4645
G0 Z25.0000
 X57.6395 Y111.2001
G1 Z-16.0769
 Y113.9443
G0 Z25.0000
 X109.7012
G1 Z-16.0769
 X192.4645
G0 Z25.0000
 X57.6395 Y99.0251
G1 Z-16.0769
 X148.0712
G0 Z25.0000
 X57.6395 Y84.0251
G1 Z-16.0769
 X148.0712
G0 Z25.0000
 X57.6395 Y39.0251
G1 Z-16.0769
 X148.0712
G0 Z25.0000
 X192.4645 Y21.2001
G1 Z-16.0769
 X102.0328
G0 Z25.0000
 X57.6395 Y113.9443
G1 Z-16.0769
 X192.4645
 Y111.2001
 X57.6395
 Y113.9443
G0 Z25.0000
 X192.4645 Y96.2001
G1 Z-16.0769
 X102.0328
G0 Z25.0000
 X192.4645
G1 Z-16.0769
 X57.6395
 Y99.0251
 X192.4645
 Y96.2001
 X57.6395
G0 Z25.0000
 X192.4645 Y81.2001
G1 Z-16.0769
 X102.0328
G0 Z25.0000
 X192.4645
G1 Z-16.0769
 X57.6395
 Y84.0251
 X192.4645
 Y81.2001
 X57.6395
G0 Z25.0000
 Y69.0251
G1 Z-16.0769
 X148.0712
G0 Z25.0000
 X192.4645 Y66.2001
G1 Z-16.0769
 X102.0328
G0 Z25.0000
 X192.4645
G1 Z-16.0769
 X57.6395
 Y69.0251
 X192.4645
 Y66.2001
 X57.6395
G0 Z25.0000
 Y54.0251
G1 Z-16.0769
 X148.0712
G0 Z25.0000
 X192.4645 Y36.2001
G1 Z-16.0769
 X102.0328
G0 Z25.0000
 X192.4645 Y51.2001
G1 Z-16.0769
 X102.0328
G0 Z25.0000
 X192.4645 Y21.2001
G1 Z-16.0769
 X57.6395
 Y24.0251
 X192.4645
 Y21.2001
 X57.6395
 Y24.0251
 X148.0712
G0 Z25.0000
 X192.4645 Y51.2001
G1 Z-16.0769
 X57.6395
 Y54.0251
 X192.4645
 Y51.2001
 X57.6395
G0 Z25.0000
 X192.4645 Y36.2001
G1 Z-16.0769
 X57.6395
 Y39.0251
 X192.4645
 Y36.2001
 X57.6395
G0 Z25.0000
 X192.4645 Y113.9443
G1 Z-17.5385
 Y111.2001
G0 Z25.0000
 X57.6395 Y84.0251
G1 Z-17.5385
 X192.4645
G0 Z25.0000
 X57.6395 Y39.0251
G1 Z-17.5385
 X192.4645
G0 Z25.0000
 X57.6395 Y99.0251
G1 Z-17.5385
 X192.4645
G0 Z25.0000
 X57.6395 Y69.0251
G1 Z-17.5385
 X192.4645
G0 Z25.0000
 X57.6395 Y54.0251
G1 Z-17.5385
 X192.4645
G0 Z25.0000
 X57.6395 Y24.0251
G1 Z-17.5385
 X192.4645
G0 Z25.0000
 X57.6395 Y111.2001
G1 Z-17.5385
 Y113.9443
G0 Z25.0000
 X79.4622
G1 Z-17.5385
 X192.4645
G0 Z25.0000
 X57.6395 Y99.0251
G1 Z-17.5385
 X174.5616
G0 Z25.0000
 X57.6395 Y84.0251
G1 Z-17.5385
 X174.5616
G0 Z25.0000
 X57.6395 Y39.0251
G1 Z-17.5385
 X174.5616
G0 Z25.0000
 X192.4645 Y21.2001
G1 Z-17.5385
 X75.5424
G0 Z25.0000
 X57.6395 Y113.9443
G1 Z-17.5385
 X192.4645
 Y111.2001
 X57.6395
 Y113.9443
G0 Z25.0000
 X192.4645 Y96.2001
G1 Z-17.5385
 X75.5424
G0 Z25.0000
 X192.4645
G1 Z-17.5385
 X57.6395
 Y99.0251
 X192.4645
 Y96.2001
 X57.6395
G0 Z25.0000
 X192.4645 Y81.2001
G1 Z-17.5385
 X57.6395
 Y84.0251
 X192.4645
 Y81.2001
 X57.6395
G0 Z25.0000
 X192.4645
G1 Z-17.5385
 X75.5424
G0 Z25.0000
 X57.6395 Y69.0251
G1 Z-17.5385
 X174.5616
G0 Z25.0000
 X192.4645 Y66.2001
G1 Z-17.5385
 X75.5424
G0 Z25.0000
 X192.4645
G1 Z-17.5385
 X57.6395
 Y69.0251
 X192.4645
 Y66.2001
 X57.6395
G0 Z25.0000
 Y54.0251
G1 Z-17.5385
 X174.5616
G0 Z25.0000
 X192.4645 Y51.2001
G1 Z-17.5385
 X75.5424
G0 Z25.0000
 X192.4645 Y36.2001
G1 Z-17.5385
 X75.5424
G0 Z25.0000
 X192.4645 Y21.2001
G1 Z-17.5385
 X57.6395
 Y24.0251
 X192.4645
 Y21.2001
 X57.6395
G0 Z25.0000
 X192.4645 Y36.2001
G1 Z-17.5385
 X57.6395
 Y39.0251
 X192.4645
 Y36.2001
 X57.6395
G0 Z25.0000
 Y24.0251
G1 Z-17.5385
 X174.5616
G0 Z25.0000
 X192.4645 Y51.2001
G1 Z-17.5385
 X57.6395
 Y54.0251
 X192.4645
 Y51.2001
 X57.6395
G0 Z25.0000
 X192.4645 Y113.9443
G1 Z-19.0000
 Y111.2001
G0 Z25.0000
 X57.6395 Y84.0251
G1 Z-19.0000
 X192.4645
G0 Z25.0000
 X57.6395 Y39.0251
G1 Z-19.0000
 X192.4645
G0 Z25.0000
 X57.6395 Y99.0251
G1 Z-19.0000
 X192.4645
G0 Z25.0000
 X57.6395 Y69.0251
G1 Z-19.0000
 X192.4645
G0 Z25.0000
 X57.6395 Y54.0251
G1 Z-19.0000
 X192.4645
G0 Z25.0000
 X57.6395 Y24.0251
G1 Z-19.0000
 X192.4645
G0 Z25.0000
 X57.6395 Y111.2001
G1 Z-19.0000
 Y113.9443
 X192.4645
G0 Z25.0000
 X57.6395 Y99.0251
G1 Z-19.0000
 X192.4645
G0 Z25.0000
 X57.6395 Y84.0251
G1 Z-19.0000
 X192.4645
G0 Z25.0000
 X57.6395 Y39.0251
G1 Z-19.0000
 X192.4645
G0 Z25.0000
 Y21.2001
G1 Z-19.0000
 X57.6395
G0 Z25.0000
 Y113.9443
G1 Z-19.0000
 X192.4645
 Y111.2001
 X57.6395
 Y113.9443
G0 Z25.0000
 X192.4645 Y96.2001
G1 Z-19.0000
 X57.6395
G0 Z25.0000
 X192.4645
G1 Z-19.0000
 X57.6395
 Y99.0251
 X192.4645
 Y96.2001
 X57.6395
G0 Z25.0000
 X192.4645 Y81.2001
G1 Z-19.0000
 X57.6395
G0 Z25.0000
 X192.4645
G1 Z-19.0000
 X57.6395
 Y84.0251
 X192.4645
 Y81.2001
 X57.6395
G0 Z25.0000
 Y69.0251
G1 Z-19.0000
 X192.4645
 Y66.2001
 X57.6395
G0 Z25.0000
 X192.4645
G1 Z-19.0000
 X57.6395
 Y69.0251
 X192.4645
 Y66.2001
 X57.6395
G0 Z25.0000
 Y54.0251
G1 Z-19.0000
 X192.4645
 Y51.2001
 X57.6395
G0 Z25.0000
 X192.4645 Y36.2001
G1 Z-19.0000
 X57.6395
G0 Z25.0000
 X192.4645 Y21.2001
G1 Z-19.0000
 X57.6395
 Y24.0251
 X192.4645
 Y21.2001
 X57.6395
 Y24.0251
 X192.4645
G0 Z25.0000
 Y36.2001
G1 Z-19.0000
 X57.6395
 Y39.0251
 X192.4645
 Y36.2001
 X57.6395
G0 Z25.0000
 X192.4645 Y51.2001
G1 Z-19.0000
 X57.6395
 Y54.0251
 X192.4645
 Y51.2001
 X57.6395
G0 Z25.0000
M5 (stop spindle)
G04 P3 (wait for 3 seconds)
G0 Z25.0000
M2 (end program)
