;PYCAM-META-DATA: Filename: /home/framlin/tinker/acrylic-lamp/cad/socket-f360-bottom.stl
;PYCAM-META-DATA: Timestamp: 2016-05-20 20:47:58.610886
;PYCAM-META-DATA: Version: 0.5.1
;Estimated machine time: 72 minutes
G40 (disable tool radius compensation)
G49 (disable tool length compensation)
G80 (cancel modal motion)
G54 (select coordinate system 1)
G90 (disable incremental moves)
G21 (metric)
G61 (exact path mode)
F400.00000
S1000.00000
;PYCAM_TOOLPATH_SETTINGS: START
;[Bounds]
;maxz = 0.0
;maxx = 248.4125
;maxy = 133.4125
;minx = 1.5875
;miny = 1.5875
;minz = -19.0
;
;[Tool]
;torus_radius = 0.125
;speed = 1000.0
;shape = SphericalCutter
;tool_radius = 1.5875
;feedrate = 400.0
;
;[Process]
;engrave_offset = 0.0
;step_down = 2.0
;generator = PushCutter
;postprocessor = SimpleCutter
;overlap_percent = 0
;milling_style = ignore
;material_allowance = 0.5
;pocketing_type = none
;path_direction = x
;
;PYCAM_TOOLPATH_SETTINGS: END
T4 M6
G0 Z25.0000
M3 (start spindle)
G04 P3 (wait for 3 seconds)
 X31.3555 Y14.1423
G1 Z0.0000
 X218.6445
 Y17.2810
 X31.3555
 Y20.4196
 X218.6445
 Y23.5583
 X31.3555
 Y26.6970
 X218.6445
 Y29.8357
 X31.3555
 Y32.9744
 X218.6445
 Y36.1131
 X31.3555
 Y39.2518
 X218.6445
 Y42.3905
 X31.3555
 Y45.5292
 X218.6445
 Y48.6679
 X31.3555
 Y51.8065
 X218.6445
 Y54.9452
 X31.3555
 Y58.0839
 X218.6445
 Y61.2226
 X31.3555
 Y64.3613
 X218.6445
 Y67.5000
 X31.3555
 Y70.6387
 X218.6445
 Y73.7774
 X31.3555
 Y76.9161
 X218.6445
 Y80.0548
 X31.3555
 Y83.1935
 X218.6445
 Y86.3321
 X31.3555
 Y89.4708
 X218.6445
 Y92.6095
 X31.3555
 Y95.7482
 X218.6445
 Y98.8869
 X31.3555
 Y102.0256
 X218.6445
 Y105.1643
 X31.3555
G0 Z25.0000
 X30.3738 Y108.3030
G1 Z0.0000
 X218.6445
 Y111.4417
 X1.5875
 Y114.5804
 X218.6445
 Y117.7190
 X1.5875
 Y120.8577
 X218.6445
G0 Z25.0000
 X217.9125
G1 Z-1.9000
 X1.5875
 Y117.7190
 X217.9125
 Y114.5804
 X1.5875
 Y111.4417
 X217.9125
 Y108.3030
 X31.6309
 X32.0875 Y105.1643
 X217.9125
 Y102.0256
 X32.0875
 Y98.8869
 X217.9125
 Y95.7482
 X32.0875
 Y92.6095
 X217.9125
 Y89.4708
 X32.0875
 Y86.3321
 X217.9125
 Y83.1935
 X32.0875
 Y80.0548
 X217.9125
 Y76.9161
 X32.0875
 Y73.7774
 X217.9125
 Y70.6387
 X32.0875
 Y67.5000
 X217.9125
 Y64.3613
 X32.0875
 Y61.2226
 X217.9125
 Y58.0839
 X32.0875
 Y54.9452
 X217.9125
 Y51.8065
 X32.0875
 Y48.6679
 X217.9125
 Y45.5292
 X32.0875
 Y42.3905
 X217.9125
 Y39.2518
 X32.0875
 Y36.1131
 X217.9125
 Y32.9744
 X32.0875
 Y29.8357
 X217.9125
 Y26.6970
 X32.0875
 Y23.5583
 X217.9125
 Y20.4196
 X32.0875
 Y17.2810
 X217.9125
 Y14.1423
 X32.0875
 Z-3.8000
 X217.9125
 Y17.2810
 X32.0875
 Y20.4196
 X217.9125
 Y23.5583
 X32.0875
 Y26.6970
 X217.9125
 Y29.8357
 X32.0875
 Y32.9744
 X217.9125
 Y36.1131
 X32.0875
 Y39.2518
 X217.9125
 Y42.3905
 X32.0875
 Y45.5292
 X217.9125
 Y48.6679
 X32.0875
 Y51.8065
 X217.9125
 Y54.9452
 X32.0875
 Y58.0839
 X217.9125
 Y61.2226
 X32.0875
 Y64.3613
 X217.9125
 Y67.5000
 X32.0875
 Y70.6387
 X217.9125
 Y73.7774
 X32.0875
 Y76.9161
 X217.9125
 Y80.0548
 X32.0875
 Y83.1935
 X217.9125
 Y86.3321
 X32.0875
 Y89.4708
 X217.9125
 Y92.6095
 X32.0875
 Y95.7482
 X217.9125
 Y98.8869
 X32.0875
 Y102.0256
 X217.9125
 Y105.1643
 X32.0875
 X31.6309 Y108.3030
 X217.9125
 Y111.4417
 X1.5875
 Y114.5804
 X217.9125
 Y117.7190
 X1.5875
 Y120.8577
 X217.9125
G0 Z25.0000
 X48.1084
G1 Z-5.7000
 X1.5875
 Y117.7190
 X48.1084
G0 Z25.0000
 X193.1604 Y114.5804
G1 Z-5.7000
 X56.9436
G0 Z25.0000
 X48.1084
G1 Z-5.7000
 X1.5875
 Y111.4417
 X48.1084
G0 Z25.0000
 X56.9436
G1 Z-5.7000
 X193.1604
G0 Z25.0000
 X48.1084 Y108.3030
G1 Z-5.7000
 X31.6309
G0 Z25.0000
 X56.9436 Y98.8869
G1 Z-5.7000
 X193.1604
 Y95.7482
 X56.9436
G0 Z25.0000
 X193.1604 Y83.1935
G1 Z-5.7000
 X56.9436
G0 Z25.0000
 Y67.5000
G1 Z-5.7000
 X193.1604
G0 Z25.0000
 Y51.8065
G1 Z-5.7000
 X56.9436
G0 Z25.0000
 X193.1604 Y39.2518
G1 Z-5.7000
 X56.9436
 Y36.1131
 X193.1604
G0 Z25.0000
 X56.9436 Y23.5583
G1 Z-5.7000
 X193.1604
G0 Z25.0000
 X58.1395 Y51.8065
G1 Z-7.6000
 X191.9645
G0 Z25.0000
 Y67.5000
G1 Z-7.6000
 X58.1395
G0 Z25.0000
 Y83.1935
G1 Z-7.6000
 X191.9645
G0 Z25.0000
 X46.9125 Y111.4417
G1 Z-7.6000
 X1.5875
 Y114.5804
 X46.9125
 Y117.7190
 X1.5875
 Y120.8577
 X46.9125
 Z-9.5000
 X1.5875
 Y117.7190
 X46.9125
 Y114.5804
 X1.5875
 Y111.4417
 X46.9125
G0 Z25.0000
 X191.9645 Y83.1935
G1 Z-9.5000
 X58.1395
G0 Z25.0000
 Y67.5000
G1 Z-9.5000
 X191.9645
G0 Z25.0000
 Y51.8065
G1 Z-9.5000
 X58.1395
 Z-11.4000
 X191.9645
G0 Z25.0000
 Y67.5000
G1 Z-11.4000
 X58.1395
G0 Z25.0000
 Y83.1935
G1 Z-11.4000
 X191.9645
 Z-13.3000
 X58.1395
G0 Z25.0000
 Y67.5000
G1 Z-13.3000
 X191.9645
G0 Z25.0000
 Y51.8065
G1 Z-13.3000
 X58.1395
 Z-15.2000
 X191.9645
G0 Z25.0000
 Y67.5000
G1 Z-15.2000
 X58.1395
G0 Z25.0000
 Y83.1935
G1 Z-15.2000
 X191.9645
 Z-17.1000
 X58.1395
G0 Z25.0000
 Y67.5000
G1 Z-17.1000
 X191.9645
G0 Z25.0000
 Y51.8065
G1 Z-17.1000
 X58.1395
 Z-19.0000
 X191.9645
G0 Z25.0000
 Y67.5000
G1 Z-19.0000
 X58.1395
G0 Z25.0000
 Y83.1935
G1 Z-19.0000
 X191.9645
G0 Z25.0000
M5 (stop spindle)
G04 P3 (wait for 3 seconds)
G0 Z25.0000
M2 (end program)
