;PYCAM-META-DATA: Filename: /home/framlin/tinker/acrylic-lamp/cad/socket-f360-top.stl
;PYCAM-META-DATA: Timestamp: 2016-05-21 12:31:49.344001
;PYCAM-META-DATA: Version: 0.5.1
;Estimated machine time: 88 minutes
G40 (disable tool radius compensation)
G49 (disable tool length compensation)
G80 (cancel modal motion)
G54 (select coordinate system 1)
G90 (disable incremental moves)
G21 (metric)
G61 (exact path mode)
F400.00000
S1000.00000
;PYCAM_TOOLPATH_SETTINGS: START
;[Bounds]
;maxz = 0.0
;maxx = 248.785
;maxy = 133.785
;minx = 1.215
;miny = 1.215
;minz = -19.0
;
;[Tool]
;torus_radius = 0.125
;speed = 1000.0
;shape = SphericalCutter
;tool_radius = 1.215
;feedrate = 400.0
;
;[Process]
;engrave_offset = 0.0
;step_down = 1.5
;generator = DropCutter
;postprocessor = PathAccumulator
;milling_style = ignore
;material_allowance = 0.0
;pocketing_type = none
;path_direction = x
;
;PYCAM_TOOLPATH_SETTINGS: END
T5 M6
G0 Z25.0000
M3 (start spindle)
G04 P3 (wait for 3 seconds)
 X1.2150 Y1.2150
G1 Z0.0000
 X248.7850
 Y2.1827
 X1.2150
 Y3.1503
 X248.7850
 Y4.1180
 X1.2150
 Y5.0857
 X248.7850
 Y6.0533
 X1.2150
 Y7.0210
 X248.7850
 Y7.9886
 X1.2150
 Y8.9563
 X248.7850
 Y9.9240
 X1.2150
 Y10.8916
 X248.7850
 Y11.8593
 X1.2150
 Y12.8270
 X248.7850
 Y13.7946
 X1.2150
 Y14.7623
 X248.7850
 Y15.7300
 X1.2150
 Y16.6976
 X248.7850
 Y17.6653
 X1.2150
 Y18.6330
 X248.7850
 Y19.6006
 X201.4554
 X201.1520 Z-0.0021
 X200.8487 Z-0.0072
 X49.4547
 X49.1513 Z0.0000
 X1.2150
 Y20.5683
 X49.1513
 X49.2272
 X49.3030 Z-0.0026
 X49.3789 Z-0.0100
 X49.4168 Z-0.0155
 X49.4358 Z-0.0187
 X49.4547 Z-0.0223
 X49.5306 Z-0.0395
 X49.5685 Z-0.0501
 X49.6064 Z-0.0620
 X49.6823 Z-0.0901
 X49.7202 Z-0.1063
 X49.7392 Z-0.1150
 X49.7581 Z-0.1241
 X49.8340 Z-0.1647
 X49.8719 Z-0.1877
 X49.9098 Z-0.2126
 X49.9857 Z-0.2690
 X50.0236 Z-0.3009
 X50.0615 Z-0.3356
 X50.2132 Z-0.5107
 X50.2512 Z-0.5673
 X50.2701 Z-0.5984
 X50.2796 Z-0.6148
 X50.2843 Z-0.6232
 X50.2867 Z-0.6275
 X50.2879 Z-0.6296
 X50.2885 Z-0.6307
 X50.2891 Z-0.6318
 X50.3080 Z-0.6679
 X50.3128 Z-0.6774
 X50.3152 Z-0.6822
 X50.3163 Z-0.6846
 X50.3169 Z-0.6859
 X50.3172 Z-0.6865
 X50.3175 Z-0.6871
 X50.3199 Z-0.6920
 X50.3211 Z-0.6945
 X50.3217 Z-0.6958
 X50.3220 Z-0.6964
 X50.3221 Z-0.6967
 X50.3222 Z-0.6969
 Z-0.6970
 X50.3223
 X50.3229 Z-0.6983
 X50.3234 Z-0.6992
 X200.1231
 X200.1233 Z-0.6987
 X200.1281 Z-0.6888
 X200.1471 Z-0.6510
 X200.1660 Z-0.6162
 X200.2039 Z-0.5537
 X200.2229 Z-0.5254
 X200.2324 Z-0.5118
 X200.2419 Z-0.4986
 X200.3177 Z-0.4049
 X200.3556 Z-0.3644
 X200.3936 Z-0.3274
 X200.4694 Z-0.2621
 X200.5073 Z-0.2333
 X200.5263 Z-0.2197
 X200.5453 Z-0.2067
 X200.6211 Z-0.1597
 X200.6590 Z-0.1389
 X200.6970 Z-0.1199
 X200.7728 Z-0.0866
 X200.8107 Z-0.0722
 X200.8297 Z-0.0655
 X200.8487 Z-0.0592
 X200.9245 Z-0.0373
 X200.9624 Z-0.0283
 X201.0003 Z-0.0206
 X201.0762 Z-0.0089
 X201.1520 Z-0.0021
 X201.4554 Z0.0000
 X248.7850
 Y21.5359
 X201.2279
 X201.1900 Z-0.0005
 X201.1520 Z-0.0021
 X201.0762 Z-0.0089
 X201.0383 Z-0.0142
 X201.0003 Z-0.0206
 X200.9245 Z-0.0373
 X200.8866 Z-0.0476
 X200.8676 Z-0.0532
 X200.8487 Z-0.0592
 X200.7728 Z-0.0866
 X200.7349 Z-0.1025
 X200.6970 Z-0.1199
 X200.6211 Z-0.1597
 X200.5832 Z-0.1822
 X200.5642 Z-0.1942
 X200.5453 Z-0.2067
 X200.4694 Z-0.2621
 X200.4315 Z-0.2934
 X200.3936 Z-0.3274
 X200.3556 Z-0.3644
 X200.3177 Z-0.4049
 X200.2798 Z-0.4494
 X200.2608 Z-0.4734
 X200.2419 Z-0.4986
 X200.1660 Z-0.6162
 X200.1281 Z-0.6888
 X200.0902 Z-0.7763
 X200.0522 Z-0.8909
 X200.0333 Z-0.9695
 X200.0143 Z-1.0933
 X200.0096 Z-1.1574
 X200.0072 Z-8.0000
 X194.1740
 X194.0223 Z-8.0004
 X193.9464 Z-8.0046
 X193.9085 Z-8.0085
 X193.8895 Z-8.0109
 X193.8706 Z-8.0136
 X193.7947 Z-8.0275
 X193.7568 Z-8.0364
 X193.7189 Z-8.0466
 X193.6430 Z-8.0709
 X193.6051 Z-8.0852
 X193.5861 Z-8.0929
 X193.5672 Z-8.1009
 X193.4913 Z-8.1371
 X193.4534 Z-8.1577
 X193.4155 Z-8.1801
 X193.3396 Z-8.2307
 X193.3017 Z-8.2593
 X193.2827 Z-8.2745
 X193.2733 Z-8.2824
 X193.2638 Z-8.2904
 X193.1879 Z-8.3608
 X193.1500 Z-8.4010
 X193.1311 Z-8.4225
 X193.1121 Z-8.4451
 X193.0742 Z-8.4938
 X193.0362 Z-8.5483
 X192.9983 Z-8.6100
 X192.9604 Z-8.6815
 X192.9225 Z-8.7673
 X192.9035 Z-8.8185
 X192.8940 Z-8.8471
 X192.8845 Z-8.8784
 X192.8466 Z-9.0623
 X192.8371 Z-9.1960
 X192.8324 Z-19.0000
 X57.2672
 X57.2292 Z-8.9144
 X57.2103 Z-8.8481
 X57.2008 Z-8.8194
 X57.1913 Z-8.7929
 X57.1534 Z-8.7020
 X57.1344 Z-8.6631
 X57.1155 Z-8.6274
 X57.0775 Z-8.5635
 X57.0586 Z-8.5345
 X57.0491 Z-8.5207
 X57.0396 Z-8.5073
 X56.9638 Z-8.4119
 X56.9258 Z-8.3708
 X56.8879 Z-8.3333
 X56.8121 Z-8.2671
 X56.7741 Z-8.2379
 X56.7552 Z-8.2242
 X56.7362 Z-8.2110
 X56.6604 Z-8.1633
 X56.6224 Z-8.1422
 X56.5845 Z-8.1229
 X56.5087 Z-8.0891
 X56.4707 Z-8.0744
 X56.4518 Z-8.0677
 X56.4328 Z-8.0612
 X56.3570 Z-8.0389
 X56.3190 Z-8.0297
 X56.2811 Z-8.0218
 X56.2053 Z-8.0097
 X56.1294 Z-8.0025
 X55.8260 Z-8.0000
 X50.4408
 X50.4029 Z-0.9241
 X50.3839 Z-0.8558
 X50.3744 Z-0.8265
 X50.3697 Z-0.8127
 X50.3649 Z-0.7994
 X50.3270 Z-0.7072
 X50.2891 Z-0.6318
 X50.2512 Z-0.5673
 X50.2322 Z-0.5381
 X50.2132 Z-0.5107
 X50.1753 Z-0.4602
 X50.1374 Z-0.4147
 X50.0995 Z-0.3733
 X50.0805 Z-0.3540
 X50.0615 Z-0.3356
 X49.9857 Z-0.2690
 X49.9478 Z-0.2397
 X49.9098 Z-0.2126
 X49.8340 Z-0.1647
 X49.7961 Z-0.1435
 X49.7771 Z-0.1336
 X49.7581 Z-0.1241
 X49.6823 Z-0.0901
 X49.6444 Z-0.0753
 X49.6064 Z-0.0620
 X49.5306 Z-0.0395
 X49.4927 Z-0.0303
 X49.4547 Z-0.0223
 X49.1513 Z0.0000
 X1.2150
 Y22.5036
 X49.1513
 X49.2272
 X49.3030 Z-0.0026
 X49.3789 Z-0.0100
 X49.4168 Z-0.0155
 X49.4358 Z-0.0187
 X49.4547 Z-0.0223
 X49.5306 Z-0.0395
 X49.5685 Z-0.0501
 X49.6064 Z-0.0620
 X49.6823 Z-0.0901
 X49.7202 Z-0.1063
 X49.7392 Z-0.1150
 X49.7581 Z-0.1241
 X49.8340 Z-0.1647
 X49.8719 Z-0.1877
 X49.9098 Z-0.2126
 X49.9857 Z-0.2690
 X50.0236 Z-0.3009
 X50.0426 Z-0.3179
 X50.0521 Z-0.3266
 X50.0615 Z-0.3356
 X50.1374 Z-0.4147
 X50.1753 Z-0.4602
 X50.1943 Z-0.4848
 X50.2132 Z-0.5107
 X50.2512 Z-0.5673
 X50.2701 Z-0.5984
 X50.2891 Z-0.6318
 X50.3270 Z-0.7072
 X50.3649 Z-0.7994
 X50.4029 Z-0.9241
 X50.4218 Z-1.0161
 X50.4313 Z-1.0856
 X50.4360 Z-1.1425
 X50.4384 Z-8.0000
 X55.9777
 X56.0536
 X56.0915 Z-8.0006
 X56.1294 Z-8.0025
 X56.2053 Z-8.0097
 X56.2432 Z-8.0151
 X56.2811 Z-8.0218
 X56.3570 Z-8.0389
 X56.3949 Z-8.0494
 X56.4139 Z-8.0551
 X56.4328 Z-8.0612
 X56.5087 Z-8.0891
 X56.5466 Z-8.1052
 X56.5845 Z-8.1229
 X56.6604 Z-8.1633
 X56.6983 Z-8.1861
 X56.7173 Z-8.1983
 X56.7362 Z-8.2110
 X56.8121 Z-8.2671
 X56.8500 Z-8.2988
 X56.8689 Z-8.3157
 X56.8879 Z-8.3333
 X56.9258 Z-8.3708
 X56.9638 Z-8.4119
 X57.0017 Z-8.4572
 X57.0206 Z-8.4815
 X57.0396 Z-8.5073
 X57.0775 Z-8.5635
 X57.1155 Z-8.6274
 X57.1534 Z-8.7020
 X57.1913 Z-8.7929
 X57.2292 Z-8.9144
 X57.2482 Z-9.0020
 X57.2577 Z-9.0647
 X57.2624 Z-9.1095
 X57.2648 Z-9.1416
 X57.2660 Z-9.1649
 X57.2666 Z-9.1824
 X57.2669 Z-9.1964
 X57.2670 Z-19.0000
 X192.8087
 X192.8466 Z-9.0623
 X192.8656 Z-8.9530
 X192.8751 Z-8.9132
 X192.8845 Z-8.8784
 X192.9225 Z-8.7673
 X192.9414 Z-8.7222
 X192.9509 Z-8.7013
 X192.9604 Z-8.6815
 X193.0362 Z-8.5483
 X193.0742 Z-8.4938
 X193.0931 Z-8.4688
 X193.1121 Z-8.4451
 X193.1879 Z-8.3608
 X193.2259 Z-8.3241
 X193.2448 Z-8.3069
 X193.2638 Z-8.2904
 X193.3396 Z-8.2307
 X193.3776 Z-8.2044
 X193.4155 Z-8.1801
 X193.4913 Z-8.1371
 X193.5293 Z-8.1182
 X193.5482 Z-8.1094
 X193.5672 Z-8.1009
 X193.6430 Z-8.0709
 X193.6810 Z-8.0580
 X193.7189 Z-8.0466
 X193.7947 Z-8.0275
 X193.8327 Z-8.0200
 X193.8706 Z-8.0136
 X194.1740 Z-8.0000
 X199.9385
 X200.0143 Z-1.0933
 X200.0333 Z-0.9695
 X200.0522 Z-0.8909
 X200.0712 Z-0.8289
 X200.0807 Z-0.8016
 X200.0902 Z-0.7763
 X200.1281 Z-0.6888
 X200.1660 Z-0.6162
 X200.2039 Z-0.5537
 X200.2229 Z-0.5254
 X200.2324 Z-0.5118
 X200.2419 Z-0.4986
 X200.3177 Z-0.4049
 X200.3556 Z-0.3644
 X200.3936 Z-0.3274
 X200.4694 Z-0.2621
 X200.5073 Z-0.2333
 X200.5263 Z-0.2197
 X200.5453 Z-0.2067
 X200.6211 Z-0.1597
 X200.6590 Z-0.1389
 X200.6970 Z-0.1199
 X200.7728 Z-0.0866
 X200.8107 Z-0.0722
 X200.8297 Z-0.0655
 X200.8487 Z-0.0592
 X200.9245 Z-0.0373
 X200.9624 Z-0.0283
 X201.0003 Z-0.0206
 X201.0762 Z-0.0089
 X201.1520 Z-0.0021
 X201.4554 Z0.0000
 X248.7850
 Y23.4713
 X201.2279
 X201.1900 Z-0.0005
 X201.1520 Z-0.0021
 X201.0762 Z-0.0089
 X201.0383 Z-0.0142
 X201.0003 Z-0.0206
 X200.9245 Z-0.0373
 X200.8866 Z-0.0476
 X200.8676 Z-0.0532
 X200.8487 Z-0.0592
 X200.7728 Z-0.0866
 X200.7349 Z-0.1025
 X200.6970 Z-0.1199
 X200.6211 Z-0.1597
 X200.5832 Z-0.1822
 X200.5642 Z-0.1942
 X200.5453 Z-0.2067
 X200.4694 Z-0.2621
 X200.4315 Z-0.2934
 X200.3936 Z-0.3274
 X200.3556 Z-0.3644
 X200.3177 Z-0.4049
 X200.2798 Z-0.4494
 X200.2608 Z-0.4734
 X200.2419 Z-0.4986
 X200.1660 Z-0.6162
 X200.1281 Z-0.6888
 X200.0902 Z-0.7763
 X200.0522 Z-0.8909
 X200.0333 Z-0.9695
 X200.0143 Z-1.0933
 X200.0096 Z-1.1574
 X200.0072 Z-8.0000
 X194.1740
 X194.0223 Z-8.0004
 X193.9464 Z-8.0046
 X193.9085 Z-8.0085
 X193.8895 Z-8.0109
 X193.8706 Z-8.0136
 X193.7947 Z-8.0275
 X193.7568 Z-8.0364
 X193.7189 Z-8.0466
 X193.6430 Z-8.0709
 X193.6051 Z-8.0852
 X193.5861 Z-8.0929
 X193.5672 Z-8.1009
 X193.4913 Z-8.1371
 X193.4534 Z-8.1577
 X193.4155 Z-8.1801
 X193.3396 Z-8.2307
 X193.3017 Z-8.2593
 X193.2827 Z-8.2745
 X193.2733 Z-8.2824
 X193.2638 Z-8.2904
 X193.1879 Z-8.3608
 X193.1500 Z-8.4010
 X193.1311 Z-8.4225
 X193.1121 Z-8.4451
 X193.0742 Z-8.4938
 X193.0362 Z-8.5483
 X192.9983 Z-8.6100
 X192.9604 Z-8.6815
 X192.9225 Z-8.7673
 X192.9035 Z-8.8185
 X192.8940 Z-8.8471
 X192.8845 Z-8.8784
 X192.8466 Z-9.0623
 X192.8371 Z-9.1960
 X192.8324 Z-19.0000
 X57.2672
 X57.2292 Z-8.9144
 X57.2103 Z-8.8481
 X57.2008 Z-8.8194
 X57.1913 Z-8.7929
 X57.1534 Z-8.7020
 X57.1344 Z-8.6631
 X57.1155 Z-8.6274
 X57.0775 Z-8.5635
 X57.0586 Z-8.5345
 X57.0491 Z-8.5207
 X57.0396 Z-8.5073
 X56.9638 Z-8.4119
 X56.9258 Z-8.3708
 X56.8879 Z-8.3333
 X56.8121 Z-8.2671
 X56.7741 Z-8.2379
 X56.7552 Z-8.2242
 X56.7362 Z-8.2110
 X56.6604 Z-8.1633
 X56.6224 Z-8.1422
 X56.5845 Z-8.1229
 X56.5087 Z-8.0891
 X56.4707 Z-8.0744
 X56.4518 Z-8.0677
 X56.4328 Z-8.0612
 X56.3570 Z-8.0389
 X56.3190 Z-8.0297
 X56.2811 Z-8.0218
 X56.2053 Z-8.0097
 X56.1294 Z-8.0025
 X55.8260 Z-8.0000
 X50.4408
 X50.4029 Z-0.9241
 X50.3839 Z-0.8558
 X50.3744 Z-0.8265
 X50.3697 Z-0.8127
 X50.3649 Z-0.7994
 X50.3270 Z-0.7072
 X50.2891 Z-0.6318
 X50.2512 Z-0.5673
 X50.2322 Z-0.5381
 X50.2132 Z-0.5107
 X50.1753 Z-0.4602
 X50.1374 Z-0.4147
 X50.0995 Z-0.3733
 X50.0805 Z-0.3540
 X50.0615 Z-0.3356
 X49.9857 Z-0.2690
 X49.9478 Z-0.2397
 X49.9098 Z-0.2126
 X49.8340 Z-0.1647
 X49.7961 Z-0.1435
 X49.7771 Z-0.1336
 X49.7581 Z-0.1241
 X49.6823 Z-0.0901
 X49.6444 Z-0.0753
 X49.6064 Z-0.0620
 X49.5306 Z-0.0395
 X49.4927 Z-0.0303
 X49.4547 Z-0.0223
 X49.1513 Z0.0000
 X1.2150
 Y24.4389
 X49.1513
 X49.2272
 X49.3030 Z-0.0026
 X49.3789 Z-0.0100
 X49.4168 Z-0.0155
 X49.4358 Z-0.0187
 X49.4547 Z-0.0223
 X49.5306 Z-0.0395
 X49.5685 Z-0.0501
 X49.6064 Z-0.0620
 X49.6823 Z-0.0901
 X49.7202 Z-0.1063
 X49.7392 Z-0.1150
 X49.7581 Z-0.1241
 X50.0615 Z-0.3356
 X50.1374 Z-0.4147
 X50.1753 Z-0.4602
 X50.1943 Z-0.4848
 X50.2037 Z-0.4975
 X50.2085 Z-0.5041
 X50.2109 Z-0.5074
 X50.2120 Z-0.5090
 X50.2126 Z-0.5098
 X50.2129 Z-0.5103
 X50.2132 Z-0.5107
 X50.2322 Z-0.5381
 X50.2417 Z-0.5525
 X50.2464 Z-0.5598
 X50.2488 Z-0.5635
 X50.2500 Z-0.5654
 X50.2506 Z-0.5663
 X50.2509 Z-0.5668
 X50.2510 Z-0.5670
 X50.2511 Z-0.5672
 Z-0.5673
 X50.2512
 X50.2517 Z-0.5682
 X50.2523 Z-0.5692
 X50.2529 Z-0.5694
 X200.1660
 X200.2419 Z-0.4986
 X200.3177 Z-0.4049
 X200.3556 Z-0.3644
 X200.3936 Z-0.3274
 X200.4694 Z-0.2621
 X200.5073 Z-0.2333
 X200.5263 Z-0.2197
 X200.5453 Z-0.2067
 X200.6211 Z-0.1597
 X200.6590 Z-0.1389
 X200.6970 Z-0.1199
 X200.7728 Z-0.0866
 X200.8107 Z-0.0722
 X200.8297 Z-0.0655
 X200.8487 Z-0.0592
 X200.9245 Z-0.0373
 X200.9624 Z-0.0283
 X201.0003 Z-0.0206
 X201.0762 Z-0.0089
 X201.1520 Z-0.0021
 X201.4554 Z0.0000
 X248.7850
 Y25.4066
 X201.4554
 X201.1520 Z-0.0016
 X49.4547
 X49.1513 Z0.0000
 X1.2150
 Y26.3743
 X248.7850
 Y27.3419
 X1.2150
 Y28.3096
 X248.7850
 Y29.2773
 X1.2150
 Y30.2449
 X248.7850
 Y31.2126
 X1.2150
 Y32.1803
 X248.7850
 Y33.1479
 X1.2150
 Y34.1156
 X248.7850
 Y35.0832
 X201.0762
 X201.0003 Z-0.0011
 X200.9245 Z-0.0067
 X200.8866 Z-0.0113
 X200.8676 Z-0.0141
 X200.8487 Z-0.0171
 X200.5453 Z-0.1107
 X200.4694 Z-0.1488
 X200.4315 Z-0.1704
 X200.4125 Z-0.1819
 X200.4030 Z-0.1878
 X200.3983 Z-0.1908
 X200.3959 Z-0.1924
 X200.3947 Z-0.1931
 X200.3936 Z-0.1939
 X200.3746 Z-0.2064
 X200.3651 Z-0.2128
 X200.3604 Z-0.2161
 X200.3592 Z-0.2169
 X200.3586 Z-0.2173
 X200.3580 Z-0.2177
 X200.3574 Z-0.2181
 X200.3571 Z-0.2183
 X200.3570 Z-0.2184
 X200.3569 Z-0.2185
 X200.3568
 X200.3562 Z-0.2189
 X200.3556 Z-0.2190
 X49.7581
 X49.6823 Z-0.1763
 X49.6444 Z-0.1542
 X49.6064 Z-0.1339
 X49.5306 Z-0.0982
 X49.4927 Z-0.0827
 X49.4737 Z-0.0755
 X49.4547 Z-0.0687
 X49.3789 Z-0.0448
 X49.3410 Z-0.0349
 X49.3030 Z-0.0262
 X49.2272 Z-0.0127
 X49.1513 Z-0.0041
 X48.8480 Z0.0000
 X1.2150
 Y36.0509
 X48.9997
 X49.0755 Z-0.0002
 X49.1134 Z-0.0016
 X49.1324 Z-0.0027
 X49.1513 Z-0.0041
 X49.2272 Z-0.0127
 X49.2651 Z-0.0188
 X49.3030 Z-0.0262
 X49.3789 Z-0.0448
 X49.4168 Z-0.0561
 X49.4358 Z-0.0622
 X49.4547 Z-0.0687
 X49.5306 Z-0.0982
 X49.5685 Z-0.1153
 X49.6064 Z-0.1339
 X49.6823 Z-0.1763
 X49.7202 Z-0.2003
 X49.7392 Z-0.2130
 X49.7581 Z-0.2263
 X49.8340 Z-0.2851
 X49.8719 Z-0.3184
 X49.8909 Z-0.3361
 X49.9098 Z-0.3546
 X49.9478 Z-0.3941
 X49.9857 Z-0.4375
 X50.0236 Z-0.4855
 X50.0426 Z-0.5114
 X50.0615 Z-0.5389
 X50.0995 Z-0.5993
 X50.1374 Z-0.6689
 X50.1753 Z-0.7520
 X50.2132 Z-0.8575
 X50.2512 Z-1.0194
 X50.2606 Z-1.0908
 X50.2654 Z-1.1522
 X50.2677 Z-8.0000
 X55.9777
 X56.0536
 X56.0915 Z-8.0006
 X56.1294 Z-8.0025
 X56.2053 Z-8.0097
 X56.2432 Z-8.0151
 X56.2811 Z-8.0218
 X56.3570 Z-8.0389
 X56.3949 Z-8.0494
 X56.4139 Z-8.0551
 X56.4328 Z-8.0612
 X56.5087 Z-8.0891
 X56.5466 Z-8.1052
 X56.5845 Z-8.1229
 X56.6604 Z-8.1633
 X56.6983 Z-8.1861
 X56.7173 Z-8.1983
 X56.7362 Z-8.2110
 X56.8121 Z-8.2671
 X56.8500 Z-8.2988
 X56.8689 Z-8.3157
 X56.8879 Z-8.3333
 X56.9258 Z-8.3708
 X56.9638 Z-8.4119
 X57.0017 Z-8.4572
 X57.0206 Z-8.4815
 X57.0396 Z-8.5073
 X57.0775 Z-8.5635
 X57.1155 Z-8.6274
 X57.1534 Z-8.7020
 X57.1913 Z-8.7929
 X57.2292 Z-8.9144
 X57.2482 Z-9.0020
 X57.2577 Z-9.0647
 X57.2624 Z-9.1095
 X57.2648 Z-9.1416
 X57.2660 Z-9.1649
 X57.2666 Z-9.1824
 X57.2669 Z-9.1964
 X57.2670 Z-19.0000
 X192.8087
 X192.8466 Z-9.0623
 X192.8656 Z-8.9530
 X192.8751 Z-8.9132
 X192.8845 Z-8.8784
 X192.9225 Z-8.7673
 X192.9414 Z-8.7222
 X192.9509 Z-8.7013
 X192.9604 Z-8.6815
 X193.0362 Z-8.5483
 X193.0742 Z-8.4938
 X193.0931 Z-8.4688
 X193.1121 Z-8.4451
 X193.1879 Z-8.3608
 X193.2259 Z-8.3241
 X193.2448 Z-8.3069
 X193.2638 Z-8.2904
 X193.3396 Z-8.2307
 X193.3776 Z-8.2044
 X193.4155 Z-8.1801
 X193.4913 Z-8.1371
 X193.5293 Z-8.1182
 X193.5482 Z-8.1094
 X193.5672 Z-8.1009
 X193.6430 Z-8.0709
 X193.6810 Z-8.0580
 X193.7189 Z-8.0466
 X193.7947 Z-8.0275
 X193.8327 Z-8.0200
 X193.8706 Z-8.0136
 X194.1740 Z-8.0000
 X199.8247
 X199.8437 Z-1.0879
 X199.8531 Z-1.0176
 X199.8579 Z-0.9907
 X199.8626 Z-0.9668
 X199.8816 Z-0.8889
 X199.9005 Z-0.8272
 X199.9195 Z-0.7749
 X199.9290 Z-0.7512
 X199.9337 Z-0.7399
 X199.9385 Z-0.7289
 X200.0143 Z-0.5830
 X200.0522 Z-0.5245
 X200.0712 Z-0.4979
 X200.0902 Z-0.4726
 X200.1281 Z-0.4259
 X200.1660 Z-0.3836
 X200.2039 Z-0.3449
 X200.2229 Z-0.3268
 X200.2419 Z-0.3095
 X200.3177 Z-0.2470
 X200.3556 Z-0.2194
 X200.3936 Z-0.1939
 X200.4694 Z-0.1488
 X200.5073 Z-0.1289
 X200.5263 Z-0.1196
 X200.5453 Z-0.1107
 X200.6211 Z-0.0790
 X200.6590 Z-0.0653
 X200.6970 Z-0.0530
 X200.7728 Z-0.0325
 X200.8107 Z-0.0242
 X200.8487 Z-0.0171
 X201.1520 Z0.0000
 X248.7850
 Y37.0186
 X201.0762
 X201.0003 Z-0.0011
 X200.9245 Z-0.0067
 X200.8866 Z-0.0113
 X200.8676 Z-0.0141
 X200.8487 Z-0.0171
 X200.7728 Z-0.0325
 X200.7349 Z-0.0421
 X200.6970 Z-0.0530
 X200.6211 Z-0.0790
 X200.5832 Z-0.0941
 X200.5642 Z-0.1022
 X200.5453 Z-0.1107
 X200.4694 Z-0.1488
 X200.4315 Z-0.1704
 X200.3936 Z-0.1939
 X200.3177 Z-0.2470
 X200.2798 Z-0.2770
 X200.2608 Z-0.2929
 X200.2513 Z-0.3011
 X200.2419 Z-0.3095
 X200.1660 Z-0.3836
 X200.1281 Z-0.4259
 X200.1091 Z-0.4487
 X200.0902 Z-0.4726
 X200.0522 Z-0.5245
 X200.0143 Z-0.5830
 X199.9764 Z-0.6499
 X199.9385 Z-0.7289
 X199.9195 Z-0.7749
 X199.9005 Z-0.8272
 X199.8626 Z-0.9668
 X199.8437 Z-1.0879
 X199.8389 Z-1.1466
 X199.8365 Z-8.0000
 X194.1740
 X194.0223 Z-8.0004
 X193.9464 Z-8.0046
 X193.9085 Z-8.0085
 X193.8895 Z-8.0109
 X193.8706 Z-8.0136
 X193.7947 Z-8.0275
 X193.7568 Z-8.0364
 X193.7189 Z-8.0466
 X193.6430 Z-8.0709
 X193.6051 Z-8.0852
 X193.5861 Z-8.0929
 X193.5672 Z-8.1009
 X193.4913 Z-8.1371
 X193.4534 Z-8.1577
 X193.4155 Z-8.1801
 X193.3396 Z-8.2307
 X193.3017 Z-8.2593
 X193.2827 Z-8.2745
 X193.2733 Z-8.2824
 X193.2638 Z-8.2904
 X193.1879 Z-8.3608
 X193.1500 Z-8.4010
 X193.1311 Z-8.4225
 X193.1121 Z-8.4451
 X193.0742 Z-8.4938
 X193.0362 Z-8.5483
 X192.9983 Z-8.6100
 X192.9604 Z-8.6815
 X192.9225 Z-8.7673
 X192.9035 Z-8.8185
 X192.8940 Z-8.8471
 X192.8845 Z-8.8784
 X192.8466 Z-9.0623
 X192.8371 Z-9.1960
 X192.8324 Z-19.0000
 X57.2672
 X57.2292 Z-8.9144
 X57.2103 Z-8.8481
 X57.2008 Z-8.8194
 X57.1913 Z-8.7929
 X57.1534 Z-8.7020
 X57.1344 Z-8.6631
 X57.1155 Z-8.6274
 X57.0775 Z-8.5635
 X57.0586 Z-8.5345
 X57.0491 Z-8.5207
 X57.0396 Z-8.5073
 X56.9638 Z-8.4119
 X56.9258 Z-8.3708
 X56.8879 Z-8.3333
 X56.8121 Z-8.2671
 X56.7741 Z-8.2379
 X56.7552 Z-8.2242
 X56.7362 Z-8.2110
 X56.6604 Z-8.1633
 X56.6224 Z-8.1422
 X56.5845 Z-8.1229
 X56.5087 Z-8.0891
 X56.4707 Z-8.0744
 X56.4518 Z-8.0677
 X56.4328 Z-8.0612
 X56.3570 Z-8.0389
 X56.3190 Z-8.0297
 X56.2811 Z-8.0218
 X56.2053 Z-8.0097
 X56.1294 Z-8.0025
 X55.8260 Z-8.0000
 X50.2891
 X50.2512 Z-1.0194
 X50.2322 Z-0.9263
 X50.2227 Z-0.8899
 X50.2180 Z-0.8733
 X50.2132 Z-0.8575
 X50.1753 Z-0.7520
 X50.1563 Z-0.7084
 X50.1374 Z-0.6689
 X50.0995 Z-0.5993
 X50.0805 Z-0.5681
 X50.0710 Z-0.5533
 X50.0615 Z-0.5389
 X49.9857 Z-0.4375
 X49.9478 Z-0.3941
 X49.9098 Z-0.3546
 X49.8340 Z-0.2851
 X49.7961 Z-0.2545
 X49.7771 Z-0.2401
 X49.7581 Z-0.2263
 X49.6823 Z-0.1763
 X49.6444 Z-0.1542
 X49.6064 Z-0.1339
 X49.5306 Z-0.0982
 X49.4927 Z-0.0827
 X49.4737 Z-0.0755
 X49.4547 Z-0.0687
 X49.3789 Z-0.0448
 X49.3410 Z-0.0349
 X49.3030 Z-0.0262
 X49.2272 Z-0.0127
 X49.1513 Z-0.0041
 X48.8480 Z0.0000
 X1.2150
 Y37.9862
 X48.9997
 X49.0755 Z-0.0002
 X49.1134 Z-0.0016
 X49.1324 Z-0.0027
 X49.1513 Z-0.0041
 X49.2272 Z-0.0127
 X49.2651 Z-0.0188
 X49.3030 Z-0.0262
 X49.3789 Z-0.0448
 X49.4168 Z-0.0561
 X49.4358 Z-0.0622
 X49.4547 Z-0.0687
 X49.5306 Z-0.0982
 X49.5685 Z-0.1153
 X49.6064 Z-0.1339
 X49.6823 Z-0.1763
 X49.7202 Z-0.2003
 X49.7392 Z-0.2130
 X49.7581 Z-0.2263
 X49.8340 Z-0.2851
 X49.8719 Z-0.3184
 X49.8909 Z-0.3361
 X49.9098 Z-0.3546
 X49.9478 Z-0.3941
 X49.9857 Z-0.4375
 X50.0236 Z-0.4855
 X50.0426 Z-0.5114
 X50.0615 Z-0.5389
 X50.0995 Z-0.5993
 X50.1374 Z-0.6689
 X50.1753 Z-0.7520
 X50.2132 Z-0.8575
 X50.2512 Z-1.0194
 X50.2606 Z-1.0908
 X50.2654 Z-1.1522
 X50.2677 Z-8.0000
 X55.9777
 X56.0536
 X56.0915 Z-8.0006
 X56.1294 Z-8.0025
 X56.2053 Z-8.0097
 X56.2432 Z-8.0151
 X56.2811 Z-8.0218
 X56.3570 Z-8.0389
 X56.3949 Z-8.0494
 X56.4139 Z-8.0551
 X56.4328 Z-8.0612
 X56.5087 Z-8.0891
 X56.5466 Z-8.1052
 X56.5845 Z-8.1229
 X56.6604 Z-8.1633
 X56.6983 Z-8.1861
 X56.7173 Z-8.1983
 X56.7362 Z-8.2110
 X56.8121 Z-8.2671
 X56.8500 Z-8.2988
 X56.8689 Z-8.3157
 X56.8879 Z-8.3333
 X56.9258 Z-8.3708
 X56.9638 Z-8.4119
 X57.0017 Z-8.4572
 X57.0206 Z-8.4815
 X57.0396 Z-8.5073
 X57.0775 Z-8.5635
 X57.1155 Z-8.6274
 X57.1534 Z-8.7020
 X57.1913 Z-8.7929
 X57.2292 Z-8.9144
 X57.2482 Z-9.0020
 X57.2577 Z-9.0647
 X57.2624 Z-9.1095
 X57.2648 Z-9.1416
 X57.2660 Z-9.1649
 X57.2666 Z-9.1824
 X57.2669 Z-9.1964
 X57.2670 Z-19.0000
 X192.8087
 X192.8466 Z-9.0623
 X192.8656 Z-8.9530
 X192.8751 Z-8.9132
 X192.8845 Z-8.8784
 X192.9225 Z-8.7673
 X192.9414 Z-8.7222
 X192.9509 Z-8.7013
 X192.9604 Z-8.6815
 X193.0362 Z-8.5483
 X193.0742 Z-8.4938
 X193.0931 Z-8.4688
 X193.1121 Z-8.4451
 X193.1879 Z-8.3608
 X193.2259 Z-8.3241
 X193.2448 Z-8.3069
 X193.2638 Z-8.2904
 X193.3396 Z-8.2307
 X193.3776 Z-8.2044
 X193.4155 Z-8.1801
 X193.4913 Z-8.1371
 X193.5293 Z-8.1182
 X193.5482 Z-8.1094
 X193.5672 Z-8.1009
 X193.6430 Z-8.0709
 X193.6810 Z-8.0580
 X193.7189 Z-8.0466
 X193.7947 Z-8.0275
 X193.8327 Z-8.0200
 X193.8706 Z-8.0136
 X194.1740 Z-8.0000
 X199.8247
 X199.8437 Z-1.0879
 X199.8531 Z-1.0176
 X199.8579 Z-0.9907
 X199.8626 Z-0.9668
 X199.8816 Z-0.8889
 X199.9005 Z-0.8272
 X199.9195 Z-0.7749
 X199.9290 Z-0.7512
 X199.9337 Z-0.7399
 X199.9385 Z-0.7289
 X200.0143 Z-0.5830
 X200.0522 Z-0.5245
 X200.0712 Z-0.4979
 X200.0902 Z-0.4726
 X200.1281 Z-0.4259
 X200.1660 Z-0.3836
 X200.2039 Z-0.3449
 X200.2229 Z-0.3268
 X200.2419 Z-0.3095
 X200.3177 Z-0.2470
 X200.3556 Z-0.2194
 X200.3936 Z-0.1939
 X200.4694 Z-0.1488
 X200.5073 Z-0.1289
 X200.5263 Z-0.1196
 X200.5453 Z-0.1107
 X200.6211 Z-0.0790
 X200.6590 Z-0.0653
 X200.6970 Z-0.0530
 X200.7728 Z-0.0325
 X200.8107 Z-0.0242
 X200.8487 Z-0.0171
 X201.1520 Z0.0000
 X248.7850
 Y38.9539
 X201.0762
 X201.0003 Z-0.0011
 X200.9245 Z-0.0067
 X200.8866 Z-0.0113
 X200.8676 Z-0.0141
 X200.8487 Z-0.0171
 X200.7728 Z-0.0325
 X200.7349 Z-0.0421
 X200.6970 Z-0.0530
 X200.6211 Z-0.0790
 X200.5832 Z-0.0941
 X200.5642 Z-0.1022
 X200.5453 Z-0.1107
 X200.4694 Z-0.1488
 X200.4315 Z-0.1704
 X200.3936 Z-0.1939
 X200.3177 Z-0.2470
 X200.2798 Z-0.2770
 X200.2608 Z-0.2929
 X200.2513 Z-0.3011
 X200.2419 Z-0.3095
 X200.1660 Z-0.3836
 X200.1281 Z-0.4259
 X200.1091 Z-0.4487
 X200.0902 Z-0.4726
 X200.0522 Z-0.5245
 X200.0143 Z-0.5830
 X199.9764 Z-0.6499
 X199.9385 Z-0.7289
 X199.9195 Z-0.7749
 X199.9005 Z-0.8272
 X199.8626 Z-0.9668
 X199.8437 Z-1.0879
 X199.8389 Z-1.1466
 X199.8365 Z-8.0000
 X194.1740
 X194.0223 Z-8.0004
 X193.9464 Z-8.0046
 X193.9085 Z-8.0085
 X193.8895 Z-8.0109
 X193.8706 Z-8.0136
 X193.7947 Z-8.0275
 X193.7568 Z-8.0364
 X193.7189 Z-8.0466
 X193.6430 Z-8.0709
 X193.6051 Z-8.0852
 X193.5861 Z-8.0929
 X193.5672 Z-8.1009
 X193.4913 Z-8.1371
 X193.4534 Z-8.1577
 X193.4155 Z-8.1801
 X193.3396 Z-8.2307
 X193.3017 Z-8.2593
 X193.2827 Z-8.2745
 X193.2733 Z-8.2824
 X193.2638 Z-8.2904
 X193.1879 Z-8.3608
 X193.1500 Z-8.4010
 X193.1311 Z-8.4225
 X193.1121 Z-8.4451
 X193.0742 Z-8.4938
 X193.0362 Z-8.5483
 X192.9983 Z-8.6100
 X192.9604 Z-8.6815
 X192.9225 Z-8.7673
 X192.9035 Z-8.8185
 X192.8940 Z-8.8471
 X192.8845 Z-8.8784
 X192.8466 Z-9.0623
 X192.8371 Z-9.1960
 X192.8324 Z-19.0000
 X57.2672
 X57.2292 Z-8.9144
 X57.2103 Z-8.8481
 X57.2008 Z-8.8194
 X57.1913 Z-8.7929
 X57.1534 Z-8.7020
 X57.1344 Z-8.6631
 X57.1155 Z-8.6274
 X57.0775 Z-8.5635
 X57.0586 Z-8.5345
 X57.0491 Z-8.5207
 X57.0396 Z-8.5073
 X56.9638 Z-8.4119
 X56.9258 Z-8.3708
 X56.8879 Z-8.3333
 X56.8121 Z-8.2671
 X56.7741 Z-8.2379
 X56.7552 Z-8.2242
 X56.7362 Z-8.2110
 X56.6604 Z-8.1633
 X56.6224 Z-8.1422
 X56.5845 Z-8.1229
 X56.5087 Z-8.0891
 X56.4707 Z-8.0744
 X56.4518 Z-8.0677
 X56.4328 Z-8.0612
 X56.3570 Z-8.0389
 X56.3190 Z-8.0297
 X56.2811 Z-8.0218
 X56.2053 Z-8.0097
 X56.1294 Z-8.0025
 X55.8260 Z-8.0000
 X50.2891
 X50.2512 Z-1.0194
 X50.2322 Z-0.9263
 X50.2227 Z-0.8899
 X50.2180 Z-0.8733
 X50.2132 Z-0.8575
 X50.1753 Z-0.7520
 X50.1563 Z-0.7084
 X50.1374 Z-0.6689
 X50.0995 Z-0.5993
 X50.0805 Z-0.5681
 X50.0710 Z-0.5533
 X50.0615 Z-0.5389
 X49.9857 Z-0.4375
 X49.9478 Z-0.3941
 X49.9098 Z-0.3546
 X49.8340 Z-0.2851
 X49.7961 Z-0.2545
 X49.7771 Z-0.2401
 X49.7581 Z-0.2263
 X49.6823 Z-0.1763
 X49.6444 Z-0.1542
 X49.6064 Z-0.1339
 X49.5306 Z-0.0982
 X49.4927 Z-0.0827
 X49.4737 Z-0.0755
 X49.4547 Z-0.0687
 X49.3789 Z-0.0448
 X49.3410 Z-0.0349
 X49.3030 Z-0.0262
 X49.2272 Z-0.0127
 X49.1513 Z-0.0041
 X48.8480 Z0.0000
 X1.2150
 Y39.9216
 X48.9997
 X49.0755 Z-0.0002
 X49.1134 Z-0.0016
 X49.1324 Z-0.0027
 X49.1513 Z-0.0041
 X49.2272 Z-0.0127
 X49.2651 Z-0.0188
 X49.3030 Z-0.0262
 X49.3789 Z-0.0448
 X49.4168 Z-0.0561
 X49.4358 Z-0.0622
 X49.4453 Z-0.0654
 X49.4547 Z-0.0687
 X49.7581 Z-0.0928
 X200.5453
 X200.6970 Z-0.0530
 X200.7728 Z-0.0325
 X200.8107 Z-0.0242
 X200.8487 Z-0.0171
 X201.1520 Z0.0000
 X248.7850
 Y40.8892
 X1.2150
 Y41.8569
 X248.7850
 Y42.8246
 X1.2150
 Y43.7922
 X248.7850
 Y44.7599
 X1.2150
 Y45.7276
 X248.7850
 Y46.6952
 X1.2150
 Y47.6629
 X248.7850
 Y48.6305
 X1.2150
 Y49.5982
 X48.8480
 X49.1513 Z-0.0041
 X49.4547 Z-0.0184
 X200.5453
 X200.8487 Z-0.0171
 X201.1520 Z0.0000
 X248.7850
 Y50.5659
 X201.0762
 X201.0003 Z-0.0011
 X200.9245 Z-0.0067
 X200.8866 Z-0.0113
 X200.8676 Z-0.0141
 X200.8487 Z-0.0171
 X200.7728 Z-0.0325
 X200.7349 Z-0.0421
 X200.6970 Z-0.0530
 X200.6211 Z-0.0790
 X200.5832 Z-0.0941
 X200.5642 Z-0.1022
 X200.5453 Z-0.1107
 X200.4694 Z-0.1488
 X200.4315 Z-0.1704
 X200.3936 Z-0.1939
 X200.3177 Z-0.2470
 X200.2798 Z-0.2770
 X200.2608 Z-0.2929
 X200.2513 Z-0.3011
 X200.2419 Z-0.3095
 X200.1660 Z-0.3836
 X200.1281 Z-0.4259
 X200.1091 Z-0.4487
 X200.0902 Z-0.4726
 X200.0522 Z-0.5245
 X200.0143 Z-0.5830
 X199.9764 Z-0.6499
 X199.9574 Z-0.6876
 X199.9479 Z-0.7077
 X199.9432 Z-0.7182
 X199.9408 Z-0.7235
 X199.9397 Z-0.7262
 X199.9391 Z-0.7275
 X199.9385 Z-0.7289
 X199.9005 Z-0.8272
 X199.8911 Z-0.8566
 X199.8863 Z-0.8723
 X199.8840 Z-0.8805
 X199.8828 Z-0.8846
 X199.8822 Z-0.8867
 X199.8819 Z-0.8878
 X199.8817 Z-0.8883
 X199.8816 Z-0.8889
 X199.8768 Z-0.9064
 X199.8757 Z-0.9109
 X199.8751 Z-0.9132
 X199.8748 Z-0.9144
 X199.8746 Z-0.9150
 X199.8745 Z-0.9153
 Z-0.9154
 Z-0.9155
 X199.8739 Z-0.9179
 X199.8736 Z-0.9191
 X199.8734 Z-0.9194
 X50.2512
 X50.2132 Z-0.8575
 X50.1753 Z-0.7520
 X50.1563 Z-0.7084
 X50.1374 Z-0.6689
 X50.0995 Z-0.5993
 X50.0805 Z-0.5681
 X50.0710 Z-0.5533
 X50.0615 Z-0.5389
 X49.9857 Z-0.4375
 X49.9478 Z-0.3941
 X49.9098 Z-0.3546
 X49.8340 Z-0.2851
 X49.7961 Z-0.2545
 X49.7771 Z-0.2401
 X49.7581 Z-0.2263
 X49.6823 Z-0.1763
 X49.6444 Z-0.1542
 X49.6064 Z-0.1339
 X49.5306 Z-0.0982
 X49.4927 Z-0.0827
 X49.4737 Z-0.0755
 X49.4547 Z-0.0687
 X49.3789 Z-0.0448
 X49.3410 Z-0.0349
 X49.3030 Z-0.0262
 X49.2272 Z-0.0127
 X49.1513 Z-0.0041
 X48.8480 Z0.0000
 X1.2150
 Y51.5335
 X48.9997
 X49.0755 Z-0.0002
 X49.1134 Z-0.0016
 X49.1324 Z-0.0027
 X49.1513 Z-0.0041
 X49.2272 Z-0.0127
 X49.2651 Z-0.0188
 X49.3030 Z-0.0262
 X49.3789 Z-0.0448
 X49.4168 Z-0.0561
 X49.4358 Z-0.0622
 X49.4547 Z-0.0687
 X49.5306 Z-0.0982
 X49.5685 Z-0.1153
 X49.6064 Z-0.1339
 X49.6823 Z-0.1763
 X49.7202 Z-0.2003
 X49.7392 Z-0.2130
 X49.7581 Z-0.2263
 X49.8340 Z-0.2851
 X49.8719 Z-0.3184
 X49.8909 Z-0.3361
 X49.9098 Z-0.3546
 X49.9478 Z-0.3941
 X49.9857 Z-0.4375
 X50.0236 Z-0.4855
 X50.0426 Z-0.5114
 X50.0615 Z-0.5389
 X50.0995 Z-0.5993
 X50.1374 Z-0.6689
 X50.1753 Z-0.7520
 X50.2132 Z-0.8575
 X50.2512 Z-1.0194
 X50.2606 Z-1.0908
 X50.2654 Z-1.1522
 X50.2677 Z-8.0000
 X55.9777
 X56.0536
 X56.0915 Z-8.0006
 X56.1294 Z-8.0025
 X56.2053 Z-8.0097
 X56.2432 Z-8.0151
 X56.2811 Z-8.0218
 X56.3570 Z-8.0389
 X56.3949 Z-8.0494
 X56.4139 Z-8.0551
 X56.4328 Z-8.0612
 X56.5087 Z-8.0891
 X56.5466 Z-8.1052
 X56.5845 Z-8.1229
 X56.6604 Z-8.1633
 X56.6983 Z-8.1861
 X56.7173 Z-8.1983
 X56.7362 Z-8.2110
 X56.8121 Z-8.2671
 X56.8500 Z-8.2988
 X56.8689 Z-8.3157
 X56.8879 Z-8.3333
 X56.9258 Z-8.3708
 X56.9638 Z-8.4119
 X57.0017 Z-8.4572
 X57.0206 Z-8.4815
 X57.0396 Z-8.5073
 X57.0775 Z-8.5635
 X57.1155 Z-8.6274
 X57.1534 Z-8.7020
 X57.1913 Z-8.7929
 X57.2292 Z-8.9144
 X57.2482 Z-9.0020
 X57.2577 Z-9.0647
 X57.2624 Z-9.1095
 X57.2648 Z-9.1416
 X57.2660 Z-9.1649
 X57.2666 Z-9.1824
 X57.2669 Z-9.1964
 X57.2670 Z-19.0000
 X192.8087
 X192.8466 Z-9.0623
 X192.8656 Z-8.9530
 X192.8751 Z-8.9132
 X192.8845 Z-8.8784
 X192.9225 Z-8.7673
 X192.9414 Z-8.7222
 X192.9509 Z-8.7013
 X192.9604 Z-8.6815
 X193.0362 Z-8.5483
 X193.0742 Z-8.4938
 X193.0931 Z-8.4688
 X193.1121 Z-8.4451
 X193.1879 Z-8.3608
 X193.2259 Z-8.3241
 X193.2448 Z-8.3069
 X193.2638 Z-8.2904
 X193.3396 Z-8.2307
 X193.3776 Z-8.2044
 X193.4155 Z-8.1801
 X193.4913 Z-8.1371
 X193.5293 Z-8.1182
 X193.5482 Z-8.1094
 X193.5672 Z-8.1009
 X193.6430 Z-8.0709
 X193.6810 Z-8.0580
 X193.7189 Z-8.0466
 X193.7947 Z-8.0275
 X193.8327 Z-8.0200
 X193.8706 Z-8.0136
 X194.1740 Z-8.0000
 X199.8247
 X199.8437 Z-1.0879
 X199.8531 Z-1.0176
 X199.8579 Z-0.9907
 X199.8626 Z-0.9668
 X199.8816 Z-0.8889
 X199.9005 Z-0.8272
 X199.9195 Z-0.7749
 X199.9290 Z-0.7512
 X199.9337 Z-0.7399
 X199.9385 Z-0.7289
 X200.0143 Z-0.5830
 X200.0522 Z-0.5245
 X200.0712 Z-0.4979
 X200.0902 Z-0.4726
 X200.1281 Z-0.4259
 X200.1660 Z-0.3836
 X200.2039 Z-0.3449
 X200.2229 Z-0.3268
 X200.2419 Z-0.3095
 X200.3177 Z-0.2470
 X200.3556 Z-0.2194
 X200.3936 Z-0.1939
 X200.4694 Z-0.1488
 X200.5073 Z-0.1289
 X200.5263 Z-0.1196
 X200.5453 Z-0.1107
 X200.6211 Z-0.0790
 X200.6590 Z-0.0653
 X200.6970 Z-0.0530
 X200.7728 Z-0.0325
 X200.8107 Z-0.0242
 X200.8487 Z-0.0171
 X201.1520 Z0.0000
 X248.7850
 Y52.5012
 X201.0762
 X201.0003 Z-0.0011
 X200.9245 Z-0.0067
 X200.8866 Z-0.0113
 X200.8676 Z-0.0141
 X200.8487 Z-0.0171
 X200.7728 Z-0.0325
 X200.7349 Z-0.0421
 X200.6970 Z-0.0530
 X200.6211 Z-0.0790
 X200.5832 Z-0.0941
 X200.5642 Z-0.1022
 X200.5453 Z-0.1107
 X200.4694 Z-0.1488
 X200.4315 Z-0.1704
 X200.3936 Z-0.1939
 X200.3177 Z-0.2470
 X200.2798 Z-0.2770
 X200.2608 Z-0.2929
 X200.2513 Z-0.3011
 X200.2419 Z-0.3095
 X200.1660 Z-0.3836
 X200.1281 Z-0.4259
 X200.1091 Z-0.4487
 X200.0902 Z-0.4726
 X200.0522 Z-0.5245
 X200.0143 Z-0.5830
 X199.9764 Z-0.6499
 X199.9385 Z-0.7289
 X199.9195 Z-0.7749
 X199.9005 Z-0.8272
 X199.8626 Z-0.9668
 X199.8437 Z-1.0879
 X199.8389 Z-1.1466
 X199.8365 Z-8.0000
 X194.1740
 X194.0223 Z-8.0004
 X193.9464 Z-8.0046
 X193.9085 Z-8.0085
 X193.8895 Z-8.0109
 X193.8706 Z-8.0136
 X193.7947 Z-8.0275
 X193.7568 Z-8.0364
 X193.7189 Z-8.0466
 X193.6430 Z-8.0709
 X193.6051 Z-8.0852
 X193.5861 Z-8.0929
 X193.5672 Z-8.1009
 X193.4913 Z-8.1371
 X193.4534 Z-8.1577
 X193.4155 Z-8.1801
 X193.3396 Z-8.2307
 X193.3017 Z-8.2593
 X193.2827 Z-8.2745
 X193.2733 Z-8.2824
 X193.2638 Z-8.2904
 X193.1879 Z-8.3608
 X193.1500 Z-8.4010
 X193.1311 Z-8.4225
 X193.1121 Z-8.4451
 X193.0742 Z-8.4938
 X193.0362 Z-8.5483
 X192.9983 Z-8.6100
 X192.9604 Z-8.6815
 X192.9225 Z-8.7673
 X192.9035 Z-8.8185
 X192.8940 Z-8.8471
 X192.8845 Z-8.8784
 X192.8466 Z-9.0623
 X192.8371 Z-9.1960
 X192.8324 Z-19.0000
 X57.2672
 X57.2292 Z-8.9144
 X57.2103 Z-8.8481
 X57.2008 Z-8.8194
 X57.1913 Z-8.7929
 X57.1534 Z-8.7020
 X57.1344 Z-8.6631
 X57.1155 Z-8.6274
 X57.0775 Z-8.5635
 X57.0586 Z-8.5345
 X57.0491 Z-8.5207
 X57.0396 Z-8.5073
 X56.9638 Z-8.4119
 X56.9258 Z-8.3708
 X56.8879 Z-8.3333
 X56.8121 Z-8.2671
 X56.7741 Z-8.2379
 X56.7552 Z-8.2242
 X56.7362 Z-8.2110
 X56.6604 Z-8.1633
 X56.6224 Z-8.1422
 X56.5845 Z-8.1229
 X56.5087 Z-8.0891
 X56.4707 Z-8.0744
 X56.4518 Z-8.0677
 X56.4328 Z-8.0612
 X56.3570 Z-8.0389
 X56.3190 Z-8.0297
 X56.2811 Z-8.0218
 X56.2053 Z-8.0097
 X56.1294 Z-8.0025
 X55.8260 Z-8.0000
 X50.2891
 X50.2512 Z-1.0194
 X50.2322 Z-0.9263
 X50.2227 Z-0.8899
 X50.2180 Z-0.8733
 X50.2132 Z-0.8575
 X50.1753 Z-0.7520
 X50.1563 Z-0.7084
 X50.1374 Z-0.6689
 X50.0995 Z-0.5993
 X50.0805 Z-0.5681
 X50.0710 Z-0.5533
 X50.0615 Z-0.5389
 X49.9857 Z-0.4375
 X49.9478 Z-0.3941
 X49.9098 Z-0.3546
 X49.8340 Z-0.2851
 X49.7961 Z-0.2545
 X49.7771 Z-0.2401
 X49.7581 Z-0.2263
 X49.6823 Z-0.1763
 X49.6444 Z-0.1542
 X49.6064 Z-0.1339
 X49.5306 Z-0.0982
 X49.4927 Z-0.0827
 X49.4737 Z-0.0755
 X49.4547 Z-0.0687
 X49.3789 Z-0.0448
 X49.3410 Z-0.0349
 X49.3030 Z-0.0262
 X49.2272 Z-0.0127
 X49.1513 Z-0.0041
 X48.8480 Z0.0000
 X1.2150
 Y53.4689
 X48.9997
 X49.0755 Z-0.0002
 X49.1134 Z-0.0016
 X49.1324 Z-0.0027
 X49.1513 Z-0.0041
 X49.2272 Z-0.0127
 X49.2651 Z-0.0188
 X49.3030 Z-0.0262
 X49.3789 Z-0.0448
 X49.4168 Z-0.0561
 X49.4358 Z-0.0622
 X49.4547 Z-0.0687
 X49.5306 Z-0.0982
 X49.5685 Z-0.1153
 X49.6064 Z-0.1339
 X49.6823 Z-0.1763
 X49.7202 Z-0.2003
 X49.7392 Z-0.2130
 X49.7581 Z-0.2263
 X49.8340 Z-0.2851
 X49.8719 Z-0.3184
 X49.8909 Z-0.3361
 X49.9098 Z-0.3546
 X49.9478 Z-0.3941
 X49.9857 Z-0.4375
 X50.0236 Z-0.4855
 X50.0426 Z-0.5114
 X50.0615 Z-0.5389
 X50.0995 Z-0.5993
 X50.1374 Z-0.6689
 X50.1753 Z-0.7520
 X50.2132 Z-0.8575
 X50.2512 Z-1.0194
 X50.2606 Z-1.0908
 X50.2654 Z-1.1522
 X50.2677 Z-8.0000
 X55.9777
 X56.0536
 X56.0915 Z-8.0006
 X56.1294 Z-8.0025
 X56.2053 Z-8.0097
 X56.2432 Z-8.0151
 X56.2811 Z-8.0218
 X56.3570 Z-8.0389
 X56.3949 Z-8.0494
 X56.4139 Z-8.0551
 X56.4328 Z-8.0612
 X56.5087 Z-8.0891
 X56.5466 Z-8.1052
 X56.5845 Z-8.1229
 X56.6604 Z-8.1633
 X56.6983 Z-8.1861
 X56.7173 Z-8.1983
 X56.7362 Z-8.2110
 X56.8121 Z-8.2671
 X56.8500 Z-8.2988
 X56.8689 Z-8.3157
 X56.8879 Z-8.3333
 X56.9258 Z-8.3708
 X56.9638 Z-8.4119
 X57.0017 Z-8.4572
 X57.0206 Z-8.4815
 X57.0396 Z-8.5073
 X57.0775 Z-8.5635
 X57.1155 Z-8.6274
 X57.1534 Z-8.7020
 X57.1913 Z-8.7929
 X57.2292 Z-8.9144
 X57.2482 Z-9.0020
 X57.2577 Z-9.0647
 X57.2624 Z-9.1095
 X57.2648 Z-9.1416
 X57.2660 Z-9.1649
 X57.2666 Z-9.1824
 X57.2669 Z-9.1964
 X57.2670 Z-19.0000
 X192.8087
 X192.8466 Z-9.0623
 X192.8656 Z-8.9530
 X192.8751 Z-8.9132
 X192.8845 Z-8.8784
 X192.9225 Z-8.7673
 X192.9414 Z-8.7222
 X192.9509 Z-8.7013
 X192.9604 Z-8.6815
 X193.0362 Z-8.5483
 X193.0742 Z-8.4938
 X193.0931 Z-8.4688
 X193.1121 Z-8.4451
 X193.1879 Z-8.3608
 X193.2259 Z-8.3241
 X193.2448 Z-8.3069
 X193.2638 Z-8.2904
 X193.3396 Z-8.2307
 X193.3776 Z-8.2044
 X193.4155 Z-8.1801
 X193.4913 Z-8.1371
 X193.5293 Z-8.1182
 X193.5482 Z-8.1094
 X193.5672 Z-8.1009
 X193.6430 Z-8.0709
 X193.6810 Z-8.0580
 X193.7189 Z-8.0466
 X193.7947 Z-8.0275
 X193.8327 Z-8.0200
 X193.8706 Z-8.0136
 X194.1740 Z-8.0000
 X199.8247
 X199.8437 Z-1.0879
 X199.8531 Z-1.0176
 X199.8579 Z-0.9907
 X199.8626 Z-0.9668
 X199.8816 Z-0.8889
 X199.9005 Z-0.8272
 X199.9195 Z-0.7749
 X199.9290 Z-0.7512
 X199.9337 Z-0.7399
 X199.9385 Z-0.7289
 X200.0143 Z-0.5830
 X200.0522 Z-0.5245
 X200.0712 Z-0.4979
 X200.0902 Z-0.4726
 X200.1281 Z-0.4259
 X200.1660 Z-0.3836
 X200.2039 Z-0.3449
 X200.2229 Z-0.3268
 X200.2419 Z-0.3095
 X200.3177 Z-0.2470
 X200.3556 Z-0.2194
 X200.3936 Z-0.1939
 X200.4694 Z-0.1488
 X200.5073 Z-0.1289
 X200.5263 Z-0.1196
 X200.5453 Z-0.1107
 X200.6211 Z-0.0790
 X200.6590 Z-0.0653
 X200.6970 Z-0.0530
 X200.7728 Z-0.0325
 X200.8107 Z-0.0242
 X200.8487 Z-0.0171
 X201.1520 Z0.0000
 X248.7850
 Y54.4365
 X201.0762
 X201.0003 Z-0.0011
 X200.9245 Z-0.0067
 X200.8866 Z-0.0113
 X200.8676 Z-0.0141
 X200.8487 Z-0.0171
 X200.7728 Z-0.0325
 X200.7349 Z-0.0421
 X200.6970 Z-0.0530
 X200.6211 Z-0.0790
 X200.5832 Z-0.0941
 X200.5642 Z-0.1022
 X200.5453 Z-0.1107
 X200.4694 Z-0.1488
 X200.4315 Z-0.1704
 X200.3936 Z-0.1939
 X200.3177 Z-0.2470
 X200.2798 Z-0.2770
 X200.2608 Z-0.2929
 X200.2513 Z-0.3011
 X200.2466 Z-0.3053
 X200.2419 Z-0.3095
 X200.1660 Z-0.3836
 X200.1471 Z-0.4043
 X200.1376 Z-0.4150
 X200.1328 Z-0.4204
 X200.1305 Z-0.4232
 X200.1281 Z-0.4259
 X200.1186 Z-0.4372
 X200.1139 Z-0.4429
 X200.1115 Z-0.4458
 X200.1103 Z-0.4472
 X200.1097 Z-0.4480
 X200.1094 Z-0.4483
 X200.1093 Z-0.4485
 X200.1091 Z-0.4487
 X200.1044 Z-0.4546
 X200.1032 Z-0.4560
 X200.1026 Z-0.4568
 X200.1023 Z-0.4571
 X200.1022 Z-0.4573
 X200.1021 Z-0.4574
 Z-0.4575
 X200.1020
 X200.1014 Z-0.4583
 X200.1011 Z-0.4586
 X50.0046
 X49.9857 Z-0.4375
 X49.9478 Z-0.3941
 X49.9098 Z-0.3546
 X49.8340 Z-0.2851
 X49.7961 Z-0.2545
 X49.7771 Z-0.2401
 X49.7581 Z-0.2263
 X49.6823 Z-0.1763
 X49.6444 Z-0.1542
 X49.6064 Z-0.1339
 X49.5306 Z-0.0982
 X49.4927 Z-0.0827
 X49.4737 Z-0.0755
 X49.4547 Z-0.0687
 X49.3789 Z-0.0448
 X49.3410 Z-0.0349
 X49.3030 Z-0.0262
 X49.2272 Z-0.0127
 X49.1513 Z-0.0041
 X48.8480 Z0.0000
 X1.2150
 Y55.4042
 X248.7850
 Y56.3719
 X1.2150
 Y57.3395
 X248.7850
 Y58.3072
 X1.2150
 Y59.2749
 X248.7850
 Y60.2425
 X1.2150
 Y61.2102
 X248.7850
 Y62.1778
 X1.2150
 Y63.1455
 X248.7850
 Y64.1132
 X1.2150
 Y65.0808
 X48.9997
 X49.0755 Z-0.0002
 X49.1134 Z-0.0016
 X49.1324 Z-0.0027
 X49.1513 Z-0.0041
 X49.2272 Z-0.0127
 X49.2651 Z-0.0188
 X49.3030 Z-0.0262
 X49.3789 Z-0.0448
 X49.4168 Z-0.0561
 X49.4547 Z-0.0687
 X49.5306 Z-0.0982
 X49.6064 Z-0.1339
 X49.6823 Z-0.1763
 X49.7013 Z-0.1880
 X49.7107 Z-0.1941
 X49.7155 Z-0.1971
 X49.7178 Z-0.1987
 X49.7202 Z-0.2003
 X49.7297 Z-0.2066
 X49.7344 Z-0.2098
 X49.7368 Z-0.2114
 X49.7380 Z-0.2122
 X49.7386 Z-0.2126
 X49.7389 Z-0.2128
 X49.7390 Z-0.2129
 X49.7392 Z-0.2130
 X49.7415 Z-0.2146
 X49.7427 Z-0.2154
 X49.7433 Z-0.2159
 X49.7436 Z-0.2161
 X49.7438 Z-0.2162
 X49.7439 Z-0.2163
 X49.7445 Z-0.2167
 X49.7448 Z-0.2169
 X49.7450 Z-0.2170
 X49.7451 Z-0.2171
 X49.7457 Z-0.2173
 X200.2419
 X200.5453 Z-0.1107
 X200.6211 Z-0.0790
 X200.6590 Z-0.0653
 X200.6970 Z-0.0530
 X200.7728 Z-0.0325
 X200.8107 Z-0.0242
 X200.8487 Z-0.0171
 X201.1520 Z0.0000
 X248.7850
 Y66.0485
 X201.0762
 X201.0003 Z-0.0011
 X200.9245 Z-0.0067
 X200.8866 Z-0.0113
 X200.8676 Z-0.0141
 X200.8487 Z-0.0171
 X200.7728 Z-0.0325
 X200.7349 Z-0.0421
 X200.6970 Z-0.0530
 X200.6211 Z-0.0790
 X200.5832 Z-0.0941
 X200.5642 Z-0.1022
 X200.5453 Z-0.1107
 X200.4694 Z-0.1488
 X200.4315 Z-0.1704
 X200.3936 Z-0.1939
 X200.3177 Z-0.2470
 X200.2798 Z-0.2770
 X200.2608 Z-0.2929
 X200.2513 Z-0.3011
 X200.2419 Z-0.3095
 X200.1660 Z-0.3836
 X200.1281 Z-0.4259
 X200.1091 Z-0.4487
 X200.0902 Z-0.4726
 X200.0522 Z-0.5245
 X200.0143 Z-0.5830
 X199.9764 Z-0.6499
 X199.9385 Z-0.7289
 X199.9195 Z-0.7749
 X199.9005 Z-0.8272
 X199.8626 Z-0.9668
 X199.8437 Z-1.0879
 X199.8389 Z-1.1466
 X199.8365 Z-8.0000
 X194.1740
 X194.0223 Z-8.0004
 X193.9464 Z-8.0046
 X193.9085 Z-8.0085
 X193.8895 Z-8.0109
 X193.8706 Z-8.0136
 X193.7947 Z-8.0275
 X193.7568 Z-8.0364
 X193.7189 Z-8.0466
 X193.6430 Z-8.0709
 X193.6051 Z-8.0852
 X193.5861 Z-8.0929
 X193.5672 Z-8.1009
 X193.4913 Z-8.1371
 X193.4534 Z-8.1577
 X193.4155 Z-8.1801
 X193.3396 Z-8.2307
 X193.3017 Z-8.2593
 X193.2827 Z-8.2745
 X193.2733 Z-8.2824
 X193.2638 Z-8.2904
 X193.1879 Z-8.3608
 X193.1500 Z-8.4010
 X193.1311 Z-8.4225
 X193.1121 Z-8.4451
 X193.0742 Z-8.4938
 X193.0362 Z-8.5483
 X192.9983 Z-8.6100
 X192.9604 Z-8.6815
 X192.9225 Z-8.7673
 X192.9035 Z-8.8185
 X192.8940 Z-8.8471
 X192.8845 Z-8.8784
 X192.8466 Z-9.0623
 X192.8371 Z-9.1960
 X192.8324 Z-19.0000
 X57.2672
 X57.2292 Z-8.9144
 X57.2103 Z-8.8481
 X57.2008 Z-8.8194
 X57.1913 Z-8.7929
 X57.1534 Z-8.7020
 X57.1344 Z-8.6631
 X57.1155 Z-8.6274
 X57.0775 Z-8.5635
 X57.0586 Z-8.5345
 X57.0491 Z-8.5207
 X57.0396 Z-8.5073
 X56.9638 Z-8.4119
 X56.9258 Z-8.3708
 X56.8879 Z-8.3333
 X56.8121 Z-8.2671
 X56.7741 Z-8.2379
 X56.7552 Z-8.2242
 X56.7362 Z-8.2110
 X56.6604 Z-8.1633
 X56.6224 Z-8.1422
 X56.5845 Z-8.1229
 X56.5087 Z-8.0891
 X56.4707 Z-8.0744
 X56.4518 Z-8.0677
 X56.4328 Z-8.0612
 X56.3570 Z-8.0389
 X56.3190 Z-8.0297
 X56.2811 Z-8.0218
 X56.2053 Z-8.0097
 X56.1294 Z-8.0025
 X55.8260 Z-8.0000
 X50.2891
 X50.2512 Z-1.0194
 X50.2322 Z-0.9263
 X50.2227 Z-0.8899
 X50.2180 Z-0.8733
 X50.2132 Z-0.8575
 X50.1753 Z-0.7520
 X50.1563 Z-0.7084
 X50.1374 Z-0.6689
 X50.0995 Z-0.5993
 X50.0805 Z-0.5681
 X50.0710 Z-0.5533
 X50.0615 Z-0.5389
 X49.9857 Z-0.4375
 X49.9478 Z-0.3941
 X49.9098 Z-0.3546
 X49.8340 Z-0.2851
 X49.7961 Z-0.2545
 X49.7771 Z-0.2401
 X49.7581 Z-0.2263
 X49.6823 Z-0.1763
 X49.6444 Z-0.1542
 X49.6064 Z-0.1339
 X49.5306 Z-0.0982
 X49.4927 Z-0.0827
 X49.4737 Z-0.0755
 X49.4547 Z-0.0687
 X49.3789 Z-0.0448
 X49.3410 Z-0.0349
 X49.3030 Z-0.0262
 X49.2272 Z-0.0127
 X49.1513 Z-0.0041
 X48.8480 Z0.0000
 X1.2150
 Y67.0162
 X48.9997
 X49.0755 Z-0.0002
 X49.1134 Z-0.0016
 X49.1324 Z-0.0027
 X49.1513 Z-0.0041
 X49.2272 Z-0.0127
 X49.2651 Z-0.0188
 X49.3030 Z-0.0262
 X49.3789 Z-0.0448
 X49.4168 Z-0.0561
 X49.4358 Z-0.0622
 X49.4547 Z-0.0687
 X49.5306 Z-0.0982
 X49.5685 Z-0.1153
 X49.6064 Z-0.1339
 X49.6823 Z-0.1763
 X49.7202 Z-0.2003
 X49.7392 Z-0.2130
 X49.7581 Z-0.2263
 X49.8340 Z-0.2851
 X49.8719 Z-0.3184
 X49.8909 Z-0.3361
 X49.9098 Z-0.3546
 X49.9478 Z-0.3941
 X49.9857 Z-0.4375
 X50.0236 Z-0.4855
 X50.0426 Z-0.5114
 X50.0615 Z-0.5389
 X50.0995 Z-0.5993
 X50.1374 Z-0.6689
 X50.1753 Z-0.7520
 X50.2132 Z-0.8575
 X50.2512 Z-1.0194
 X50.2606 Z-1.0908
 X50.2654 Z-1.1522
 X50.2677 Z-8.0000
 X55.9777
 X56.0536
 X56.0915 Z-8.0006
 X56.1294 Z-8.0025
 X56.2053 Z-8.0097
 X56.2432 Z-8.0151
 X56.2811 Z-8.0218
 X56.3570 Z-8.0389
 X56.3949 Z-8.0494
 X56.4139 Z-8.0551
 X56.4328 Z-8.0612
 X56.5087 Z-8.0891
 X56.5466 Z-8.1052
 X56.5845 Z-8.1229
 X56.6604 Z-8.1633
 X56.6983 Z-8.1861
 X56.7173 Z-8.1983
 X56.7362 Z-8.2110
 X56.8121 Z-8.2671
 X56.8500 Z-8.2988
 X56.8689 Z-8.3157
 X56.8879 Z-8.3333
 X56.9258 Z-8.3708
 X56.9638 Z-8.4119
 X57.0017 Z-8.4572
 X57.0206 Z-8.4815
 X57.0396 Z-8.5073
 X57.0775 Z-8.5635
 X57.1155 Z-8.6274
 X57.1534 Z-8.7020
 X57.1913 Z-8.7929
 X57.2292 Z-8.9144
 X57.2482 Z-9.0020
 X57.2577 Z-9.0647
 X57.2624 Z-9.1095
 X57.2648 Z-9.1416
 X57.2660 Z-9.1649
 X57.2666 Z-9.1824
 X57.2669 Z-9.1964
 X57.2670 Z-19.0000
 X192.8087
 X192.8466 Z-9.0623
 X192.8656 Z-8.9530
 X192.8751 Z-8.9132
 X192.8845 Z-8.8784
 X192.9225 Z-8.7673
 X192.9414 Z-8.7222
 X192.9509 Z-8.7013
 X192.9604 Z-8.6815
 X193.0362 Z-8.5483
 X193.0742 Z-8.4938
 X193.0931 Z-8.4688
 X193.1121 Z-8.4451
 X193.1879 Z-8.3608
 X193.2259 Z-8.3241
 X193.2448 Z-8.3069
 X193.2638 Z-8.2904
 X193.3396 Z-8.2307
 X193.3776 Z-8.2044
 X193.4155 Z-8.1801
 X193.4913 Z-8.1371
 X193.5293 Z-8.1182
 X193.5482 Z-8.1094
 X193.5672 Z-8.1009
 X193.6430 Z-8.0709
 X193.6810 Z-8.0580
 X193.7189 Z-8.0466
 X193.7947 Z-8.0275
 X193.8327 Z-8.0200
 X193.8706 Z-8.0136
 X194.1740 Z-8.0000
 X199.8247
 X199.8437 Z-1.0879
 X199.8531 Z-1.0176
 X199.8579 Z-0.9907
 X199.8626 Z-0.9668
 X199.8816 Z-0.8889
 X199.9005 Z-0.8272
 X199.9195 Z-0.7749
 X199.9290 Z-0.7512
 X199.9337 Z-0.7399
 X199.9385 Z-0.7289
 X200.0143 Z-0.5830
 X200.0522 Z-0.5245
 X200.0712 Z-0.4979
 X200.0902 Z-0.4726
 X200.1281 Z-0.4259
 X200.1660 Z-0.3836
 X200.2039 Z-0.3449
 X200.2229 Z-0.3268
 X200.2419 Z-0.3095
 X200.3177 Z-0.2470
 X200.3556 Z-0.2194
 X200.3936 Z-0.1939
 X200.4694 Z-0.1488
 X200.5073 Z-0.1289
 X200.5263 Z-0.1196
 X200.5453 Z-0.1107
 X200.6211 Z-0.0790
 X200.6590 Z-0.0653
 X200.6970 Z-0.0530
 X200.7728 Z-0.0325
 X200.8107 Z-0.0242
 X200.8487 Z-0.0171
 X201.1520 Z0.0000
 X248.7850
 Y67.9838
 X201.0762
 X201.0003 Z-0.0011
 X200.9245 Z-0.0067
 X200.8866 Z-0.0113
 X200.8676 Z-0.0141
 X200.8487 Z-0.0171
 X200.7728 Z-0.0325
 X200.7349 Z-0.0421
 X200.6970 Z-0.0530
 X200.6211 Z-0.0790
 X200.5832 Z-0.0941
 X200.5642 Z-0.1022
 X200.5453 Z-0.1107
 X200.4694 Z-0.1488
 X200.4315 Z-0.1704
 X200.3936 Z-0.1939
 X200.3177 Z-0.2470
 X200.2798 Z-0.2770
 X200.2608 Z-0.2929
 X200.2513 Z-0.3011
 X200.2419 Z-0.3095
 X200.1660 Z-0.3836
 X200.1281 Z-0.4259
 X200.1091 Z-0.4487
 X200.0902 Z-0.4726
 X200.0522 Z-0.5245
 X200.0143 Z-0.5830
 X199.9764 Z-0.6499
 X199.9385 Z-0.7289
 X199.9195 Z-0.7749
 X199.9005 Z-0.8272
 X199.8626 Z-0.9668
 X199.8437 Z-1.0879
 X199.8389 Z-1.1466
 X199.8365 Z-8.0000
 X194.1740
 X194.0223 Z-8.0004
 X193.9464 Z-8.0046
 X193.9085 Z-8.0085
 X193.8895 Z-8.0109
 X193.8706 Z-8.0136
 X193.7947 Z-8.0275
 X193.7568 Z-8.0364
 X193.7189 Z-8.0466
 X193.6430 Z-8.0709
 X193.6051 Z-8.0852
 X193.5861 Z-8.0929
 X193.5672 Z-8.1009
 X193.4913 Z-8.1371
 X193.4534 Z-8.1577
 X193.4155 Z-8.1801
 X193.3396 Z-8.2307
 X193.3017 Z-8.2593
 X193.2827 Z-8.2745
 X193.2733 Z-8.2824
 X193.2638 Z-8.2904
 X193.1879 Z-8.3608
 X193.1500 Z-8.4010
 X193.1311 Z-8.4225
 X193.1121 Z-8.4451
 X193.0742 Z-8.4938
 X193.0362 Z-8.5483
 X192.9983 Z-8.6100
 X192.9604 Z-8.6815
 X192.9225 Z-8.7673
 X192.9035 Z-8.8185
 X192.8940 Z-8.8471
 X192.8845 Z-8.8784
 X192.8466 Z-9.0623
 X192.8371 Z-9.1960
 X192.8324 Z-19.0000
 X57.2672
 X57.2292 Z-8.9144
 X57.2103 Z-8.8481
 X57.2008 Z-8.8194
 X57.1913 Z-8.7929
 X57.1534 Z-8.7020
 X57.1344 Z-8.6631
 X57.1155 Z-8.6274
 X57.0775 Z-8.5635
 X57.0586 Z-8.5345
 X57.0491 Z-8.5207
 X57.0396 Z-8.5073
 X56.9638 Z-8.4119
 X56.9258 Z-8.3708
 X56.8879 Z-8.3333
 X56.8121 Z-8.2671
 X56.7741 Z-8.2379
 X56.7552 Z-8.2242
 X56.7362 Z-8.2110
 X56.6604 Z-8.1633
 X56.6224 Z-8.1422
 X56.5845 Z-8.1229
 X56.5087 Z-8.0891
 X56.4707 Z-8.0744
 X56.4518 Z-8.0677
 X56.4328 Z-8.0612
 X56.3570 Z-8.0389
 X56.3190 Z-8.0297
 X56.2811 Z-8.0218
 X56.2053 Z-8.0097
 X56.1294 Z-8.0025
 X55.8260 Z-8.0000
 X50.2891
 X50.2512 Z-1.0194
 X50.2322 Z-0.9263
 X50.2227 Z-0.8899
 X50.2180 Z-0.8733
 X50.2132 Z-0.8575
 X50.1753 Z-0.7520
 X50.1563 Z-0.7084
 X50.1374 Z-0.6689
 X50.0995 Z-0.5993
 X50.0805 Z-0.5681
 X50.0710 Z-0.5533
 X50.0615 Z-0.5389
 X49.9857 Z-0.4375
 X49.9478 Z-0.3941
 X49.9098 Z-0.3546
 X49.8340 Z-0.2851
 X49.7961 Z-0.2545
 X49.7771 Z-0.2401
 X49.7581 Z-0.2263
 X49.6823 Z-0.1763
 X49.6444 Z-0.1542
 X49.6064 Z-0.1339
 X49.5306 Z-0.0982
 X49.4927 Z-0.0827
 X49.4737 Z-0.0755
 X49.4547 Z-0.0687
 X49.3789 Z-0.0448
 X49.3410 Z-0.0349
 X49.3030 Z-0.0262
 X49.2272 Z-0.0127
 X49.1513 Z-0.0041
 X48.8480 Z0.0000
 X1.2150
 Y68.9515
 X48.9997
 X49.0755 Z-0.0002
 X49.1134 Z-0.0016
 X49.1324 Z-0.0027
 X49.1513 Z-0.0041
 X49.2272 Z-0.0127
 X49.2651 Z-0.0188
 X49.3030 Z-0.0262
 X49.3789 Z-0.0448
 X49.4168 Z-0.0561
 X49.4358 Z-0.0622
 X49.4547 Z-0.0687
 X49.5306 Z-0.0982
 X49.5685 Z-0.1153
 X49.6064 Z-0.1339
 X49.6823 Z-0.1763
 X49.7202 Z-0.2003
 X49.7392 Z-0.2130
 X49.7581 Z-0.2263
 X49.8340 Z-0.2851
 X49.8719 Z-0.3184
 X49.8909 Z-0.3361
 X49.9098 Z-0.3546
 X49.9478 Z-0.3941
 X49.9857 Z-0.4375
 X50.0236 Z-0.4855
 X50.0426 Z-0.5114
 X50.0615 Z-0.5389
 X50.0995 Z-0.5993
 X50.1374 Z-0.6689
 X50.1753 Z-0.7520
 X50.2132 Z-0.8575
 X50.2512 Z-1.0194
 X50.2606 Z-1.0908
 X50.2654 Z-1.1522
 X50.2677 Z-8.0000
 X55.9777
 X56.0536
 X56.0915 Z-8.0006
 X56.1294 Z-8.0025
 X56.2053 Z-8.0097
 X56.2432 Z-8.0151
 X56.2811 Z-8.0218
 X56.3570 Z-8.0389
 X56.3949 Z-8.0494
 X56.4139 Z-8.0551
 X56.4328 Z-8.0612
 X56.5087 Z-8.0891
 X56.5466 Z-8.1052
 X56.5845 Z-8.1229
 X56.6604 Z-8.1633
 X56.6983 Z-8.1861
 X56.7173 Z-8.1983
 X56.7362 Z-8.2110
 X56.8121 Z-8.2671
 X56.8500 Z-8.2988
 X56.8689 Z-8.3157
 X56.8879 Z-8.3333
 X56.9258 Z-8.3708
 X56.9638 Z-8.4119
 X57.0017 Z-8.4572
 X57.0206 Z-8.4815
 X57.0396 Z-8.5073
 X57.0775 Z-8.5635
 X57.1155 Z-8.6274
 X57.1534 Z-8.7020
 X57.1913 Z-8.7929
 X57.2292 Z-8.9144
 X57.2482 Z-9.0020
 X57.2577 Z-9.0647
 X57.2624 Z-9.1095
 X57.2648 Z-9.1416
 X57.2660 Z-9.1649
 X57.2666 Z-9.1824
 X57.2669 Z-9.1964
 X57.2670 Z-19.0000
 X192.8087
 X192.8466 Z-9.0623
 X192.8656 Z-8.9530
 X192.8751 Z-8.9132
 X192.8845 Z-8.8784
 X192.9225 Z-8.7673
 X192.9414 Z-8.7222
 X192.9509 Z-8.7013
 X192.9604 Z-8.6815
 X193.0362 Z-8.5483
 X193.0742 Z-8.4938
 X193.0931 Z-8.4688
 X193.1121 Z-8.4451
 X193.1879 Z-8.3608
 X193.2259 Z-8.3241
 X193.2448 Z-8.3069
 X193.2638 Z-8.2904
 X193.3396 Z-8.2307
 X193.3776 Z-8.2044
 X193.4155 Z-8.1801
 X193.4913 Z-8.1371
 X193.5293 Z-8.1182
 X193.5482 Z-8.1094
 X193.5672 Z-8.1009
 X193.6430 Z-8.0709
 X193.6810 Z-8.0580
 X193.7189 Z-8.0466
 X193.7947 Z-8.0275
 X193.8327 Z-8.0200
 X193.8706 Z-8.0136
 X194.1740 Z-8.0000
 X199.8247
 X199.8437 Z-1.0879
 X199.8531 Z-1.0176
 X199.8579 Z-0.9907
 X199.8626 Z-0.9668
 X199.8816 Z-0.8889
 X199.9005 Z-0.8272
 X199.9195 Z-0.7749
 X199.9290 Z-0.7512
 X199.9337 Z-0.7399
 X199.9385 Z-0.7289
 X200.0143 Z-0.5830
 X200.0522 Z-0.5245
 X200.0712 Z-0.4979
 X200.0902 Z-0.4726
 X200.1281 Z-0.4259
 X200.1660 Z-0.3836
 X200.2039 Z-0.3449
 X200.2229 Z-0.3268
 X200.2419 Z-0.3095
 X200.3177 Z-0.2470
 X200.3556 Z-0.2194
 X200.3936 Z-0.1939
 X200.4694 Z-0.1488
 X200.5073 Z-0.1289
 X200.5263 Z-0.1196
 X200.5453 Z-0.1107
 X200.6211 Z-0.0790
 X200.6590 Z-0.0653
 X200.6970 Z-0.0530
 X200.7728 Z-0.0325
 X200.8107 Z-0.0242
 X200.8487 Z-0.0171
 X201.1520 Z0.0000
 X248.7850
 Y69.9192
 X201.0762
 X201.0003 Z-0.0011
 X200.9245 Z-0.0067
 X200.8487 Z-0.0171
 X200.6970 Z-0.0530
 X200.6590 Z-0.0653
 X200.6401 Z-0.0720
 X200.6306 Z-0.0754
 X200.6258 Z-0.0772
 X200.6211 Z-0.0790
 X200.6021 Z-0.0863
 X200.5927 Z-0.0902
 X200.5879 Z-0.0921
 X200.5867 Z-0.0926
 X200.5856 Z-0.0931
 X200.5850 Z-0.0933
 X200.5847 Z-0.0935
 X200.5845
 X200.5844 Z-0.0936
 X200.5832 Z-0.0938
 X49.6064
 X49.4547 Z-0.0687
 X49.3789 Z-0.0448
 X49.3410 Z-0.0349
 X49.3030 Z-0.0262
 X49.2272 Z-0.0127
 X49.1513 Z-0.0041
 X48.8480 Z0.0000
 X1.2150
 Y70.8868
 X248.7850
 Y71.8545
 X1.2150
 Y72.8222
 X248.7850
 Y73.7898
 X1.2150
 Y74.7575
 X248.7850
 Y75.7251
 X1.2150
 Y76.6928
 X248.7850
 Y77.6605
 X1.2150
 Y78.6281
 X248.7850
 Y79.5958
 X201.1520
 X200.8487 Z-0.0171
 X200.5453 Z-0.0180
 X49.4547
 X49.1513 Z-0.0041
 X48.8480 Z0.0000
 X1.2150
 Y80.5635
 X48.9997
 X49.0755 Z-0.0002
 X49.1134 Z-0.0016
 X49.1324 Z-0.0027
 X49.1513 Z-0.0041
 X49.2272 Z-0.0127
 X49.2651 Z-0.0188
 X49.3030 Z-0.0262
 X49.3789 Z-0.0448
 X49.4168 Z-0.0561
 X49.4358 Z-0.0622
 X49.4547 Z-0.0687
 X49.5306 Z-0.0982
 X49.5685 Z-0.1153
 X49.6064 Z-0.1339
 X49.6823 Z-0.1763
 X49.7202 Z-0.2003
 X49.7392 Z-0.2130
 X49.7581 Z-0.2263
 X50.0615 Z-0.5389
 X50.0995 Z-0.5993
 X50.1374 Z-0.6689
 X50.1753 Z-0.7520
 X50.1943 Z-0.8009
 X50.2037 Z-0.8281
 X50.2085 Z-0.8425
 X50.2109 Z-0.8499
 X50.2120 Z-0.8537
 X50.2126 Z-0.8556
 X50.2129 Z-0.8566
 X50.2131 Z-0.8571
 X50.2132 Z-0.8573
 Z-0.8575
 X50.2227 Z-0.8899
 X50.2251 Z-0.8986
 X50.2263 Z-0.9030
 X50.2269 Z-0.9053
 X50.2272 Z-0.9064
 X50.2273 Z-0.9070
 X50.2274 Z-0.9072
 Z-0.9074
 Z-0.9075
 X50.2275
 X50.2280 Z-0.9098
 X50.2286 Z-0.9100
 X199.7868
 X199.9385 Z-0.7289
 X200.0143 Z-0.5830
 X200.0522 Z-0.5245
 X200.0712 Z-0.4979
 X200.0902 Z-0.4726
 X200.1281 Z-0.4259
 X200.1660 Z-0.3836
 X200.2039 Z-0.3449
 X200.2229 Z-0.3268
 X200.2419 Z-0.3095
 X200.3177 Z-0.2470
 X200.3556 Z-0.2194
 X200.3936 Z-0.1939
 X200.4694 Z-0.1488
 X200.5073 Z-0.1289
 X200.5263 Z-0.1196
 X200.5453 Z-0.1107
 X200.6211 Z-0.0790
 X200.6590 Z-0.0653
 X200.6970 Z-0.0530
 X200.7728 Z-0.0325
 X200.8107 Z-0.0242
 X200.8487 Z-0.0171
 X201.1520 Z0.0000
 X248.7850
 Y81.5311
 X201.0762
 X201.0003 Z-0.0011
 X200.9245 Z-0.0067
 X200.8866 Z-0.0113
 X200.8676 Z-0.0141
 X200.8487 Z-0.0171
 X200.7728 Z-0.0325
 X200.7349 Z-0.0421
 X200.6970 Z-0.0530
 X200.6211 Z-0.0790
 X200.5832 Z-0.0941
 X200.5642 Z-0.1022
 X200.5453 Z-0.1107
 X200.4694 Z-0.1488
 X200.4315 Z-0.1704
 X200.3936 Z-0.1939
 X200.3177 Z-0.2470
 X200.2798 Z-0.2770
 X200.2608 Z-0.2929
 X200.2513 Z-0.3011
 X200.2419 Z-0.3095
 X200.1660 Z-0.3836
 X200.1281 Z-0.4259
 X200.1091 Z-0.4487
 X200.0902 Z-0.4726
 X200.0522 Z-0.5245
 X200.0143 Z-0.5830
 X199.9764 Z-0.6499
 X199.9385 Z-0.7289
 X199.9195 Z-0.7749
 X199.9005 Z-0.8272
 X199.8626 Z-0.9668
 X199.8437 Z-1.0879
 X199.8389 Z-1.1466
 X199.8365 Z-8.0000
 X194.1740
 X194.0223 Z-8.0004
 X193.9464 Z-8.0046
 X193.9085 Z-8.0085
 X193.8895 Z-8.0109
 X193.8706 Z-8.0136
 X193.7947 Z-8.0275
 X193.7568 Z-8.0364
 X193.7189 Z-8.0466
 X193.6430 Z-8.0709
 X193.6051 Z-8.0852
 X193.5861 Z-8.0929
 X193.5672 Z-8.1009
 X193.4913 Z-8.1371
 X193.4534 Z-8.1577
 X193.4155 Z-8.1801
 X193.3396 Z-8.2307
 X193.3017 Z-8.2593
 X193.2827 Z-8.2745
 X193.2733 Z-8.2824
 X193.2638 Z-8.2904
 X193.1879 Z-8.3608
 X193.1500 Z-8.4010
 X193.1311 Z-8.4225
 X193.1121 Z-8.4451
 X193.0742 Z-8.4938
 X193.0362 Z-8.5483
 X192.9983 Z-8.6100
 X192.9604 Z-8.6815
 X192.9225 Z-8.7673
 X192.9035 Z-8.8185
 X192.8940 Z-8.8471
 X192.8845 Z-8.8784
 X192.8466 Z-9.0623
 X192.8371 Z-9.1960
 X192.8324 Z-19.0000
 X57.2672
 X57.2292 Z-8.9144
 X57.2103 Z-8.8481
 X57.2008 Z-8.8194
 X57.1913 Z-8.7929
 X57.1534 Z-8.7020
 X57.1344 Z-8.6631
 X57.1155 Z-8.6274
 X57.0775 Z-8.5635
 X57.0586 Z-8.5345
 X57.0491 Z-8.5207
 X57.0396 Z-8.5073
 X56.9638 Z-8.4119
 X56.9258 Z-8.3708
 X56.8879 Z-8.3333
 X56.8121 Z-8.2671
 X56.7741 Z-8.2379
 X56.7552 Z-8.2242
 X56.7362 Z-8.2110
 X56.6604 Z-8.1633
 X56.6224 Z-8.1422
 X56.5845 Z-8.1229
 X56.5087 Z-8.0891
 X56.4707 Z-8.0744
 X56.4518 Z-8.0677
 X56.4328 Z-8.0612
 X56.3570 Z-8.0389
 X56.3190 Z-8.0297
 X56.2811 Z-8.0218
 X56.2053 Z-8.0097
 X56.1294 Z-8.0025
 X55.8260 Z-8.0000
 X50.2891
 X50.2512 Z-1.0194
 X50.2322 Z-0.9263
 X50.2227 Z-0.8899
 X50.2180 Z-0.8733
 X50.2132 Z-0.8575
 X50.1753 Z-0.7520
 X50.1563 Z-0.7084
 X50.1374 Z-0.6689
 X50.0995 Z-0.5993
 X50.0805 Z-0.5681
 X50.0710 Z-0.5533
 X50.0615 Z-0.5389
 X49.9857 Z-0.4375
 X49.9478 Z-0.3941
 X49.9098 Z-0.3546
 X49.8340 Z-0.2851
 X49.7961 Z-0.2545
 X49.7771 Z-0.2401
 X49.7581 Z-0.2263
 X49.6823 Z-0.1763
 X49.6444 Z-0.1542
 X49.6064 Z-0.1339
 X49.5306 Z-0.0982
 X49.4927 Z-0.0827
 X49.4737 Z-0.0755
 X49.4547 Z-0.0687
 X49.3789 Z-0.0448
 X49.3410 Z-0.0349
 X49.3030 Z-0.0262
 X49.2272 Z-0.0127
 X49.1513 Z-0.0041
 X48.8480 Z0.0000
 X1.2150
 Y82.4988
 X48.9997
 X49.0755 Z-0.0002
 X49.1134 Z-0.0016
 X49.1324 Z-0.0027
 X49.1513 Z-0.0041
 X49.2272 Z-0.0127
 X49.2651 Z-0.0188
 X49.3030 Z-0.0262
 X49.3789 Z-0.0448
 X49.4168 Z-0.0561
 X49.4358 Z-0.0622
 X49.4547 Z-0.0687
 X49.5306 Z-0.0982
 X49.5685 Z-0.1153
 X49.6064 Z-0.1339
 X49.6823 Z-0.1763
 X49.7202 Z-0.2003
 X49.7392 Z-0.2130
 X49.7581 Z-0.2263
 X49.8340 Z-0.2851
 X49.8719 Z-0.3184
 X49.8909 Z-0.3361
 X49.9098 Z-0.3546
 X49.9478 Z-0.3941
 X49.9857 Z-0.4375
 X50.0236 Z-0.4855
 X50.0426 Z-0.5114
 X50.0615 Z-0.5389
 X50.0995 Z-0.5993
 X50.1374 Z-0.6689
 X50.1753 Z-0.7520
 X50.2132 Z-0.8575
 X50.2512 Z-1.0194
 X50.2606 Z-1.0908
 X50.2654 Z-1.1522
 X50.2677 Z-8.0000
 X55.9777
 X56.0536
 X56.0915 Z-8.0006
 X56.1294 Z-8.0025
 X56.2053 Z-8.0097
 X56.2432 Z-8.0151
 X56.2811 Z-8.0218
 X56.3570 Z-8.0389
 X56.3949 Z-8.0494
 X56.4139 Z-8.0551
 X56.4328 Z-8.0612
 X56.5087 Z-8.0891
 X56.5466 Z-8.1052
 X56.5845 Z-8.1229
 X56.6604 Z-8.1633
 X56.6983 Z-8.1861
 X56.7173 Z-8.1983
 X56.7362 Z-8.2110
 X56.8121 Z-8.2671
 X56.8500 Z-8.2988
 X56.8689 Z-8.3157
 X56.8879 Z-8.3333
 X56.9258 Z-8.3708
 X56.9638 Z-8.4119
 X57.0017 Z-8.4572
 X57.0206 Z-8.4815
 X57.0396 Z-8.5073
 X57.0775 Z-8.5635
 X57.1155 Z-8.6274
 X57.1534 Z-8.7020
 X57.1913 Z-8.7929
 X57.2292 Z-8.9144
 X57.2482 Z-9.0020
 X57.2577 Z-9.0647
 X57.2624 Z-9.1095
 X57.2648 Z-9.1416
 X57.2660 Z-9.1649
 X57.2666 Z-9.1824
 X57.2669 Z-9.1964
 X57.2670 Z-19.0000
 X192.8087
 X192.8466 Z-9.0623
 X192.8656 Z-8.9530
 X192.8751 Z-8.9132
 X192.8845 Z-8.8784
 X192.9225 Z-8.7673
 X192.9414 Z-8.7222
 X192.9509 Z-8.7013
 X192.9604 Z-8.6815
 X193.0362 Z-8.5483
 X193.0742 Z-8.4938
 X193.0931 Z-8.4688
 X193.1121 Z-8.4451
 X193.1879 Z-8.3608
 X193.2259 Z-8.3241
 X193.2448 Z-8.3069
 X193.2638 Z-8.2904
 X193.3396 Z-8.2307
 X193.3776 Z-8.2044
 X193.4155 Z-8.1801
 X193.4913 Z-8.1371
 X193.5293 Z-8.1182
 X193.5482 Z-8.1094
 X193.5672 Z-8.1009
 X193.6430 Z-8.0709
 X193.6810 Z-8.0580
 X193.7189 Z-8.0466
 X193.7947 Z-8.0275
 X193.8327 Z-8.0200
 X193.8706 Z-8.0136
 X194.1740 Z-8.0000
 X199.8247
 X199.8437 Z-1.0879
 X199.8531 Z-1.0176
 X199.8579 Z-0.9907
 X199.8626 Z-0.9668
 X199.8816 Z-0.8889
 X199.9005 Z-0.8272
 X199.9195 Z-0.7749
 X199.9290 Z-0.7512
 X199.9337 Z-0.7399
 X199.9385 Z-0.7289
 X200.0143 Z-0.5830
 X200.0522 Z-0.5245
 X200.0712 Z-0.4979
 X200.0902 Z-0.4726
 X200.1281 Z-0.4259
 X200.1660 Z-0.3836
 X200.2039 Z-0.3449
 X200.2229 Z-0.3268
 X200.2419 Z-0.3095
 X200.3177 Z-0.2470
 X200.3556 Z-0.2194
 X200.3936 Z-0.1939
 X200.4694 Z-0.1488
 X200.5073 Z-0.1289
 X200.5263 Z-0.1196
 X200.5453 Z-0.1107
 X200.6211 Z-0.0790
 X200.6590 Z-0.0653
 X200.6970 Z-0.0530
 X200.7728 Z-0.0325
 X200.8107 Z-0.0242
 X200.8487 Z-0.0171
 X201.1520 Z0.0000
 X248.7850
 Y83.4665
 X201.0762
 X201.0003 Z-0.0011
 X200.9245 Z-0.0067
 X200.8866 Z-0.0113
 X200.8676 Z-0.0141
 X200.8487 Z-0.0171
 X200.7728 Z-0.0325
 X200.7349 Z-0.0421
 X200.6970 Z-0.0530
 X200.6211 Z-0.0790
 X200.5832 Z-0.0941
 X200.5642 Z-0.1022
 X200.5453 Z-0.1107
 X200.4694 Z-0.1488
 X200.4315 Z-0.1704
 X200.3936 Z-0.1939
 X200.3177 Z-0.2470
 X200.2798 Z-0.2770
 X200.2608 Z-0.2929
 X200.2513 Z-0.3011
 X200.2419 Z-0.3095
 X200.1660 Z-0.3836
 X200.1281 Z-0.4259
 X200.1091 Z-0.4487
 X200.0902 Z-0.4726
 X200.0522 Z-0.5245
 X200.0143 Z-0.5830
 X199.9764 Z-0.6499
 X199.9385 Z-0.7289
 X199.9195 Z-0.7749
 X199.9005 Z-0.8272
 X199.8626 Z-0.9668
 X199.8437 Z-1.0879
 X199.8389 Z-1.1466
 X199.8365 Z-8.0000
 X194.1740
 X194.0223 Z-8.0004
 X193.9464 Z-8.0046
 X193.9085 Z-8.0085
 X193.8895 Z-8.0109
 X193.8706 Z-8.0136
 X193.7947 Z-8.0275
 X193.7568 Z-8.0364
 X193.7189 Z-8.0466
 X193.6430 Z-8.0709
 X193.6051 Z-8.0852
 X193.5861 Z-8.0929
 X193.5672 Z-8.1009
 X193.4913 Z-8.1371
 X193.4534 Z-8.1577
 X193.4155 Z-8.1801
 X193.3396 Z-8.2307
 X193.3017 Z-8.2593
 X193.2827 Z-8.2745
 X193.2733 Z-8.2824
 X193.2638 Z-8.2904
 X193.1879 Z-8.3608
 X193.1500 Z-8.4010
 X193.1311 Z-8.4225
 X193.1121 Z-8.4451
 X193.0742 Z-8.4938
 X193.0362 Z-8.5483
 X192.9983 Z-8.6100
 X192.9604 Z-8.6815
 X192.9225 Z-8.7673
 X192.9035 Z-8.8185
 X192.8940 Z-8.8471
 X192.8845 Z-8.8784
 X192.8466 Z-9.0623
 X192.8371 Z-9.1960
 X192.8324 Z-19.0000
 X57.2672
 X57.2292 Z-8.9144
 X57.2103 Z-8.8481
 X57.2008 Z-8.8194
 X57.1913 Z-8.7929
 X57.1534 Z-8.7020
 X57.1344 Z-8.6631
 X57.1155 Z-8.6274
 X57.0775 Z-8.5635
 X57.0586 Z-8.5345
 X57.0491 Z-8.5207
 X57.0396 Z-8.5073
 X56.9638 Z-8.4119
 X56.9258 Z-8.3708
 X56.8879 Z-8.3333
 X56.8121 Z-8.2671
 X56.7741 Z-8.2379
 X56.7552 Z-8.2242
 X56.7362 Z-8.2110
 X56.6604 Z-8.1633
 X56.6224 Z-8.1422
 X56.5845 Z-8.1229
 X56.5087 Z-8.0891
 X56.4707 Z-8.0744
 X56.4518 Z-8.0677
 X56.4328 Z-8.0612
 X56.3570 Z-8.0389
 X56.3190 Z-8.0297
 X56.2811 Z-8.0218
 X56.2053 Z-8.0097
 X56.1294 Z-8.0025
 X55.8260 Z-8.0000
 X50.2891
 X50.2512 Z-1.0194
 X50.2322 Z-0.9263
 X50.2227 Z-0.8899
 X50.2180 Z-0.8733
 X50.2132 Z-0.8575
 X50.1753 Z-0.7520
 X50.1563 Z-0.7084
 X50.1374 Z-0.6689
 X50.0995 Z-0.5993
 X50.0805 Z-0.5681
 X50.0710 Z-0.5533
 X50.0615 Z-0.5389
 X49.9857 Z-0.4375
 X49.9478 Z-0.3941
 X49.9098 Z-0.3546
 X49.8340 Z-0.2851
 X49.7961 Z-0.2545
 X49.7771 Z-0.2401
 X49.7581 Z-0.2263
 X49.6823 Z-0.1763
 X49.6444 Z-0.1542
 X49.6064 Z-0.1339
 X49.5306 Z-0.0982
 X49.4927 Z-0.0827
 X49.4737 Z-0.0755
 X49.4547 Z-0.0687
 X49.3789 Z-0.0448
 X49.3410 Z-0.0349
 X49.3030 Z-0.0262
 X49.2272 Z-0.0127
 X49.1513 Z-0.0041
 X48.8480 Z0.0000
 X1.2150
 Y84.4341
 X48.9997
 X49.0755 Z-0.0002
 X49.1134 Z-0.0016
 X49.1324 Z-0.0027
 X49.1513 Z-0.0041
 X49.2272 Z-0.0127
 X49.2651 Z-0.0188
 X49.3030 Z-0.0262
 X49.3789 Z-0.0448
 X49.4168 Z-0.0561
 X49.4358 Z-0.0622
 X49.4547 Z-0.0687
 X49.5306 Z-0.0982
 X49.5685 Z-0.1153
 X49.6064 Z-0.1339
 X49.6823 Z-0.1763
 X49.7581 Z-0.2263
 X49.9098 Z-0.3546
 X49.9478 Z-0.3941
 X49.9667 Z-0.4153
 X49.9762 Z-0.4263
 X49.9809 Z-0.4319
 X49.9833 Z-0.4347
 X49.9845 Z-0.4361
 X49.9851 Z-0.4368
 X49.9854 Z-0.4372
 X49.9857 Z-0.4375
 X49.9952 Z-0.4491
 X49.9999 Z-0.4549
 X50.0023 Z-0.4579
 X50.0035 Z-0.4594
 X50.0041 Z-0.4601
 X50.0043 Z-0.4605
 X50.0045 Z-0.4607
 X50.0046 Z-0.4608
 Z-0.4609
 X50.0141 Z-0.4617
 X200.0902
 X200.1660 Z-0.3836
 X200.2039 Z-0.3449
 X200.2229 Z-0.3268
 X200.2419 Z-0.3095
 X200.3177 Z-0.2470
 X200.3556 Z-0.2194
 X200.3936 Z-0.1939
 X200.4694 Z-0.1488
 X200.5073 Z-0.1289
 X200.5263 Z-0.1196
 X200.5453 Z-0.1107
 X200.6211 Z-0.0790
 X200.6590 Z-0.0653
 X200.6970 Z-0.0530
 X200.7728 Z-0.0325
 X200.8107 Z-0.0242
 X200.8487 Z-0.0171
 X201.1520 Z0.0000
 X248.7850
 Y85.4018
 X1.2150
 Y86.3695
 X248.7850
 Y87.3371
 X1.2150
 Y88.3048
 X248.7850
 Y89.2724
 X1.2150
 Y90.2401
 X248.7850
 Y91.2078
 X1.2150
 Y92.1754
 X248.7850
 Y93.1431
 X1.2150
 Y94.1108
 X248.7850
 Y95.0784
 X201.0762
 X201.0003 Z-0.0011
 X200.9245 Z-0.0067
 X200.8866 Z-0.0113
 X200.8676 Z-0.0141
 X200.8487 Z-0.0171
 X200.5453 Z-0.1107
 X200.4694 Z-0.1488
 X200.4315 Z-0.1704
 X200.4125 Z-0.1819
 X200.4030 Z-0.1878
 X200.3983 Z-0.1908
 X200.3959 Z-0.1924
 X200.3947 Z-0.1931
 X200.3936 Z-0.1939
 X200.3841 Z-0.2001
 X200.3793 Z-0.2032
 X200.3770 Z-0.2048
 X200.3746 Z-0.2064
 X200.3699 Z-0.2096
 X200.3675 Z-0.2112
 X200.3663 Z-0.2120
 X200.3657 Z-0.2124
 X200.3654 Z-0.2126
 X200.3653 Z-0.2127
 X200.3651 Z-0.2128
 X200.3627 Z-0.2144
 X200.3622 Z-0.2148
 X200.3619 Z-0.2150
 X200.3617 Z-0.2151
 X200.3616 Z-0.2152
 X200.3610 Z-0.2156
 X200.3604 Z-0.2157
 X49.7581
 X49.6064 Z-0.1339
 X49.5306 Z-0.0982
 X49.4927 Z-0.0827
 X49.4737 Z-0.0755
 X49.4547 Z-0.0687
 X49.3789 Z-0.0448
 X49.3410 Z-0.0349
 X49.3030 Z-0.0262
 X49.2272 Z-0.0127
 X49.1513 Z-0.0041
 X48.8480 Z0.0000
 X1.2150
 Y96.0461
 X48.9997
 X49.0755 Z-0.0002
 X49.1134 Z-0.0016
 X49.1324 Z-0.0027
 X49.1513 Z-0.0041
 X49.2272 Z-0.0127
 X49.2651 Z-0.0188
 X49.3030 Z-0.0262
 X49.3789 Z-0.0448
 X49.4168 Z-0.0561
 X49.4358 Z-0.0622
 X49.4547 Z-0.0687
 X49.5306 Z-0.0982
 X49.5685 Z-0.1153
 X49.6064 Z-0.1339
 X49.6823 Z-0.1763
 X49.7202 Z-0.2003
 X49.7392 Z-0.2130
 X49.7581 Z-0.2263
 X49.8340 Z-0.2851
 X49.8719 Z-0.3184
 X49.8909 Z-0.3361
 X49.9098 Z-0.3546
 X49.9478 Z-0.3941
 X49.9857 Z-0.4375
 X50.0236 Z-0.4855
 X50.0426 Z-0.5114
 X50.0615 Z-0.5389
 X50.0995 Z-0.5993
 X50.1374 Z-0.6689
 X50.1753 Z-0.7520
 X50.2132 Z-0.8575
 X50.2512 Z-1.0194
 X50.2606 Z-1.0908
 X50.2654 Z-1.1522
 X50.2677 Z-8.0000
 X55.9777
 X56.0536
 X56.0915 Z-8.0006
 X56.1294 Z-8.0025
 X56.2053 Z-8.0097
 X56.2432 Z-8.0151
 X56.2811 Z-8.0218
 X56.3570 Z-8.0389
 X56.3949 Z-8.0494
 X56.4139 Z-8.0551
 X56.4328 Z-8.0612
 X56.5087 Z-8.0891
 X56.5466 Z-8.1052
 X56.5845 Z-8.1229
 X56.6604 Z-8.1633
 X56.6983 Z-8.1861
 X56.7173 Z-8.1983
 X56.7362 Z-8.2110
 X56.8121 Z-8.2671
 X56.8500 Z-8.2988
 X56.8689 Z-8.3157
 X56.8879 Z-8.3333
 X56.9258 Z-8.3708
 X56.9638 Z-8.4119
 X57.0017 Z-8.4572
 X57.0206 Z-8.4815
 X57.0396 Z-8.5073
 X57.0775 Z-8.5635
 X57.1155 Z-8.6274
 X57.1534 Z-8.7020
 X57.1913 Z-8.7929
 X57.2292 Z-8.9144
 X57.2482 Z-9.0020
 X57.2577 Z-9.0647
 X57.2624 Z-9.1095
 X57.2648 Z-9.1416
 X57.2660 Z-9.1649
 X57.2666 Z-9.1824
 X57.2669 Z-9.1964
 X57.2670 Z-19.0000
 X192.8087
 X192.8466 Z-9.0623
 X192.8656 Z-8.9530
 X192.8751 Z-8.9132
 X192.8845 Z-8.8784
 X192.9225 Z-8.7673
 X192.9414 Z-8.7222
 X192.9509 Z-8.7013
 X192.9604 Z-8.6815
 X193.0362 Z-8.5483
 X193.0742 Z-8.4938
 X193.0931 Z-8.4688
 X193.1121 Z-8.4451
 X193.1879 Z-8.3608
 X193.2259 Z-8.3241
 X193.2448 Z-8.3069
 X193.2638 Z-8.2904
 X193.3396 Z-8.2307
 X193.3776 Z-8.2044
 X193.4155 Z-8.1801
 X193.4913 Z-8.1371
 X193.5293 Z-8.1182
 X193.5482 Z-8.1094
 X193.5672 Z-8.1009
 X193.6430 Z-8.0709
 X193.6810 Z-8.0580
 X193.7189 Z-8.0466
 X193.7947 Z-8.0275
 X193.8327 Z-8.0200
 X193.8706 Z-8.0136
 X194.1740 Z-8.0000
 X199.8247
 X199.8437 Z-1.0879
 X199.8531 Z-1.0176
 X199.8579 Z-0.9907
 X199.8626 Z-0.9668
 X199.8816 Z-0.8889
 X199.9005 Z-0.8272
 X199.9195 Z-0.7749
 X199.9290 Z-0.7512
 X199.9337 Z-0.7399
 X199.9385 Z-0.7289
 X200.0143 Z-0.5830
 X200.0522 Z-0.5245
 X200.0712 Z-0.4979
 X200.0902 Z-0.4726
 X200.1281 Z-0.4259
 X200.1660 Z-0.3836
 X200.2039 Z-0.3449
 X200.2229 Z-0.3268
 X200.2419 Z-0.3095
 X200.3177 Z-0.2470
 X200.3556 Z-0.2194
 X200.3936 Z-0.1939
 X200.4694 Z-0.1488
 X200.5073 Z-0.1289
 X200.5263 Z-0.1196
 X200.5453 Z-0.1107
 X200.6211 Z-0.0790
 X200.6590 Z-0.0653
 X200.6970 Z-0.0530
 X200.7728 Z-0.0325
 X200.8107 Z-0.0242
 X200.8487 Z-0.0171
 X201.1520 Z0.0000
 X248.7850
 Y97.0138
 X201.0762
 X201.0003 Z-0.0011
 X200.9245 Z-0.0067
 X200.8866 Z-0.0113
 X200.8676 Z-0.0141
 X200.8487 Z-0.0171
 X200.7728 Z-0.0325
 X200.7349 Z-0.0421
 X200.6970 Z-0.0530
 X200.6211 Z-0.0790
 X200.5832 Z-0.0941
 X200.5642 Z-0.1022
 X200.5453 Z-0.1107
 X200.4694 Z-0.1488
 X200.4315 Z-0.1704
 X200.3936 Z-0.1939
 X200.3177 Z-0.2470
 X200.2798 Z-0.2770
 X200.2608 Z-0.2929
 X200.2513 Z-0.3011
 X200.2419 Z-0.3095
 X200.1660 Z-0.3836
 X200.1281 Z-0.4259
 X200.1091 Z-0.4487
 X200.0902 Z-0.4726
 X200.0522 Z-0.5245
 X200.0143 Z-0.5830
 X199.9764 Z-0.6499
 X199.9385 Z-0.7289
 X199.9195 Z-0.7749
 X199.9005 Z-0.8272
 X199.8626 Z-0.9668
 X199.8437 Z-1.0879
 X199.8389 Z-1.1466
 X199.8365 Z-8.0000
 X194.1740
 X194.0223 Z-8.0004
 X193.9464 Z-8.0046
 X193.9085 Z-8.0085
 X193.8895 Z-8.0109
 X193.8706 Z-8.0136
 X193.7947 Z-8.0275
 X193.7568 Z-8.0364
 X193.7189 Z-8.0466
 X193.6430 Z-8.0709
 X193.6051 Z-8.0852
 X193.5861 Z-8.0929
 X193.5672 Z-8.1009
 X193.4913 Z-8.1371
 X193.4534 Z-8.1577
 X193.4155 Z-8.1801
 X193.3396 Z-8.2307
 X193.3017 Z-8.2593
 X193.2827 Z-8.2745
 X193.2733 Z-8.2824
 X193.2638 Z-8.2904
 X193.1879 Z-8.3608
 X193.1500 Z-8.4010
 X193.1311 Z-8.4225
 X193.1121 Z-8.4451
 X193.0742 Z-8.4938
 X193.0362 Z-8.5483
 X192.9983 Z-8.6100
 X192.9604 Z-8.6815
 X192.9225 Z-8.7673
 X192.9035 Z-8.8185
 X192.8940 Z-8.8471
 X192.8845 Z-8.8784
 X192.8466 Z-9.0623
 X192.8371 Z-9.1960
 X192.8324 Z-19.0000
 X57.2672
 X57.2292 Z-8.9144
 X57.2103 Z-8.8481
 X57.2008 Z-8.8194
 X57.1913 Z-8.7929
 X57.1534 Z-8.7020
 X57.1344 Z-8.6631
 X57.1155 Z-8.6274
 X57.0775 Z-8.5635
 X57.0586 Z-8.5345
 X57.0491 Z-8.5207
 X57.0396 Z-8.5073
 X56.9638 Z-8.4119
 X56.9258 Z-8.3708
 X56.8879 Z-8.3333
 X56.8121 Z-8.2671
 X56.7741 Z-8.2379
 X56.7552 Z-8.2242
 X56.7362 Z-8.2110
 X56.6604 Z-8.1633
 X56.6224 Z-8.1422
 X56.5845 Z-8.1229
 X56.5087 Z-8.0891
 X56.4707 Z-8.0744
 X56.4518 Z-8.0677
 X56.4328 Z-8.0612
 X56.3570 Z-8.0389
 X56.3190 Z-8.0297
 X56.2811 Z-8.0218
 X56.2053 Z-8.0097
 X56.1294 Z-8.0025
 X55.8260 Z-8.0000
 X50.2891
 X50.2512 Z-1.0194
 X50.2322 Z-0.9263
 X50.2227 Z-0.8899
 X50.2180 Z-0.8733
 X50.2132 Z-0.8575
 X50.1753 Z-0.7520
 X50.1563 Z-0.7084
 X50.1374 Z-0.6689
 X50.0995 Z-0.5993
 X50.0805 Z-0.5681
 X50.0710 Z-0.5533
 X50.0615 Z-0.5389
 X49.9857 Z-0.4375
 X49.9478 Z-0.3941
 X49.9098 Z-0.3546
 X49.8340 Z-0.2851
 X49.7961 Z-0.2545
 X49.7771 Z-0.2401
 X49.7581 Z-0.2263
 X49.6823 Z-0.1763
 X49.6444 Z-0.1542
 X49.6064 Z-0.1339
 X49.5306 Z-0.0982
 X49.4927 Z-0.0827
 X49.4737 Z-0.0755
 X49.4547 Z-0.0687
 X49.3789 Z-0.0448
 X49.3410 Z-0.0349
 X49.3030 Z-0.0262
 X49.2272 Z-0.0127
 X49.1513 Z-0.0041
 X48.8480 Z0.0000
 X1.2150
 Y97.9814
 X48.9997
 X49.0755 Z-0.0002
 X49.1134 Z-0.0016
 X49.1324 Z-0.0027
 X49.1513 Z-0.0041
 X49.2272 Z-0.0127
 X49.2651 Z-0.0188
 X49.3030 Z-0.0262
 X49.3789 Z-0.0448
 X49.4168 Z-0.0561
 X49.4358 Z-0.0622
 X49.4547 Z-0.0687
 X49.5306 Z-0.0982
 X49.5685 Z-0.1153
 X49.6064 Z-0.1339
 X49.6823 Z-0.1763
 X49.7202 Z-0.2003
 X49.7392 Z-0.2130
 X49.7581 Z-0.2263
 X49.8340 Z-0.2851
 X49.8719 Z-0.3184
 X49.8909 Z-0.3361
 X49.9098 Z-0.3546
 X49.9478 Z-0.3941
 X49.9857 Z-0.4375
 X50.0236 Z-0.4855
 X50.0426 Z-0.5114
 X50.0615 Z-0.5389
 X50.0995 Z-0.5993
 X50.1374 Z-0.6689
 X50.1753 Z-0.7520
 X50.2132 Z-0.8575
 X50.2512 Z-1.0194
 X50.2606 Z-1.0908
 X50.2654 Z-1.1522
 X50.2677 Z-8.0000
 X55.9777
 X56.0536
 X56.0915 Z-8.0006
 X56.1294 Z-8.0025
 X56.2053 Z-8.0097
 X56.2432 Z-8.0151
 X56.2811 Z-8.0218
 X56.3570 Z-8.0389
 X56.3949 Z-8.0494
 X56.4139 Z-8.0551
 X56.4328 Z-8.0612
 X56.5087 Z-8.0891
 X56.5466 Z-8.1052
 X56.5845 Z-8.1229
 X56.6604 Z-8.1633
 X56.6983 Z-8.1861
 X56.7173 Z-8.1983
 X56.7362 Z-8.2110
 X56.8121 Z-8.2671
 X56.8500 Z-8.2988
 X56.8689 Z-8.3157
 X56.8879 Z-8.3333
 X56.9258 Z-8.3708
 X56.9638 Z-8.4119
 X57.0017 Z-8.4572
 X57.0206 Z-8.4815
 X57.0396 Z-8.5073
 X57.0775 Z-8.5635
 X57.1155 Z-8.6274
 X57.1534 Z-8.7020
 X57.1913 Z-8.7929
 X57.2292 Z-8.9144
 X57.2482 Z-9.0020
 X57.2577 Z-9.0647
 X57.2624 Z-9.1095
 X57.2648 Z-9.1416
 X57.2660 Z-9.1649
 X57.2666 Z-9.1824
 X57.2669 Z-9.1964
 X57.2670 Z-19.0000
 X192.8087
 X192.8466 Z-9.0623
 X192.8656 Z-8.9530
 X192.8751 Z-8.9132
 X192.8845 Z-8.8784
 X192.9225 Z-8.7673
 X192.9414 Z-8.7222
 X192.9509 Z-8.7013
 X192.9604 Z-8.6815
 X193.0362 Z-8.5483
 X193.0742 Z-8.4938
 X193.0931 Z-8.4688
 X193.1121 Z-8.4451
 X193.1879 Z-8.3608
 X193.2259 Z-8.3241
 X193.2448 Z-8.3069
 X193.2638 Z-8.2904
 X193.3396 Z-8.2307
 X193.3776 Z-8.2044
 X193.4155 Z-8.1801
 X193.4913 Z-8.1371
 X193.5293 Z-8.1182
 X193.5482 Z-8.1094
 X193.5672 Z-8.1009
 X193.6430 Z-8.0709
 X193.6810 Z-8.0580
 X193.7189 Z-8.0466
 X193.7947 Z-8.0275
 X193.8327 Z-8.0200
 X193.8706 Z-8.0136
 X194.1740 Z-8.0000
 X199.8247
 X199.8437 Z-1.0879
 X199.8531 Z-1.0176
 X199.8579 Z-0.9907
 X199.8626 Z-0.9668
 X199.8816 Z-0.8889
 X199.9005 Z-0.8272
 X199.9195 Z-0.7749
 X199.9290 Z-0.7512
 X199.9337 Z-0.7399
 X199.9385 Z-0.7289
 X200.0143 Z-0.5830
 X200.0522 Z-0.5245
 X200.0712 Z-0.4979
 X200.0902 Z-0.4726
 X200.1281 Z-0.4259
 X200.1660 Z-0.3836
 X200.2039 Z-0.3449
 X200.2229 Z-0.3268
 X200.2419 Z-0.3095
 X200.3177 Z-0.2470
 X200.3556 Z-0.2194
 X200.3936 Z-0.1939
 X200.4694 Z-0.1488
 X200.5073 Z-0.1289
 X200.5263 Z-0.1196
 X200.5453 Z-0.1107
 X200.6211 Z-0.0790
 X200.6590 Z-0.0653
 X200.6970 Z-0.0530
 X200.7728 Z-0.0325
 X200.8107 Z-0.0242
 X200.8487 Z-0.0171
 X201.1520 Z0.0000
 X248.7850
 Y98.9491
 X201.0762
 X201.0003 Z-0.0011
 X200.9245 Z-0.0067
 X200.8866 Z-0.0113
 X200.8676 Z-0.0141
 X200.8487 Z-0.0171
 X200.7728 Z-0.0325
 X200.7349 Z-0.0421
 X200.6970 Z-0.0530
 X200.6211 Z-0.0790
 X200.5832 Z-0.0941
 X200.5642 Z-0.1022
 X200.5453 Z-0.1107
 X200.4694 Z-0.1488
 X200.4315 Z-0.1704
 X200.3936 Z-0.1939
 X200.3177 Z-0.2470
 X200.2798 Z-0.2770
 X200.2608 Z-0.2929
 X200.2513 Z-0.3011
 X200.2419 Z-0.3095
 X200.1660 Z-0.3836
 X200.1281 Z-0.4259
 X200.1091 Z-0.4487
 X200.0902 Z-0.4726
 X200.0522 Z-0.5245
 X200.0143 Z-0.5830
 X199.9764 Z-0.6499
 X199.9385 Z-0.7289
 X199.9195 Z-0.7749
 X199.9005 Z-0.8272
 X199.8626 Z-0.9668
 X199.8437 Z-1.0879
 X199.8389 Z-1.1466
 X199.8365 Z-8.0000
 X194.1740
 X194.0223 Z-8.0004
 X193.9464 Z-8.0046
 X193.9085 Z-8.0085
 X193.8895 Z-8.0109
 X193.8706 Z-8.0136
 X193.7947 Z-8.0275
 X193.7568 Z-8.0364
 X193.7189 Z-8.0466
 X193.6430 Z-8.0709
 X193.6051 Z-8.0852
 X193.5861 Z-8.0929
 X193.5672 Z-8.1009
 X193.4913 Z-8.1371
 X193.4534 Z-8.1577
 X193.4155 Z-8.1801
 X193.3396 Z-8.2307
 X193.3017 Z-8.2593
 X193.2827 Z-8.2745
 X193.2733 Z-8.2824
 X193.2638 Z-8.2904
 X193.1879 Z-8.3608
 X193.1500 Z-8.4010
 X193.1311 Z-8.4225
 X193.1121 Z-8.4451
 X193.0742 Z-8.4938
 X193.0362 Z-8.5483
 X192.9983 Z-8.6100
 X192.9604 Z-8.6815
 X192.9225 Z-8.7673
 X192.9035 Z-8.8185
 X192.8940 Z-8.8471
 X192.8845 Z-8.8784
 X192.8466 Z-9.0623
 X192.8371 Z-9.1960
 X192.8324 Z-19.0000
 X57.2672
 X57.2292 Z-8.9144
 X57.2103 Z-8.8481
 X57.2008 Z-8.8194
 X57.1913 Z-8.7929
 X57.1534 Z-8.7020
 X57.1344 Z-8.6631
 X57.1155 Z-8.6274
 X57.0775 Z-8.5635
 X57.0586 Z-8.5345
 X57.0491 Z-8.5207
 X57.0396 Z-8.5073
 X56.9638 Z-8.4119
 X56.9258 Z-8.3708
 X56.8879 Z-8.3333
 X56.8121 Z-8.2671
 X56.7741 Z-8.2379
 X56.7552 Z-8.2242
 X56.7362 Z-8.2110
 X56.6604 Z-8.1633
 X56.6224 Z-8.1422
 X56.5845 Z-8.1229
 X56.5087 Z-8.0891
 X56.4707 Z-8.0744
 X56.4518 Z-8.0677
 X56.4328 Z-8.0612
 X56.3570 Z-8.0389
 X56.3190 Z-8.0297
 X56.2811 Z-8.0218
 X56.2053 Z-8.0097
 X56.1294 Z-8.0025
 X55.8260 Z-8.0000
 X50.2891
 X50.2512 Z-1.0194
 X50.2322 Z-0.9263
 X50.2227 Z-0.8899
 X50.2180 Z-0.8733
 X50.2132 Z-0.8575
 X50.1753 Z-0.7520
 X50.1563 Z-0.7084
 X50.1374 Z-0.6689
 X50.0995 Z-0.5993
 X50.0805 Z-0.5681
 X50.0710 Z-0.5533
 X50.0615 Z-0.5389
 X49.9857 Z-0.4375
 X49.9478 Z-0.3941
 X49.9098 Z-0.3546
 X49.8340 Z-0.2851
 X49.7961 Z-0.2545
 X49.7771 Z-0.2401
 X49.7581 Z-0.2263
 X49.6823 Z-0.1763
 X49.6444 Z-0.1542
 X49.6064 Z-0.1339
 X49.5306 Z-0.0982
 X49.4927 Z-0.0827
 X49.4737 Z-0.0755
 X49.4547 Z-0.0687
 X49.3789 Z-0.0448
 X49.3410 Z-0.0349
 X49.3030 Z-0.0262
 X49.2272 Z-0.0127
 X49.1513 Z-0.0041
 X48.8480 Z0.0000
 X1.2150
 Y99.9168
 X48.9997
 X49.0755 Z-0.0002
 X49.1134 Z-0.0016
 X49.1324 Z-0.0027
 X49.1513 Z-0.0041
 X49.2272 Z-0.0127
 X49.2651 Z-0.0188
 X49.3030 Z-0.0262
 X49.3789 Z-0.0448
 X49.4168 Z-0.0561
 X49.4358 Z-0.0622
 X49.4453 Z-0.0654
 X49.4547 Z-0.0687
 X49.7581 Z-0.0949
 X200.5453
 X200.6970 Z-0.0530
 X200.7728 Z-0.0325
 X200.8107 Z-0.0242
 X200.8487 Z-0.0171
 X201.1520 Z0.0000
 X248.7850
 Y100.8844
 X1.2150
 Y101.8521
 X248.7850
 Y102.8197
 X1.2150
 Y103.7874
 X248.7850
 Y104.7551
 X1.2150
 Y105.7227
 X248.7850
 Y106.6904
 X1.2150
 Y107.6581
 X248.7850
 Y108.6257
 X1.2150
 Y109.5934
 X48.8480
 X49.1513 Z-0.0041
 X49.4547 Z-0.0176
 X200.5453
 X200.8487 Z-0.0171
 X201.1520 Z0.0000
 X248.7850
 Y110.5611
 X201.0762
 X201.0003 Z-0.0011
 X200.9245 Z-0.0067
 X200.8866 Z-0.0113
 X200.8676 Z-0.0141
 X200.8487 Z-0.0171
 X200.7728 Z-0.0325
 X200.7349 Z-0.0421
 X200.6970 Z-0.0530
 X200.6211 Z-0.0790
 X200.5832 Z-0.0941
 X200.5642 Z-0.1022
 X200.5453 Z-0.1107
 X200.4694 Z-0.1488
 X200.4315 Z-0.1704
 X200.3936 Z-0.1939
 X200.3177 Z-0.2470
 X200.2798 Z-0.2770
 X200.2608 Z-0.2929
 X200.2513 Z-0.3011
 X200.2419 Z-0.3095
 X200.1660 Z-0.3836
 X200.1281 Z-0.4259
 X200.1091 Z-0.4487
 X200.0902 Z-0.4726
 X200.0522 Z-0.5245
 X200.0143 Z-0.5830
 X199.9764 Z-0.6499
 X199.9574 Z-0.6876
 X199.9479 Z-0.7077
 X199.9432 Z-0.7182
 X199.9408 Z-0.7235
 X199.9397 Z-0.7262
 X199.9391 Z-0.7275
 X199.9385 Z-0.7289
 X199.9195 Z-0.7749
 X199.9100 Z-0.8001
 X199.9053 Z-0.8134
 X199.9029 Z-0.8202
 X199.9005 Z-0.8272
 X199.8911 Z-0.8566
 X199.8863 Z-0.8723
 X199.8840 Z-0.8805
 X199.8828 Z-0.8846
 X199.8822 Z-0.8867
 X199.8819 Z-0.8878
 X199.8817 Z-0.8883
 Z-0.8886
 X199.8816 Z-0.8887
 Z-0.8888
 Z-0.8889
 X199.8804 Z-0.8931
 X199.8798 Z-0.8953
 X199.8795 Z-0.8964
 X199.8794 Z-0.8969
 X199.8793 Z-0.8972
 X199.8792 Z-0.8973
 Z-0.8974
 Z-0.8975
 X199.8786 Z-0.8997
 X199.8783 Z-0.9008
 X199.8782
 X50.3649
 X50.0615 Z-0.5389
 X49.9857 Z-0.4375
 X49.9478 Z-0.3941
 X49.9098 Z-0.3546
 X49.8340 Z-0.2851
 X49.7961 Z-0.2545
 X49.7771 Z-0.2401
 X49.7581 Z-0.2263
 X49.6823 Z-0.1763
 X49.6444 Z-0.1542
 X49.6064 Z-0.1339
 X49.5306 Z-0.0982
 X49.4927 Z-0.0827
 X49.4737 Z-0.0755
 X49.4547 Z-0.0687
 X49.3789 Z-0.0448
 X49.3410 Z-0.0349
 X49.3030 Z-0.0262
 X49.2272 Z-0.0127
 X49.1513 Z-0.0041
 X48.8480 Z0.0000
 X1.2150
 Y111.5287
 X48.9997
 X49.0755 Z-0.0002
 X49.1134 Z-0.0016
 X49.1324 Z-0.0027
 X49.1513 Z-0.0041
 X49.2272 Z-0.0127
 X49.2651 Z-0.0188
 X49.3030 Z-0.0262
 X49.3789 Z-0.0448
 X49.4168 Z-0.0561
 X49.4358 Z-0.0622
 X49.4547 Z-0.0687
 X49.5306 Z-0.0982
 X49.5685 Z-0.1153
 X49.6064 Z-0.1339
 X49.6823 Z-0.1763
 X49.7202 Z-0.2003
 X49.7392 Z-0.2130
 X49.7581 Z-0.2263
 X49.8340 Z-0.2851
 X49.8719 Z-0.3184
 X49.8909 Z-0.3361
 X49.9098 Z-0.3546
 X49.9478 Z-0.3941
 X49.9857 Z-0.4375
 X50.0236 Z-0.4855
 X50.0426 Z-0.5114
 X50.0615 Z-0.5389
 X50.0995 Z-0.5993
 X50.1374 Z-0.6689
 X50.1753 Z-0.7520
 X50.2132 Z-0.8575
 X50.2512 Z-1.0194
 X50.2606 Z-1.0908
 X50.2654 Z-1.1522
 X50.2677 Z-8.0000
 X55.9777
 X56.0536
 X56.0915 Z-8.0006
 X56.1294 Z-8.0025
 X56.2053 Z-8.0097
 X56.2432 Z-8.0151
 X56.2811 Z-8.0218
 X56.3570 Z-8.0389
 X56.3949 Z-8.0494
 X56.4139 Z-8.0551
 X56.4328 Z-8.0612
 X56.5087 Z-8.0891
 X56.5466 Z-8.1052
 X56.5845 Z-8.1229
 X56.6604 Z-8.1633
 X56.6983 Z-8.1861
 X56.7173 Z-8.1983
 X56.7362 Z-8.2110
 X56.8121 Z-8.2671
 X56.8500 Z-8.2988
 X56.8689 Z-8.3157
 X56.8879 Z-8.3333
 X56.9258 Z-8.3708
 X56.9638 Z-8.4119
 X57.0017 Z-8.4572
 X57.0206 Z-8.4815
 X57.0396 Z-8.5073
 X57.0775 Z-8.5635
 X57.1155 Z-8.6274
 X57.1534 Z-8.7020
 X57.1913 Z-8.7929
 X57.2292 Z-8.9144
 X57.2482 Z-9.0020
 X57.2577 Z-9.0647
 X57.2624 Z-9.1095
 X57.2648 Z-9.1416
 X57.2660 Z-9.1649
 X57.2666 Z-9.1824
 X57.2669 Z-9.1964
 X57.2670 Z-19.0000
 X192.8087
 X192.8466 Z-9.0623
 X192.8656 Z-8.9530
 X192.8751 Z-8.9132
 X192.8845 Z-8.8784
 X192.9225 Z-8.7673
 X192.9414 Z-8.7222
 X192.9509 Z-8.7013
 X192.9604 Z-8.6815
 X193.0362 Z-8.5483
 X193.0742 Z-8.4938
 X193.0931 Z-8.4688
 X193.1121 Z-8.4451
 X193.1879 Z-8.3608
 X193.2259 Z-8.3241
 X193.2448 Z-8.3069
 X193.2638 Z-8.2904
 X193.3396 Z-8.2307
 X193.3776 Z-8.2044
 X193.4155 Z-8.1801
 X193.4913 Z-8.1371
 X193.5293 Z-8.1182
 X193.5482 Z-8.1094
 X193.5672 Z-8.1009
 X193.6430 Z-8.0709
 X193.6810 Z-8.0580
 X193.7189 Z-8.0466
 X193.7947 Z-8.0275
 X193.8327 Z-8.0200
 X193.8706 Z-8.0136
 X194.1740 Z-8.0000
 X199.8247
 X199.8437 Z-1.0879
 X199.8531 Z-1.0176
 X199.8579 Z-0.9907
 X199.8626 Z-0.9668
 X199.8816 Z-0.8889
 X199.9005 Z-0.8272
 X199.9195 Z-0.7749
 X199.9290 Z-0.7512
 X199.9337 Z-0.7399
 X199.9385 Z-0.7289
 X200.0143 Z-0.5830
 X200.0522 Z-0.5245
 X200.0712 Z-0.4979
 X200.0902 Z-0.4726
 X200.1281 Z-0.4259
 X200.1660 Z-0.3836
 X200.2039 Z-0.3449
 X200.2229 Z-0.3268
 X200.2419 Z-0.3095
 X200.3177 Z-0.2470
 X200.3556 Z-0.2194
 X200.3936 Z-0.1939
 X200.4694 Z-0.1488
 X200.5073 Z-0.1289
 X200.5263 Z-0.1196
 X200.5453 Z-0.1107
 X200.6211 Z-0.0790
 X200.6590 Z-0.0653
 X200.6970 Z-0.0530
 X200.7728 Z-0.0325
 X200.8107 Z-0.0242
 X200.8487 Z-0.0171
 X201.1520 Z0.0000
 X248.7850
 Y112.4964
 X201.0762
 X201.0003 Z-0.0011
 X200.9245 Z-0.0067
 X200.8866 Z-0.0113
 X200.8676 Z-0.0141
 X200.8487 Z-0.0171
 X200.7728 Z-0.0325
 X200.7349 Z-0.0421
 X200.6970 Z-0.0530
 X200.6211 Z-0.0790
 X200.5832 Z-0.0941
 X200.5642 Z-0.1022
 X200.5453 Z-0.1107
 X200.4694 Z-0.1488
 X200.4315 Z-0.1704
 X200.3936 Z-0.1939
 X200.3177 Z-0.2470
 X200.2798 Z-0.2770
 X200.2608 Z-0.2929
 X200.2513 Z-0.3011
 X200.2419 Z-0.3095
 X200.1660 Z-0.3836
 X200.1281 Z-0.4259
 X200.1091 Z-0.4487
 X200.0902 Z-0.4726
 X200.0522 Z-0.5245
 X200.0143 Z-0.5830
 X199.9764 Z-0.6499
 X199.9385 Z-0.7289
 X199.9195 Z-0.7749
 X199.9005 Z-0.8272
 X199.8626 Z-0.9668
 X199.8437 Z-1.0879
 X199.8389 Z-1.1466
 X199.8365 Z-8.0000
 X194.1740
 X194.0223 Z-8.0004
 X193.9464 Z-8.0046
 X193.9085 Z-8.0085
 X193.8895 Z-8.0109
 X193.8706 Z-8.0136
 X193.7947 Z-8.0275
 X193.7568 Z-8.0364
 X193.7189 Z-8.0466
 X193.6430 Z-8.0709
 X193.6051 Z-8.0852
 X193.5861 Z-8.0929
 X193.5672 Z-8.1009
 X193.4913 Z-8.1371
 X193.4534 Z-8.1577
 X193.4155 Z-8.1801
 X193.3396 Z-8.2307
 X193.3017 Z-8.2593
 X193.2827 Z-8.2745
 X193.2733 Z-8.2824
 X193.2638 Z-8.2904
 X193.1879 Z-8.3608
 X193.1500 Z-8.4010
 X193.1311 Z-8.4225
 X193.1121 Z-8.4451
 X193.0742 Z-8.4938
 X193.0362 Z-8.5483
 X192.9983 Z-8.6100
 X192.9604 Z-8.6815
 X192.9225 Z-8.7673
 X192.9035 Z-8.8185
 X192.8940 Z-8.8471
 X192.8845 Z-8.8784
 X192.8466 Z-9.0623
 X192.8371 Z-9.1960
 X192.8324 Z-19.0000
 X57.2672
 X57.2292 Z-8.9144
 X57.2103 Z-8.8481
 X57.2008 Z-8.8194
 X57.1913 Z-8.7929
 X57.1534 Z-8.7020
 X57.1344 Z-8.6631
 X57.1155 Z-8.6274
 X57.0775 Z-8.5635
 X57.0586 Z-8.5345
 X57.0491 Z-8.5207
 X57.0396 Z-8.5073
 X56.9638 Z-8.4119
 X56.9258 Z-8.3708
 X56.8879 Z-8.3333
 X56.8121 Z-8.2671
 X56.7741 Z-8.2379
 X56.7552 Z-8.2242
 X56.7362 Z-8.2110
 X56.6604 Z-8.1633
 X56.6224 Z-8.1422
 X56.5845 Z-8.1229
 X56.5087 Z-8.0891
 X56.4707 Z-8.0744
 X56.4518 Z-8.0677
 X56.4328 Z-8.0612
 X56.3570 Z-8.0389
 X56.3190 Z-8.0297
 X56.2811 Z-8.0218
 X56.2053 Z-8.0097
 X56.1294 Z-8.0025
 X55.8260 Z-8.0000
 X50.2891
 X50.2512 Z-1.0194
 X50.2322 Z-0.9263
 X50.2227 Z-0.8899
 X50.2180 Z-0.8733
 X50.2132 Z-0.8575
 X50.1753 Z-0.7520
 X50.1563 Z-0.7084
 X50.1374 Z-0.6689
 X50.0995 Z-0.5993
 X50.0805 Z-0.5681
 X50.0710 Z-0.5533
 X50.0615 Z-0.5389
 X49.9857 Z-0.4375
 X49.9478 Z-0.3941
 X49.9098 Z-0.3546
 X49.8340 Z-0.2851
 X49.7961 Z-0.2545
 X49.7771 Z-0.2401
 X49.7581 Z-0.2263
 X49.6823 Z-0.1763
 X49.6444 Z-0.1542
 X49.6064 Z-0.1339
 X49.5306 Z-0.0982
 X49.4927 Z-0.0827
 X49.4737 Z-0.0755
 X49.4547 Z-0.0687
 X49.3789 Z-0.0448
 X49.3410 Z-0.0349
 X49.3030 Z-0.0262
 X49.2272 Z-0.0127
 X49.1513 Z-0.0041
 X48.8480 Z0.0000
 X1.2150
 Y113.4641
 X48.9997
 X49.0755 Z-0.0002
 X49.1134 Z-0.0016
 X49.1324 Z-0.0027
 X49.1513 Z-0.0041
 X49.2272 Z-0.0127
 X49.2651 Z-0.0188
 X49.3030 Z-0.0262
 X49.3789 Z-0.0448
 X49.4168 Z-0.0561
 X49.4358 Z-0.0622
 X49.4547 Z-0.0687
 X49.5306 Z-0.0982
 X49.5685 Z-0.1153
 X49.6064 Z-0.1339
 X49.6823 Z-0.1763
 X49.7202 Z-0.2003
 X49.7392 Z-0.2130
 X49.7581 Z-0.2263
 X49.8340 Z-0.2851
 X49.8719 Z-0.3184
 X49.8909 Z-0.3361
 X49.9098 Z-0.3546
 X49.9478 Z-0.3941
 X49.9857 Z-0.4375
 X50.0236 Z-0.4855
 X50.0426 Z-0.5114
 X50.0615 Z-0.5389
 X50.0995 Z-0.5993
 X50.1374 Z-0.6689
 X50.1753 Z-0.7520
 X50.2132 Z-0.8575
 X50.2512 Z-1.0194
 X50.2606 Z-1.0908
 X50.2654 Z-1.1522
 X50.2677 Z-8.0000
 X55.9777
 X56.0536
 X56.0915 Z-8.0006
 X56.1294 Z-8.0025
 X56.2053 Z-8.0097
 X56.2432 Z-8.0151
 X56.2811 Z-8.0218
 X56.3570 Z-8.0389
 X56.3949 Z-8.0494
 X56.4139 Z-8.0551
 X56.4328 Z-8.0612
 X56.5087 Z-8.0891
 X56.5466 Z-8.1052
 X56.5845 Z-8.1229
 X56.6604 Z-8.1633
 X56.6983 Z-8.1861
 X56.7173 Z-8.1983
 X56.7362 Z-8.2110
 X56.8121 Z-8.2671
 X56.8500 Z-8.2988
 X56.8689 Z-8.3157
 X56.8879 Z-8.3333
 X56.9258 Z-8.3708
 X56.9638 Z-8.4119
 X57.0017 Z-8.4572
 X57.0206 Z-8.4815
 X57.0396 Z-8.5073
 X57.0775 Z-8.5635
 X57.1155 Z-8.6274
 X57.1534 Z-8.7020
 X57.1913 Z-8.7929
 X57.2292 Z-8.9144
 X57.2482 Z-9.0020
 X57.2577 Z-9.0647
 X57.2624 Z-9.1095
 X57.2648 Z-9.1416
 X57.2660 Z-9.1649
 X57.2666 Z-9.1824
 X57.2669 Z-9.1964
 X57.2670 Z-19.0000
 X192.8087
 X192.8466 Z-9.0623
 X192.8656 Z-8.9530
 X192.8751 Z-8.9132
 X192.8845 Z-8.8784
 X192.9225 Z-8.7673
 X192.9414 Z-8.7222
 X192.9509 Z-8.7013
 X192.9604 Z-8.6815
 X193.0362 Z-8.5483
 X193.0742 Z-8.4938
 X193.0931 Z-8.4688
 X193.1121 Z-8.4451
 X193.1879 Z-8.3608
 X193.2259 Z-8.3241
 X193.2448 Z-8.3069
 X193.2638 Z-8.2904
 X193.3396 Z-8.2307
 X193.3776 Z-8.2044
 X193.4155 Z-8.1801
 X193.4913 Z-8.1371
 X193.5293 Z-8.1182
 X193.5482 Z-8.1094
 X193.5672 Z-8.1009
 X193.6430 Z-8.0709
 X193.6810 Z-8.0580
 X193.7189 Z-8.0466
 X193.7947 Z-8.0275
 X193.8327 Z-8.0200
 X193.8706 Z-8.0136
 X194.1740 Z-8.0000
 X199.8247
 X199.8437 Z-1.0879
 X199.8531 Z-1.0176
 X199.8579 Z-0.9907
 X199.8626 Z-0.9668
 X199.8816 Z-0.8889
 X199.9005 Z-0.8272
 X199.9195 Z-0.7749
 X199.9290 Z-0.7512
 X199.9337 Z-0.7399
 X199.9385 Z-0.7289
 X200.0143 Z-0.5830
 X200.0522 Z-0.5245
 X200.0712 Z-0.4979
 X200.0902 Z-0.4726
 X200.1281 Z-0.4259
 X200.1660 Z-0.3836
 X200.2039 Z-0.3449
 X200.2229 Z-0.3268
 X200.2419 Z-0.3095
 X200.3177 Z-0.2470
 X200.3556 Z-0.2194
 X200.3936 Z-0.1939
 X200.4694 Z-0.1488
 X200.5073 Z-0.1289
 X200.5263 Z-0.1196
 X200.5453 Z-0.1107
 X200.6211 Z-0.0790
 X200.6590 Z-0.0653
 X200.6970 Z-0.0530
 X200.7728 Z-0.0325
 X200.8107 Z-0.0242
 X200.8487 Z-0.0171
 X201.1520 Z0.0000
 X248.7850
 Y114.4317
 X201.0762
 X201.0003 Z-0.0011
 X200.9245 Z-0.0067
 X200.8866 Z-0.0113
 X200.8676 Z-0.0141
 X200.8487 Z-0.0171
 X200.7728 Z-0.0325
 X200.7349 Z-0.0421
 X200.6970 Z-0.0530
 X200.6211 Z-0.0790
 X200.5832 Z-0.0941
 X200.5642 Z-0.1022
 X200.5453 Z-0.1107
 X200.4694 Z-0.1488
 X200.4315 Z-0.1704
 X200.3936 Z-0.1939
 X200.3177 Z-0.2470
 X200.2798 Z-0.2770
 X200.2608 Z-0.2929
 X200.2513 Z-0.3011
 X200.2466 Z-0.3053
 X200.2419 Z-0.3095
 X200.1660 Z-0.3836
 X200.1281 Z-0.4259
 X200.1186 Z-0.4372
 X200.1139 Z-0.4429
 X200.1115 Z-0.4458
 X200.1103 Z-0.4472
 X200.1097 Z-0.4480
 X200.1091 Z-0.4487
 X200.1044 Z-0.4546
 X200.1020 Z-0.4575
 X200.1008 Z-0.4590
 X200.1002 Z-0.4598
 X200.0999 Z-0.4601
 X200.0998 Z-0.4603
 X200.0997 Z-0.4604
 Z-0.4605
 X200.0996
 X200.0985 Z-0.4620
 X200.0979 Z-0.4628
 X200.0976 Z-0.4631
 X200.0974 Z-0.4633
 X200.0973 Z-0.4635
 X200.0967 Z-0.4643
 X200.0964 Z-0.4646
 X200.0962 Z-0.4647
 X50.0615
 X49.9098 Z-0.3546
 X49.8340 Z-0.2851
 X49.7961 Z-0.2545
 X49.7771 Z-0.2401
 X49.7581 Z-0.2263
 X49.6823 Z-0.1763
 X49.6444 Z-0.1542
 X49.6064 Z-0.1339
 X49.5306 Z-0.0982
 X49.4927 Z-0.0827
 X49.4737 Z-0.0755
 X49.4547 Z-0.0687
 X49.3789 Z-0.0448
 X49.3410 Z-0.0349
 X49.3030 Z-0.0262
 X49.2272 Z-0.0127
 X49.1513 Z-0.0041
 X48.8480 Z0.0000
 X1.2150
 Y115.3994
 X248.7850
 Y116.3670
 X1.2150
 Y117.3347
 X248.7850
 Y118.3024
 X1.2150
 Y119.2700
 X248.7850
 Y120.2377
 X1.2150
 Y121.2054
 X248.7850
 Y122.1730
 X1.2150
 Y123.1407
 X248.7850
 Y124.1084
 X1.2150
 Y125.0760
 X248.7850
 Y126.0437
 X1.2150
 Y127.0114
 X248.7850
 Y127.9790
 X1.2150
 Y128.9467
 X248.7850
 Y129.9143
 X1.2150
 Y130.8820
 X248.7850
 Y131.8497
 X1.2150
 Y132.8173
 X248.7850
 Y133.7850
 X1.2150
G0 Z25.0000
M5 (stop spindle)
G04 P3 (wait for 3 seconds)
G0 Z25.0000
M2 (end program)
