;PYCAM-META-DATA: Filename: /home/framlin/tinker/acrylic-lamp/cad/socket-top-filled.stl
;PYCAM-META-DATA: Timestamp: 2016-04-14 17:08:00.957388
;PYCAM-META-DATA: Version: 0.5.1
;Estimated machine time: 60 minutes
G40 (disable tool radius compensation)
G49 (disable tool length compensation)
G80 (cancel modal motion)
G54 (select coordinate system 1)
G90 (disable incremental moves)
G21 (metric)
G61 (exact path mode)
F1000.00000
S1000.00000
;PYCAM_TOOLPATH_SETTINGS: START
;[Bounds]
;maxz = 0.0
;maxx = 248.415
;maxy = 134.415
;minx = 1.585
;miny = 1.585
;minz = -22.0
;
;[Tool]
;torus_radius = 0.25
;speed = 1000.0
;shape = CylindricalCutter
;tool_radius = 1.585
;feedrate = 1000.0
;
;[Process]
;engrave_offset = 0.0
;step_down = 3.0
;generator = PushCutter
;postprocessor = SimpleCutter
;milling_style = conventional
;material_allowance = 0.0
;pocketing_type = none
;path_direction = x
;
;PYCAM_TOOLPATH_SETTINGS: END
T4 M6
G0 Z25.0000
M3 (start spindle)
G04 P3 (wait for 3 seconds)
 X41.5850 Y19.2957
G1 Z0.0000
 X209.0871
G0 Z25.0000
 X41.5850 Y21.5095
G1 Z0.0000
 X248.4150
G0 Z25.0000
 X41.5850 Y23.7233
G1 Z0.0000
 X248.4150
G0 Z25.0000
 X41.5850 Y25.9372
G1 Z0.0000
 X248.4150
G0 Z25.0000
 X41.5850 Y28.1510
G1 Z0.0000
 X248.4150
G0 Z25.0000
 X41.5850 Y30.3648
G1 Z0.0000
 X208.4150
G0 Z25.0000
 X41.5850 Y32.5787
G1 Z0.0000
 X208.4150
G0 Z25.0000
 X41.5850 Y34.7925
G1 Z0.0000
 X208.4150
G0 Z25.0000
 X41.5850 Y37.0063
G1 Z0.0000
 X208.4150
G0 Z25.0000
 X41.5850 Y39.2202
G1 Z0.0000
 X208.4150
G0 Z25.0000
 X41.5850 Y41.4340
G1 Z0.0000
 X208.4150
G0 Z25.0000
 X41.5850 Y43.6478
G1 Z0.0000
 X208.4150
G0 Z25.0000
 X41.5850 Y45.8617
G1 Z0.0000
 X208.4150
G0 Z25.0000
 X41.5850 Y48.0755
G1 Z0.0000
 X208.4150
G0 Z25.0000
 X41.5850 Y50.2893
G1 Z0.0000
 X208.4150
G0 Z25.0000
 X41.5850 Y52.5032
G1 Z0.0000
 X208.4150
G0 Z25.0000
 X41.5850 Y54.7170
G1 Z0.0000
 X208.4150
G0 Z25.0000
 X41.5850 Y56.9308
G1 Z0.0000
 X208.4150
G0 Z25.0000
 X41.5850 Y59.1447
G1 Z0.0000
 X208.4150
G0 Z25.0000
 X41.5850 Y61.3585
G1 Z0.0000
 X208.4150
G0 Z25.0000
 X41.5850 Y63.5723
G1 Z0.0000
 X208.4150
G0 Z25.0000
 X41.5850 Y65.7862
G1 Z0.0000
 X208.4150
G0 Z25.0000
 X41.5850 Y68.0000
G1 Z0.0000
 X208.4150
G0 Z25.0000
 X41.5850 Y70.2138
G1 Z0.0000
 X208.4150
G0 Z25.0000
 X41.5850 Y72.4277
G1 Z0.0000
 X208.4150
G0 Z25.0000
 X41.5850 Y74.6415
G1 Z0.0000
 X208.4150
G0 Z25.0000
 X41.5850 Y76.8553
G1 Z0.0000
 X208.4150
G0 Z25.0000
 X41.5850 Y79.0692
G1 Z0.0000
 X208.4150
G0 Z25.0000
 X41.5850 Y81.2830
G1 Z0.0000
 X208.4150
G0 Z25.0000
 X41.5850 Y83.4968
G1 Z0.0000
 X208.4150
G0 Z25.0000
 X41.5850 Y85.7107
G1 Z0.0000
 X208.4150
G0 Z25.0000
 X41.5850 Y87.9245
G1 Z0.0000
 X208.4150
G0 Z25.0000
 X41.5850 Y90.1383
G1 Z0.0000
 X208.4150
G0 Z25.0000
 X41.5850 Y92.3522
G1 Z0.0000
 X208.4150
G0 Z25.0000
 X41.5850 Y94.5660
G1 Z0.0000
 X208.4150
G0 Z25.0000
 X41.5850 Y96.7798
G1 Z0.0000
 X208.4150
G0 Z25.0000
 X41.5850 Y98.9937
G1 Z0.0000
 X208.4150
G0 Z25.0000
 X41.5850 Y101.2075
G1 Z0.0000
 X208.4150
G0 Z25.0000
 X41.5850 Y103.4213
G1 Z0.0000
 X208.4150
G0 Z25.0000
 X41.5850 Y105.6352
G1 Z0.0000
 X208.4150
G0 Z25.0000
 X41.5850 Y107.8490
G1 Z0.0000
 X208.4150
G0 Z25.0000
 X41.5850 Y110.0628
G1 Z0.0000
 X208.4150
G0 Z25.0000
 X41.5850 Y112.2767
G1 Z0.0000
 X208.4150
G0 Z25.0000
 X41.5850 Y114.4905
G1 Z0.0000
 X208.4150
G0 Z25.0000
 X41.5850 Y116.7043
G1 Z0.0000
 X208.4150
 Z-2.7500
 X41.5850
G0 Z25.0000
 X208.4150 Y114.4905
G1 Z-2.7500
 X41.5850
G0 Z25.0000
 X208.4150 Y112.2767
G1 Z-2.7500
 X41.5850
G0 Z25.0000
 X208.4150 Y110.0628
G1 Z-2.7500
 X41.5850
G0 Z25.0000
 X208.4150 Y107.8490
G1 Z-2.7500
 X41.5850
G0 Z25.0000
 X208.4150 Y105.6352
G1 Z-2.7500
 X41.5850
G0 Z25.0000
 X208.4150 Y103.4213
G1 Z-2.7500
 X41.5850
G0 Z25.0000
 X208.4150 Y101.2075
G1 Z-2.7500
 X41.5850
G0 Z25.0000
 X208.4150 Y98.9937
G1 Z-2.7500
 X41.5850
G0 Z25.0000
 X208.4150 Y96.7798
G1 Z-2.7500
 X41.5850
G0 Z25.0000
 X208.4150 Y94.5660
G1 Z-2.7500
 X41.5850
G0 Z25.0000
 X208.4150 Y92.3522
G1 Z-2.7500
 X41.5850
G0 Z25.0000
 X208.4150 Y90.1383
G1 Z-2.7500
 X41.5850
G0 Z25.0000
 X208.4150 Y87.9245
G1 Z-2.7500
 X41.5850
G0 Z25.0000
 X208.4150 Y85.7107
G1 Z-2.7500
 X41.5850
G0 Z25.0000
 X208.4150 Y83.4968
G1 Z-2.7500
 X41.5850
G0 Z25.0000
 X208.4150 Y81.2830
G1 Z-2.7500
 X41.5850
G0 Z25.0000
 X208.4150 Y79.0692
G1 Z-2.7500
 X41.5850
G0 Z25.0000
 X208.4150 Y76.8553
G1 Z-2.7500
 X41.5850
G0 Z25.0000
 X208.4150 Y74.6415
G1 Z-2.7500
 X41.5850
G0 Z25.0000
 X208.4150 Y72.4277
G1 Z-2.7500
 X41.5850
G0 Z25.0000
 X208.4150 Y70.2138
G1 Z-2.7500
 X41.5850
G0 Z25.0000
 X208.4150 Y68.0000
G1 Z-2.7500
 X41.5850
G0 Z25.0000
 X208.4150 Y65.7862
G1 Z-2.7500
 X41.5850
G0 Z25.0000
 X208.4150 Y63.5723
G1 Z-2.7500
 X41.5850
G0 Z25.0000
 X208.4150 Y61.3585
G1 Z-2.7500
 X41.5850
G0 Z25.0000
 X208.4150 Y59.1447
G1 Z-2.7500
 X41.5850
G0 Z25.0000
 X208.4150 Y56.9308
G1 Z-2.7500
 X41.5850
G0 Z25.0000
 X208.4150 Y54.7170
G1 Z-2.7500
 X41.5850
G0 Z25.0000
 X208.4150 Y52.5032
G1 Z-2.7500
 X41.5850
G0 Z25.0000
 X208.4150 Y50.2893
G1 Z-2.7500
 X41.5850
G0 Z25.0000
 X208.4150 Y48.0755
G1 Z-2.7500
 X41.5850
G0 Z25.0000
 X208.4150 Y45.8617
G1 Z-2.7500
 X41.5850
G0 Z25.0000
 X208.4150 Y43.6478
G1 Z-2.7500
 X41.5850
G0 Z25.0000
 X208.4150 Y41.4340
G1 Z-2.7500
 X41.5850
G0 Z25.0000
 X208.4150 Y39.2202
G1 Z-2.7500
 X41.5850
G0 Z25.0000
 X208.4150 Y37.0063
G1 Z-2.7500
 X41.5850
G0 Z25.0000
 X208.4150 Y34.7925
G1 Z-2.7500
 X41.5850
G0 Z25.0000
 X208.4150 Y32.5787
G1 Z-2.7500
 X41.5850
G0 Z25.0000
 X208.4150 Y30.3648
G1 Z-2.7500
 X41.5850
G0 Z25.0000
 X248.4150 Y28.1510
G1 Z-2.7500
 X41.5850
G0 Z25.0000
 X248.4150 Y25.9372
G1 Z-2.7500
 X41.5850
G0 Z25.0000
 X248.4150 Y23.7233
G1 Z-2.7500
 X41.5850
G0 Z25.0000
 X248.4150 Y21.5095
G1 Z-2.7500
 X41.5850
G0 Z25.0000
 X209.0871 Y19.2957
G1 Z-2.7500
 X41.5850
 Z-5.5000
 X209.0871
G0 Z25.0000
 X41.5850 Y21.5095
G1 Z-5.5000
 X248.4150
G0 Z25.0000
 X41.5850 Y23.7233
G1 Z-5.5000
 X248.4150
G0 Z25.0000
 X41.5850 Y25.9372
G1 Z-5.5000
 X248.4150
G0 Z25.0000
 X41.5850 Y28.1510
G1 Z-5.5000
 X248.4150
G0 Z25.0000
 X41.5850 Y30.3648
G1 Z-5.5000
 X208.4150
G0 Z25.0000
 X41.5850 Y32.5787
G1 Z-5.5000
 X208.4150
G0 Z25.0000
 X41.5850 Y34.7925
G1 Z-5.5000
 X208.4150
G0 Z25.0000
 X41.5850 Y37.0063
G1 Z-5.5000
 X208.4150
G0 Z25.0000
 X41.5850 Y39.2202
G1 Z-5.5000
 X208.4150
G0 Z25.0000
 X41.5850 Y41.4340
G1 Z-5.5000
 X208.4150
G0 Z25.0000
 X41.5850 Y43.6478
G1 Z-5.5000
 X208.4150
G0 Z25.0000
 X41.5850 Y45.8617
G1 Z-5.5000
 X208.4150
G0 Z25.0000
 X41.5850 Y48.0755
G1 Z-5.5000
 X208.4150
G0 Z25.0000
 X41.5850 Y50.2893
G1 Z-5.5000
 X208.4150
G0 Z25.0000
 X41.5850 Y52.5032
G1 Z-5.5000
 X208.4150
G0 Z25.0000
 X41.5850 Y54.7170
G1 Z-5.5000
 X208.4150
G0 Z25.0000
 X41.5850 Y56.9308
G1 Z-5.5000
 X208.4150
G0 Z25.0000
 X41.5850 Y59.1447
G1 Z-5.5000
 X208.4150
G0 Z25.0000
 X41.5850 Y61.3585
G1 Z-5.5000
 X208.4150
G0 Z25.0000
 X41.5850 Y63.5723
G1 Z-5.5000
 X208.4150
G0 Z25.0000
 X41.5850 Y65.7862
G1 Z-5.5000
 X208.4150
G0 Z25.0000
 X41.5850 Y68.0000
G1 Z-5.5000
 X208.4150
G0 Z25.0000
 X41.5850 Y70.2138
G1 Z-5.5000
 X208.4150
G0 Z25.0000
 X41.5850 Y72.4277
G1 Z-5.5000
 X208.4150
G0 Z25.0000
 X41.5850 Y74.6415
G1 Z-5.5000
 X208.4150
G0 Z25.0000
 X41.5850 Y76.8553
G1 Z-5.5000
 X208.4150
G0 Z25.0000
 X41.5850 Y79.0692
G1 Z-5.5000
 X208.4150
G0 Z25.0000
 X41.5850 Y81.2830
G1 Z-5.5000
 X208.4150
G0 Z25.0000
 X41.5850 Y83.4968
G1 Z-5.5000
 X208.4150
G0 Z25.0000
 X41.5850 Y85.7107
G1 Z-5.5000
 X208.4150
G0 Z25.0000
 X41.5850 Y87.9245
G1 Z-5.5000
 X208.4150
G0 Z25.0000
 X41.5850 Y90.1383
G1 Z-5.5000
 X208.4150
G0 Z25.0000
 X41.5850 Y92.3522
G1 Z-5.5000
 X208.4150
G0 Z25.0000
 X41.5850 Y94.5660
G1 Z-5.5000
 X208.4150
G0 Z25.0000
 X41.5850 Y96.7798
G1 Z-5.5000
 X208.4150
G0 Z25.0000
 X41.5850 Y98.9937
G1 Z-5.5000
 X208.4150
G0 Z25.0000
 X41.5850 Y101.2075
G1 Z-5.5000
 X208.4150
G0 Z25.0000
 X41.5850 Y103.4213
G1 Z-5.5000
 X208.4150
G0 Z25.0000
 X41.5850 Y105.6352
G1 Z-5.5000
 X208.4150
G0 Z25.0000
 X41.5850 Y107.8490
G1 Z-5.5000
 X208.4150
G0 Z25.0000
 X41.5850 Y110.0628
G1 Z-5.5000
 X208.4150
G0 Z25.0000
 X41.5850 Y112.2767
G1 Z-5.5000
 X208.4150
G0 Z25.0000
 X41.5850 Y114.4905
G1 Z-5.5000
 X208.4150
G0 Z25.0000
 X41.5850 Y116.7043
G1 Z-5.5000
 X208.4150
G0 Z25.0000
 X188.4150 Y112.2767
G1 Z-8.2500
 X61.5850
G0 Z25.0000
 X188.4150 Y98.9937
G1 Z-8.2500
 X61.5850
G0 Z25.0000
 X188.4150 Y96.7798
G1 Z-8.2500
 X61.5850
G0 Z25.0000
 X188.4150 Y83.4968
G1 Z-8.2500
 X61.5850
G0 Z25.0000
 X188.4150 Y68.0000
G1 Z-8.2500
 X61.5850
G0 Z25.0000
 X188.4150 Y52.5032
G1 Z-8.2500
 X61.5850
G0 Z25.0000
 X188.4150 Y39.2202
G1 Z-8.2500
 X61.5850
G0 Z25.0000
 X188.4150 Y37.0063
G1 Z-8.2500
 X61.5850
G0 Z25.0000
 X248.4150 Y28.1510
G1 Z-8.2500
 X211.5850
G0 Z25.0000
 X248.4150 Y25.9372
G1 Z-8.2500
 X211.5850
G0 Z25.0000
 X248.4150 Y23.7233
G1 Z-8.2500
 X211.5850
G0 Z25.0000
 X188.4150
G1 Z-8.2500
 X61.5850
G0 Z25.0000
 X248.4150 Y21.5095
G1 Z-8.2500
 X211.5850
 Z-11.0000
 X248.4150
G0 Z25.0000
 X61.5850 Y23.7233
G1 Z-11.0000
 X188.4150
G0 Z25.0000
 X211.5850
G1 Z-11.0000
 X248.4150
G0 Z25.0000
 X211.5850 Y25.9372
G1 Z-11.0000
 X248.4150
G0 Z25.0000
 X211.5850 Y28.1510
G1 Z-11.0000
 X248.4150
G0 Z25.0000
 X61.5850 Y37.0063
G1 Z-11.0000
 X188.4150
G0 Z25.0000
 X61.5850 Y39.2202
G1 Z-11.0000
 X188.4150
G0 Z25.0000
 X61.5850 Y52.5032
G1 Z-11.0000
 X188.4150
G0 Z25.0000
 X61.5850 Y68.0000
G1 Z-11.0000
 X188.4150
G0 Z25.0000
 X61.5850 Y83.4968
G1 Z-11.0000
 X188.4150
G0 Z25.0000
 X61.5850 Y96.7798
G1 Z-11.0000
 X188.4150
G0 Z25.0000
 X61.5850 Y98.9937
G1 Z-11.0000
 X188.4150
G0 Z25.0000
 X61.5850 Y112.2767
G1 Z-11.0000
 X188.4150
G0 Z25.0000
M5 (stop spindle)
G04 P3 (wait for 3 seconds)
G0 Z25.0000
M2 (end program)
