;PYCAM-META-DATA: Filename: /home/framlin/tinker/acrylic-lamp/cad/socket-top-filled.stl
;PYCAM-META-DATA: Timestamp: 2016-04-14 18:52:42.451699
;PYCAM-META-DATA: Version: 0.5.1
;Estimated machine time: 25 minutes
G40 (disable tool radius compensation)
G49 (disable tool length compensation)
G80 (cancel modal motion)
G54 (select coordinate system 1)
G90 (disable incremental moves)
G21 (metric)
G61 (exact path mode)
F750.00000
S1000.00000
;PYCAM_TOOLPATH_SETTINGS: START
;[Bounds]
;maxz = 0.0
;maxx = 248.9
;maxy = 134.9
;minx = 1.1
;miny = 1.1
;minz = -22.0
;
;[Tool]
;torus_radius = 0.25
;speed = 1000.0
;shape = CylindricalCutter
;tool_radius = 1.1
;feedrate = 750.0
;
;[Process]
;engrave_offset = 0.0
;step_down = 2.0
;generator = ContourFollow
;postprocessor = SimpleCutter
;milling_style = conventional
;material_allowance = 0.0
;pocketing_type = none
;path_direction = x
;
;PYCAM_TOOLPATH_SETTINGS: END
T5 M6
G0 Z25.0000
M3 (start spindle)
G04 P3 (wait for 3 seconds)
 X248.9000 Y19.1000
G1 Z0.0000
 X208.9000
 Y16.6000
 X41.1000
 Y119.4000
 X208.9000
 Y28.9000
 X248.9000
G0 Z25.0000
 X236.6667
G1 Z-2.0000
 X248.9000
G0 Z25.0000
 X208.9000 Y18.0000
G1 Z-2.0000
 Y17.1667
G0 Z25.0000
 X153.3333 Y119.4000
G1 Z-2.0000
 X208.9000
 Y28.9000
 X248.9000
G0 Z25.0000
 X41.1000 Y85.5000
G1 Z-2.0000
 Y119.4000
G0 Z25.0000
 X248.9000 Y19.1000
G1 Z-2.0000
 X208.9000
 Y16.6000
 X41.1000
 Y119.4000
G0 Z25.0000
 X223.3333 Y28.9000
G1 Z-4.0000
 X248.9000
G0 Z25.0000
 X96.6667 Y119.4000
G1 Z-4.0000
 X208.9000
G0 Z25.0000
 X41.1000 Y50.5000
G1 Z-4.0000
 Y119.4000
G0 Z25.0000
 X248.9000 Y19.1000
G1 Z-4.0000
 X208.9000
 Y16.6000
 X41.1000
 Y119.4000
 X208.9000
 Y28.9000
 X248.9000
G0 Z25.0000
 Y19.1000
G1 Z-6.0000
 X211.1000
 Y28.9000
 X248.9000
G0 Z25.0000
 X188.9000 Y111.1000
G1 Z-6.0000
 X61.1000
 Y114.9000
 X188.9000
 Y111.1000
G0 Z25.0000
 Y96.1000
G1 Z-6.0000
 X61.1000
 Y99.9000
 X188.9000
 Y96.1000
G0 Z25.0000
 Y81.1000
G1 Z-6.0000
 X61.1000
 Y84.9000
 X188.9000
 Y81.1000
G0 Z25.0000
 Y66.1000
G1 Z-6.0000
 X61.1000
 Y69.9000
 X188.9000
 Y66.1000
G0 Z25.0000
 Y51.1000
G1 Z-6.0000
 X61.1000
 Y54.9000
 X188.9000
 Y51.1000
G0 Z25.0000
 Y36.1000
G1 Z-6.0000
 X61.1000
 Y39.9000
 X188.9000
 Y36.1000
G0 Z25.0000
 Y21.1000
G1 Z-6.0000
 X61.1000
 Y24.9000
 X188.9000
 Y21.1000
G0 Z25.0000
 X211.1000 Y26.0000
G1 Z-8.0000
 Y28.9000
 X223.3333
G0 Z25.0000
 Y19.1000
G1 Z-8.0000
 X211.1000
G0 Z25.0000
 X248.9000
G1 Z-8.0000
 X211.1000
 Y28.9000
 X248.9000
G0 Z25.0000
 X146.6667 Y114.9000
G1 Z-8.0000
 X188.9000
 Y114.0000
G0 Z25.0000
 X146.6667 Y99.9000
G1 Z-8.0000
 X188.9000
 Y99.0000
G0 Z25.0000
 X146.6667 Y84.9000
G1 Z-8.0000
 X188.9000
 Y84.0000
G0 Z25.0000
 X61.1000 Y114.0000
G1 Z-8.0000
 Y114.9000
G0 Z25.0000
 Y99.0000
G1 Z-8.0000
 Y99.9000
G0 Z25.0000
 X188.9000 Y111.1000
G1 Z-8.0000
 X61.1000
 Y114.9000
 X188.9000
 Y111.1000
 X146.6667
G0 Z25.0000
 X188.9000 Y96.1000
G1 Z-8.0000
 X61.1000
 Y99.9000
 X188.9000
 Y96.1000
 X146.6667
G0 Z25.0000
 X61.1000 Y84.0000
G1 Z-8.0000
 Y84.9000
G0 Z25.0000
 Y69.0000
G1 Z-8.0000
 Y69.9000
G0 Z25.0000
 X188.9000 Y81.1000
G1 Z-8.0000
 X61.1000
 Y84.9000
 X188.9000
 Y81.1000
 X146.6667
G0 Z25.0000
 Y69.9000
G1 Z-8.0000
 X188.9000
 Y69.0000
G0 Z25.0000
 X146.6667 Y54.9000
G1 Z-8.0000
 X188.9000
 Y54.0000
G0 Z25.0000
 Y51.1000
G1 Z-8.0000
 X146.6667
G0 Z25.0000
 Y39.9000
G1 Z-8.0000
 X188.9000
 Y39.0000
G0 Z25.0000
 X146.6667 Y24.9000
G1 Z-8.0000
 X188.9000
G0 Z25.0000
 Y66.1000
G1 Z-8.0000
 X61.1000
 Y69.9000
 X188.9000
 Y66.1000
 X146.6667
G0 Z25.0000
 X61.1000 Y54.0000
G1 Z-8.0000
 Y54.9000
 X188.9000
 Y51.1000
 X61.1000
G0 Z25.0000
 Y39.0000
G1 Z-8.0000
 Y39.9000
G0 Z25.0000
 Y21.1000
G1 Z-8.0000
 Y22.0000
G0 Z25.0000
 X188.9000 Y36.1000
G1 Z-8.0000
 X61.1000
 Y39.9000
 X188.9000
 Y36.1000
 X146.6667
G0 Z25.0000
 X188.9000 Y22.0000
G1 Z-8.0000
 Y21.1000
 X61.1000
 Y24.9000
 X188.9000
 Y21.1000
 X146.6667
G0 Z25.0000
 X211.1000 Y22.0000
G1 Z-10.0000
 Y28.9000
 X236.6667
G0 Z25.0000
 Y19.1000
G1 Z-10.0000
 X211.1000
G0 Z25.0000
 X248.9000
G1 Z-10.0000
 X211.1000
 Y28.9000
 X248.9000
G0 Z25.0000
 X103.3333 Y114.9000
G1 Z-10.0000
 X188.9000
 Y112.0000
G0 Z25.0000
 X103.3333 Y99.9000
G1 Z-10.0000
 X188.9000
 Y97.0000
G0 Z25.0000
 X103.3333 Y84.9000
G1 Z-10.0000
 X188.9000
 Y82.0000
G0 Z25.0000
 X61.1000 Y112.0000
G1 Z-10.0000
 Y114.9000
G0 Z25.0000
 X188.9000 Y111.1000
G1 Z-10.0000
 X61.1000
 Y114.9000
 X188.9000
 Y111.1000
 X103.3333
G0 Z25.0000
 X61.1000 Y97.0000
G1 Z-10.0000
 Y99.9000
G0 Z25.0000
 X188.9000 Y96.1000
G1 Z-10.0000
 X61.1000
 Y99.9000
 X188.9000
 Y96.1000
 X103.3333
G0 Z25.0000
 X61.1000 Y82.0000
G1 Z-10.0000
 Y84.9000
G0 Z25.0000
 X188.9000 Y81.1000
G1 Z-10.0000
 X61.1000
 Y84.9000
 X188.9000
 Y81.1000
 X103.3333
G0 Z25.0000
 X61.1000 Y67.0000
G1 Z-10.0000
 Y69.9000
G0 Z25.0000
 X103.3333
G1 Z-10.0000
 X188.9000
 Y67.0000
G0 Z25.0000
 X103.3333 Y54.9000
G1 Z-10.0000
 X188.9000
 Y52.0000
 Y51.1000
 X103.3333
G0 Z25.0000
 Y39.9000
G1 Z-10.0000
 X188.9000
 Y37.0000
G0 Z25.0000
 X103.3333 Y24.9000
G1 Z-10.0000
 X188.9000
 Y24.0000
 Y21.1000
 X103.3333
G0 Z25.0000
 X188.9000 Y66.1000
G1 Z-10.0000
 X61.1000
 Y69.9000
 X188.9000
 Y66.1000
 X103.3333
G0 Z25.0000
 X61.1000 Y37.0000
G1 Z-10.0000
 Y39.9000
G0 Z25.0000
 X188.9000 Y36.1000
G1 Z-10.0000
 X61.1000
 Y39.9000
 X188.9000
 Y36.1000
 X103.3333
G0 Z25.0000
 X61.1000 Y21.1000
G1 Z-10.0000
 Y24.0000
 Y24.9000
 X188.9000
 Y21.1000
 X61.1000
 Y24.9000
G0 Z25.0000
 Y36.1000
G1 Z-10.0000
 Y39.9000
G0 Z25.0000
 Y51.1000
G1 Z-10.0000
 Y52.0000
 Y54.9000
 X188.9000
 Y51.1000
 X61.1000
 Y54.9000
G0 Z25.0000
M5 (stop spindle)
G04 P3 (wait for 3 seconds)
G0 Z25.0000
M2 (end program)
