;PYCAM-META-DATA: Filename: /home/framlin/tinker/acrylic-lamp/cad/socket-f360-bottom.stl
;PYCAM-META-DATA: Timestamp: 2016-05-20 20:52:04.589709
;PYCAM-META-DATA: Version: 0.5.1
;Estimated machine time: 69 minutes
G40 (disable tool radius compensation)
G49 (disable tool length compensation)
G80 (cancel modal motion)
G54 (select coordinate system 1)
G90 (disable incremental moves)
G21 (metric)
G61 (exact path mode)
F400.00000
S1000.00000
;PYCAM_TOOLPATH_SETTINGS: START
;[Bounds]
;maxz = 0.0
;maxx = 248.4125
;maxy = 133.4125
;minx = 1.5875
;miny = 1.5875
;minz = -19.0
;
;[Tool]
;torus_radius = 0.125
;speed = 1000.0
;shape = SphericalCutter
;tool_radius = 1.5875
;feedrate = 400.0
;
;[Process]
;engrave_offset = 0.0
;step_down = 3.0
;generator = DropCutter
;postprocessor = PathAccumulator
;milling_style = ignore
;material_allowance = 0.0
;pocketing_type = none
;path_direction = x
;
;PYCAM_TOOLPATH_SETTINGS: END
T4 M6
G0 Z25.0000
M3 (start spindle)
G04 P3 (wait for 3 seconds)
 X1.5875 Y1.5875
G1 Z0.0000
 X248.4125
 Y2.8550
 X1.5875
 Y4.1226
 X248.4125
 Y5.3901
 X1.5875
 Y6.6577
 X248.4125
 Y7.9252
 X1.5875
 Y9.1928
 X248.4125
 Y10.4603
 X220.0395
 X219.9403 Z-0.0011
 X219.8411 Z-0.0080
 X219.6427 Z-0.0407
 X219.5931 Z-0.0530
 X219.5683 Z-0.0598
 X219.5559 Z-0.0634
 X219.5497 Z-0.0652
 X219.5466 Z-0.0661
 X219.5450 Z-0.0666
 X219.5435 Z-0.0671
 X219.4443 Z-0.0682
 X30.5557
 X30.3573 Z-0.0407
 X30.2581 Z-0.0211
 X30.2085 Z-0.0137
 X30.1589 Z-0.0080
 X29.7621 Z0.0000
 X1.5875
 Y11.7279
 X29.9605
 X30.0597 Z-0.0011
 X30.1093 Z-0.0038
 X30.1341 Z-0.0057
 X30.1589 Z-0.0080
 X30.2581 Z-0.0211
 X30.3077 Z-0.0301
 X30.3573 Z-0.0407
 X30.4565 Z-0.0671
 X30.5061 Z-0.0828
 X30.5309 Z-0.0914
 X30.5557 Z-0.1004
 X30.6549 Z-0.1414
 X30.7045 Z-0.1649
 X30.7541 Z-0.1906
 X30.8533 Z-0.2488
 X30.9029 Z-0.2818
 X30.9277 Z-0.2993
 X30.9525 Z-0.3175
 X31.0517 Z-0.3984
 X31.1013 Z-0.4442
 X31.1261 Z-0.4686
 X31.1509 Z-0.4941
 X31.2005 Z-0.5488
 X31.2502 Z-0.6091
 X31.2998 Z-0.6760
 X31.3246 Z-0.7125
 X31.3370 Z-0.7315
 X31.3494 Z-0.7512
 X31.3990 Z-0.8371
 X31.4486 Z-0.9380
 X31.4734 Z-0.9964
 X31.4982 Z-1.0625
 X31.5478 Z-1.2346
 X31.5726 Z-1.3703
 X31.5850 Z-1.4979
 X31.5881 Z-6.0000
 X218.4026
 X218.4274 Z-1.3703
 X218.4398 Z-1.2942
 X218.4460 Z-1.2629
 X218.4522 Z-1.2346
 X218.5018 Z-1.0625
 X218.5266 Z-0.9964
 X218.5514 Z-0.9380
 X218.6010 Z-0.8371
 X218.6258 Z-0.7926
 X218.6382 Z-0.7716
 X218.6506 Z-0.7512
 X218.7498 Z-0.6091
 X218.7995 Z-0.5488
 X218.8491 Z-0.4941
 X218.9483 Z-0.3984
 X218.9979 Z-0.3563
 X219.0227 Z-0.3365
 X219.0475 Z-0.3175
 X219.1467 Z-0.2488
 X219.1963 Z-0.2185
 X219.2459 Z-0.1906
 X219.3451 Z-0.1414
 X219.3947 Z-0.1199
 X219.4195 Z-0.1099
 X219.4443 Z-0.1004
 X219.5435 Z-0.0671
 X219.5931 Z-0.0530
 X219.6427 Z-0.0407
 X219.7419 Z-0.0211
 X219.7915 Z-0.0137
 X219.8411 Z-0.0080
 X220.2379 Z0.0000
 X248.4125
 Y12.9954
 X220.0395
 X219.9403 Z-0.0011
 X219.8907 Z-0.0038
 X219.8659 Z-0.0057
 X219.8411 Z-0.0080
 X219.7419 Z-0.0211
 X219.6923 Z-0.0301
 X219.6427 Z-0.0407
 X219.5435 Z-0.0671
 X219.4939 Z-0.0828
 X219.4691 Z-0.0914
 X219.4443 Z-0.1004
 X219.3451 Z-0.1414
 X219.2955 Z-0.1649
 X219.2459 Z-0.1906
 X219.1467 Z-0.2488
 X219.0971 Z-0.2818
 X219.0723 Z-0.2993
 X219.0475 Z-0.3175
 X218.9483 Z-0.3984
 X218.8987 Z-0.4442
 X218.8739 Z-0.4686
 X218.8491 Z-0.4941
 X218.7995 Z-0.5488
 X218.7498 Z-0.6091
 X218.7002 Z-0.6760
 X218.6754 Z-0.7125
 X218.6630 Z-0.7315
 X218.6506 Z-0.7512
 X218.6010 Z-0.8371
 X218.5514 Z-0.9380
 X218.5266 Z-0.9964
 X218.5018 Z-1.0625
 X218.4522 Z-1.2346
 X218.4274 Z-1.3703
 X218.4150 Z-1.4979
 X218.4119 Z-6.0000
 X31.5974
 X31.5726 Z-1.3703
 X31.5602 Z-1.2942
 X31.5540 Z-1.2629
 X31.5478 Z-1.2346
 X31.4982 Z-1.0625
 X31.4734 Z-0.9964
 X31.4486 Z-0.9380
 X31.3990 Z-0.8371
 X31.3742 Z-0.7926
 X31.3618 Z-0.7716
 X31.3494 Z-0.7512
 X31.2502 Z-0.6091
 X31.2005 Z-0.5488
 X31.1509 Z-0.4941
 X31.0517 Z-0.3984
 X31.0021 Z-0.3563
 X30.9773 Z-0.3365
 X30.9525 Z-0.3175
 X30.8533 Z-0.2488
 X30.8037 Z-0.2185
 X30.7541 Z-0.1906
 X30.6549 Z-0.1414
 X30.6053 Z-0.1199
 X30.5805 Z-0.1099
 X30.5557 Z-0.1004
 X30.4565 Z-0.0671
 X30.4069 Z-0.0530
 X30.3573 Z-0.0407
 X30.2581 Z-0.0211
 X30.2085 Z-0.0137
 X30.1589 Z-0.0080
 X29.7621 Z0.0000
 X1.5875
 Y14.2630
 X29.9605
 X30.0597 Z-0.0011
 X30.1093 Z-0.0038
 X30.1341 Z-0.0057
 X30.1589 Z-0.0080
 X30.2581 Z-0.0211
 X30.3077 Z-0.0301
 X30.3573 Z-0.0407
 X30.4565 Z-0.0671
 X30.5061 Z-0.0828
 X30.5309 Z-0.0914
 X30.5557 Z-0.1004
 X30.6549 Z-0.1414
 X30.7045 Z-0.1649
 X30.7541 Z-0.1906
 X30.8533 Z-0.2488
 X30.9029 Z-0.2818
 X30.9277 Z-0.2993
 X30.9525 Z-0.3175
 X31.0517 Z-0.3984
 X31.1013 Z-0.4442
 X31.1261 Z-0.4686
 X31.1509 Z-0.4941
 X31.2005 Z-0.5488
 X31.2502 Z-0.6091
 X31.2998 Z-0.6760
 X31.3246 Z-0.7125
 X31.3370 Z-0.7315
 X31.3494 Z-0.7512
 X31.3990 Z-0.8371
 X31.4486 Z-0.9380
 X31.4734 Z-0.9964
 X31.4982 Z-1.0625
 X31.5478 Z-1.2346
 X31.5726 Z-1.3703
 X31.5850 Z-1.4979
 X31.5881 Z-6.0000
 X218.4026
 X218.4274 Z-1.3703
 X218.4398 Z-1.2942
 X218.4460 Z-1.2629
 X218.4522 Z-1.2346
 X218.5018 Z-1.0625
 X218.5266 Z-0.9964
 X218.5514 Z-0.9380
 X218.6010 Z-0.8371
 X218.6258 Z-0.7926
 X218.6382 Z-0.7716
 X218.6506 Z-0.7512
 X218.7498 Z-0.6091
 X218.7995 Z-0.5488
 X218.8491 Z-0.4941
 X218.9483 Z-0.3984
 X218.9979 Z-0.3563
 X219.0227 Z-0.3365
 X219.0475 Z-0.3175
 X219.1467 Z-0.2488
 X219.1963 Z-0.2185
 X219.2459 Z-0.1906
 X219.3451 Z-0.1414
 X219.3947 Z-0.1199
 X219.4195 Z-0.1099
 X219.4443 Z-0.1004
 X219.5435 Z-0.0671
 X219.5931 Z-0.0530
 X219.6427 Z-0.0407
 X219.7419 Z-0.0211
 X219.7915 Z-0.0137
 X219.8411 Z-0.0080
 X220.2379 Z0.0000
 X248.4125
 Y15.5305
 X220.0395
 X219.9403 Z-0.0011
 X219.8907 Z-0.0038
 X219.8659 Z-0.0057
 X219.8411 Z-0.0080
 X219.7419 Z-0.0211
 X219.6923 Z-0.0301
 X219.6427 Z-0.0407
 X219.5435 Z-0.0671
 X219.4939 Z-0.0828
 X219.4691 Z-0.0914
 X219.4443 Z-0.1004
 X219.3451 Z-0.1414
 X219.2955 Z-0.1649
 X219.2459 Z-0.1906
 X219.1467 Z-0.2488
 X219.0971 Z-0.2818
 X219.0723 Z-0.2993
 X219.0475 Z-0.3175
 X218.9483 Z-0.3984
 X218.8987 Z-0.4442
 X218.8739 Z-0.4686
 X218.8491 Z-0.4941
 X218.7995 Z-0.5488
 X218.7498 Z-0.6091
 X218.7002 Z-0.6760
 X218.6754 Z-0.7125
 X218.6630 Z-0.7315
 X218.6506 Z-0.7512
 X218.6010 Z-0.8371
 X218.5514 Z-0.9380
 X218.5266 Z-0.9964
 X218.5018 Z-1.0625
 X218.4522 Z-1.2346
 X218.4274 Z-1.3703
 X218.4150 Z-1.4979
 X218.4119 Z-6.0000
 X31.5974
 X31.5726 Z-1.3703
 X31.5602 Z-1.2942
 X31.5540 Z-1.2629
 X31.5478 Z-1.2346
 X31.4982 Z-1.0625
 X31.4734 Z-0.9964
 X31.4486 Z-0.9380
 X31.3990 Z-0.8371
 X31.3742 Z-0.7926
 X31.3618 Z-0.7716
 X31.3494 Z-0.7512
 X31.2502 Z-0.6091
 X31.2005 Z-0.5488
 X31.1509 Z-0.4941
 X31.0517 Z-0.3984
 X31.0021 Z-0.3563
 X30.9773 Z-0.3365
 X30.9525 Z-0.3175
 X30.8533 Z-0.2488
 X30.8037 Z-0.2185
 X30.7541 Z-0.1906
 X30.6549 Z-0.1414
 X30.6053 Z-0.1199
 X30.5805 Z-0.1099
 X30.5557 Z-0.1004
 X30.4565 Z-0.0671
 X30.4069 Z-0.0530
 X30.3573 Z-0.0407
 X30.2581 Z-0.0211
 X30.2085 Z-0.0137
 X30.1589 Z-0.0080
 X29.7621 Z0.0000
 X1.5875
 Y16.7981
 X29.9605
 X30.0597 Z-0.0011
 X30.1093 Z-0.0038
 X30.1341 Z-0.0057
 X30.1589 Z-0.0080
 X30.2581 Z-0.0211
 X30.3077 Z-0.0301
 X30.3573 Z-0.0407
 X30.4565 Z-0.0671
 X30.5061 Z-0.0828
 X30.5309 Z-0.0914
 X30.5557 Z-0.1004
 X30.6549 Z-0.1414
 X30.7045 Z-0.1649
 X30.7541 Z-0.1906
 X30.8533 Z-0.2488
 X30.9029 Z-0.2818
 X30.9277 Z-0.2993
 X30.9525 Z-0.3175
 X31.0517 Z-0.3984
 X31.1013 Z-0.4442
 X31.1261 Z-0.4686
 X31.1509 Z-0.4941
 X31.2005 Z-0.5488
 X31.2502 Z-0.6091
 X31.2998 Z-0.6760
 X31.3246 Z-0.7125
 X31.3370 Z-0.7315
 X31.3494 Z-0.7512
 X31.3990 Z-0.8371
 X31.4486 Z-0.9380
 X31.4734 Z-0.9964
 X31.4982 Z-1.0625
 X31.5478 Z-1.2346
 X31.5726 Z-1.3703
 X31.5850 Z-1.4979
 X31.5881 Z-6.0000
 X218.4026
 X218.4274 Z-1.3703
 X218.4398 Z-1.2942
 X218.4460 Z-1.2629
 X218.4522 Z-1.2346
 X218.5018 Z-1.0625
 X218.5266 Z-0.9964
 X218.5514 Z-0.9380
 X218.6010 Z-0.8371
 X218.6258 Z-0.7926
 X218.6382 Z-0.7716
 X218.6506 Z-0.7512
 X218.7498 Z-0.6091
 X218.7995 Z-0.5488
 X218.8491 Z-0.4941
 X218.9483 Z-0.3984
 X218.9979 Z-0.3563
 X219.0227 Z-0.3365
 X219.0475 Z-0.3175
 X219.1467 Z-0.2488
 X219.1963 Z-0.2185
 X219.2459 Z-0.1906
 X219.3451 Z-0.1414
 X219.3947 Z-0.1199
 X219.4195 Z-0.1099
 X219.4443 Z-0.1004
 X219.5435 Z-0.0671
 X219.5931 Z-0.0530
 X219.6427 Z-0.0407
 X219.7419 Z-0.0211
 X219.7915 Z-0.0137
 X219.8411 Z-0.0080
 X220.2379 Z0.0000
 X248.4125
 Y18.0656
 X220.0395
 X219.9403 Z-0.0011
 X219.8907 Z-0.0038
 X219.8659 Z-0.0057
 X219.8411 Z-0.0080
 X219.7419 Z-0.0211
 X219.6923 Z-0.0301
 X219.6427 Z-0.0407
 X219.5435 Z-0.0671
 X219.4939 Z-0.0828
 X219.4691 Z-0.0914
 X219.4443 Z-0.1004
 X219.3451 Z-0.1414
 X219.2955 Z-0.1649
 X219.2459 Z-0.1906
 X219.1467 Z-0.2488
 X219.0971 Z-0.2818
 X219.0723 Z-0.2993
 X219.0475 Z-0.3175
 X218.9483 Z-0.3984
 X218.8987 Z-0.4442
 X218.8739 Z-0.4686
 X218.8491 Z-0.4941
 X218.7995 Z-0.5488
 X218.7498 Z-0.6091
 X218.7002 Z-0.6760
 X218.6754 Z-0.7125
 X218.6630 Z-0.7315
 X218.6506 Z-0.7512
 X218.6010 Z-0.8371
 X218.5514 Z-0.9380
 X218.5266 Z-0.9964
 X218.5018 Z-1.0625
 X218.4522 Z-1.2346
 X218.4274 Z-1.3703
 X218.4150 Z-1.4979
 X218.4119 Z-6.0000
 X31.5974
 X31.5726 Z-1.3703
 X31.5602 Z-1.2942
 X31.5540 Z-1.2629
 X31.5478 Z-1.2346
 X31.4982 Z-1.0625
 X31.4734 Z-0.9964
 X31.4486 Z-0.9380
 X31.3990 Z-0.8371
 X31.3742 Z-0.7926
 X31.3618 Z-0.7716
 X31.3494 Z-0.7512
 X31.2502 Z-0.6091
 X31.2005 Z-0.5488
 X31.1509 Z-0.4941
 X31.0517 Z-0.3984
 X31.0021 Z-0.3563
 X30.9773 Z-0.3365
 X30.9525 Z-0.3175
 X30.8533 Z-0.2488
 X30.8037 Z-0.2185
 X30.7541 Z-0.1906
 X30.6549 Z-0.1414
 X30.6053 Z-0.1199
 X30.5805 Z-0.1099
 X30.5557 Z-0.1004
 X30.4565 Z-0.0671
 X30.4069 Z-0.0530
 X30.3573 Z-0.0407
 X30.2581 Z-0.0211
 X30.2085 Z-0.0137
 X30.1589 Z-0.0080
 X29.7621 Z0.0000
 X1.5875
 Y19.3332
 X29.9605
 X30.0597 Z-0.0011
 X30.1093 Z-0.0038
 X30.1341 Z-0.0057
 X30.1589 Z-0.0080
 X30.2581 Z-0.0211
 X30.3077 Z-0.0301
 X30.3573 Z-0.0407
 X30.4565 Z-0.0671
 X30.5061 Z-0.0828
 X30.5309 Z-0.0914
 X30.5557 Z-0.1004
 X30.6549 Z-0.1414
 X30.7045 Z-0.1649
 X30.7541 Z-0.1906
 X30.8533 Z-0.2488
 X30.9029 Z-0.2818
 X30.9277 Z-0.2993
 X30.9525 Z-0.3175
 X31.0517 Z-0.3984
 X31.1013 Z-0.4442
 X31.1261 Z-0.4686
 X31.1509 Z-0.4941
 X31.2005 Z-0.5488
 X31.2502 Z-0.6091
 X31.2998 Z-0.6760
 X31.3246 Z-0.7125
 X31.3370 Z-0.7315
 X31.3494 Z-0.7512
 X31.3990 Z-0.8371
 X31.4486 Z-0.9380
 X31.4734 Z-0.9964
 X31.4982 Z-1.0625
 X31.5478 Z-1.2346
 X31.5726 Z-1.3703
 X31.5850 Z-1.4979
 X31.5881 Z-6.0000
 X218.4026
 X218.4274 Z-1.3703
 X218.4398 Z-1.2942
 X218.4460 Z-1.2629
 X218.4522 Z-1.2346
 X218.5018 Z-1.0625
 X218.5266 Z-0.9964
 X218.5514 Z-0.9380
 X218.6010 Z-0.8371
 X218.6258 Z-0.7926
 X218.6382 Z-0.7716
 X218.6506 Z-0.7512
 X218.7498 Z-0.6091
 X218.7995 Z-0.5488
 X218.8491 Z-0.4941
 X218.9483 Z-0.3984
 X218.9979 Z-0.3563
 X219.0227 Z-0.3365
 X219.0475 Z-0.3175
 X219.1467 Z-0.2488
 X219.1963 Z-0.2185
 X219.2459 Z-0.1906
 X219.3451 Z-0.1414
 X219.3947 Z-0.1199
 X219.4195 Z-0.1099
 X219.4443 Z-0.1004
 X219.5435 Z-0.0671
 X219.5931 Z-0.0530
 X219.6427 Z-0.0407
 X219.7419 Z-0.0211
 X219.7915 Z-0.0137
 X219.8411 Z-0.0080
 X220.2379 Z0.0000
 X248.4125
 Y20.6007
 X220.0395
 X219.9403 Z-0.0011
 X219.8907 Z-0.0038
 X219.8659 Z-0.0057
 X219.8411 Z-0.0080
 X219.7419 Z-0.0211
 X219.6923 Z-0.0301
 X219.6427 Z-0.0407
 X219.5435 Z-0.0671
 X219.4939 Z-0.0828
 X219.4691 Z-0.0914
 X219.4443 Z-0.1004
 X219.3451 Z-0.1414
 X219.2955 Z-0.1649
 X219.2459 Z-0.1906
 X219.1467 Z-0.2488
 X219.0971 Z-0.2818
 X219.0723 Z-0.2993
 X219.0475 Z-0.3175
 X218.9483 Z-0.3984
 X218.8987 Z-0.4442
 X218.8739 Z-0.4686
 X218.8491 Z-0.4941
 X218.7995 Z-0.5488
 X218.7498 Z-0.6091
 X218.7002 Z-0.6760
 X218.6754 Z-0.7125
 X218.6630 Z-0.7315
 X218.6506 Z-0.7512
 X218.6010 Z-0.8371
 X218.5514 Z-0.9380
 X218.5266 Z-0.9964
 X218.5018 Z-1.0625
 X218.4522 Z-1.2346
 X218.4274 Z-1.3703
 X218.4150 Z-1.4979
 X218.4119 Z-6.0000
 X194.0971
 X194.0475
 X193.9483 Z-6.0034
 X193.8987 Z-6.0074
 X193.8491 Z-6.0130
 X193.7499 Z-6.0290
 X193.7003 Z-6.0394
 X193.6755 Z-6.0453
 X193.6507 Z-6.0516
 X193.2539 Z-6.2152
 X193.1547 Z-6.2779
 X193.1050 Z-6.3133
 X193.0926 Z-6.3227
 X193.0864 Z-6.3274
 X193.0833 Z-6.3298
 X193.0818 Z-6.3310
 X193.0802 Z-6.3322
 X193.0740 Z-6.3370
 X193.0709 Z-6.3394
 X193.0694 Z-6.3406
 X193.0686 Z-6.3412
 X193.0682 Z-6.3416
 X193.0680 Z-6.3417
 X193.0679 Z-6.3418
 X193.0678 Z-6.3419
 X193.0663 Z-6.3431
 X193.0655 Z-6.3437
 X193.0651 Z-6.3440
 X193.0649 Z-6.3442
 X193.0648
 Z-6.3443
 X193.0647
 X193.0640 Z-6.3449
 X193.0632 Z-6.3450
 X57.0438
 X56.9942 Z-6.3098
 X56.9446 Z-6.2747
 X56.8453 Z-6.2125
 X56.7957 Z-6.1850
 X56.7709 Z-6.1721
 X56.7461 Z-6.1598
 X56.6469 Z-6.1157
 X56.5973 Z-6.0966
 X56.5477 Z-6.0794
 X56.4485 Z-6.0503
 X56.3989 Z-6.0384
 X56.3493 Z-6.0281
 X55.9525 Z-6.0000
 X31.5974
 X31.5726 Z-1.3703
 X31.5602 Z-1.2942
 X31.5540 Z-1.2629
 X31.5478 Z-1.2346
 X31.4982 Z-1.0625
 X31.4734 Z-0.9964
 X31.4486 Z-0.9380
 X31.3990 Z-0.8371
 X31.3742 Z-0.7926
 X31.3618 Z-0.7716
 X31.3494 Z-0.7512
 X31.2502 Z-0.6091
 X31.2005 Z-0.5488
 X31.1509 Z-0.4941
 X31.0517 Z-0.3984
 X31.0021 Z-0.3563
 X30.9773 Z-0.3365
 X30.9525 Z-0.3175
 X30.8533 Z-0.2488
 X30.8037 Z-0.2185
 X30.7541 Z-0.1906
 X30.6549 Z-0.1414
 X30.6053 Z-0.1199
 X30.5805 Z-0.1099
 X30.5557 Z-0.1004
 X30.4565 Z-0.0671
 X30.4069 Z-0.0530
 X30.3573 Z-0.0407
 X30.2581 Z-0.0211
 X30.2085 Z-0.0137
 X30.1589 Z-0.0080
 X29.7621 Z0.0000
 X1.5875
 Y21.8683
 X29.9605
 X30.0597 Z-0.0011
 X30.1093 Z-0.0038
 X30.1341 Z-0.0057
 X30.1589 Z-0.0080
 X30.2581 Z-0.0211
 X30.3077 Z-0.0301
 X30.3573 Z-0.0407
 X30.4565 Z-0.0671
 X30.5061 Z-0.0828
 X30.5309 Z-0.0914
 X30.5557 Z-0.1004
 X30.6549 Z-0.1414
 X30.7045 Z-0.1649
 X30.7541 Z-0.1906
 X30.8533 Z-0.2488
 X30.9029 Z-0.2818
 X30.9277 Z-0.2993
 X30.9525 Z-0.3175
 X31.0517 Z-0.3984
 X31.1013 Z-0.4442
 X31.1261 Z-0.4686
 X31.1509 Z-0.4941
 X31.2005 Z-0.5488
 X31.2502 Z-0.6091
 X31.2998 Z-0.6760
 X31.3246 Z-0.7125
 X31.3370 Z-0.7315
 X31.3494 Z-0.7512
 X31.3990 Z-0.8371
 X31.4486 Z-0.9380
 X31.4734 Z-0.9964
 X31.4982 Z-1.0625
 X31.5478 Z-1.2346
 X31.5726 Z-1.3703
 X31.5850 Z-1.4979
 X31.5881 Z-6.0000
 X56.0517
 X56.1509 Z-6.0031
 X56.2501 Z-6.0124
 X56.2997 Z-6.0194
 X56.3245 Z-6.0236
 X56.3493 Z-6.0281
 X56.4485 Z-6.0503
 X56.4981 Z-6.0640
 X56.5477 Z-6.0794
 X56.6469 Z-6.1157
 X56.6965 Z-6.1367
 X56.7213 Z-6.1480
 X56.7461 Z-6.1598
 X56.8453 Z-6.2125
 X56.8950 Z-6.2423
 X56.9446 Z-6.2747
 X57.0438 Z-6.3479
 X57.0934 Z-6.3893
 X57.1182 Z-6.4113
 X57.1306 Z-6.4227
 X57.1430 Z-6.4343
 X57.2422 Z-6.5370
 X57.2918 Z-6.5960
 X57.3166 Z-6.6278
 X57.3414 Z-6.6614
 X57.3910 Z-6.7347
 X57.4158 Z-6.7749
 X57.4406 Z-6.8181
 X57.4902 Z-6.9154
 X57.5398 Z-7.0338
 X57.6390 Z-7.5475
 X57.6452 Z-19.0000
 X192.4602
 X192.5594 Z-7.0468
 X192.6090 Z-6.9257
 X192.6338 Z-6.8741
 X192.6586 Z-6.8268
 X192.7082 Z-6.7422
 X192.7578 Z-6.6681
 X192.8074 Z-6.6020
 X192.8322 Z-6.5715
 X192.8570 Z-6.5424
 X192.9562 Z-6.4388
 X193.0058 Z-6.3935
 X193.0554 Z-6.3518
 X193.1547 Z-6.2779
 X193.2043 Z-6.2453
 X193.2291 Z-6.2300
 X193.2539 Z-6.2152
 X193.3531 Z-6.1621
 X193.4027 Z-6.1389
 X193.4523 Z-6.1176
 X193.5515 Z-6.0810
 X193.6011 Z-6.0654
 X193.6259 Z-6.0583
 X193.6507 Z-6.0516
 X193.7499 Z-6.0290
 X193.8491 Z-6.0130
 X194.0475 Z-6.0000
 X194.4443
 X218.4026
 X218.4274 Z-1.3703
 X218.4398 Z-1.2942
 X218.4460 Z-1.2629
 X218.4522 Z-1.2346
 X218.5018 Z-1.0625
 X218.5266 Z-0.9964
 X218.5514 Z-0.9380
 X218.6010 Z-0.8371
 X218.6258 Z-0.7926
 X218.6382 Z-0.7716
 X218.6506 Z-0.7512
 X218.7498 Z-0.6091
 X218.7995 Z-0.5488
 X218.8491 Z-0.4941
 X218.9483 Z-0.3984
 X218.9979 Z-0.3563
 X219.0227 Z-0.3365
 X219.0475 Z-0.3175
 X219.1467 Z-0.2488
 X219.1963 Z-0.2185
 X219.2459 Z-0.1906
 X219.3451 Z-0.1414
 X219.3947 Z-0.1199
 X219.4195 Z-0.1099
 X219.4443 Z-0.1004
 X219.5435 Z-0.0671
 X219.5931 Z-0.0530
 X219.6427 Z-0.0407
 X219.7419 Z-0.0211
 X219.7915 Z-0.0137
 X219.8411 Z-0.0080
 X220.2379 Z0.0000
 X248.4125
 Y23.1358
 X220.0395
 X219.9403 Z-0.0011
 X219.8907 Z-0.0038
 X219.8659 Z-0.0057
 X219.8411 Z-0.0080
 X219.7419 Z-0.0211
 X219.6923 Z-0.0301
 X219.6427 Z-0.0407
 X219.5435 Z-0.0671
 X219.4939 Z-0.0828
 X219.4691 Z-0.0914
 X219.4443 Z-0.1004
 X219.3451 Z-0.1414
 X219.2955 Z-0.1649
 X219.2459 Z-0.1906
 X219.1467 Z-0.2488
 X219.0971 Z-0.2818
 X219.0723 Z-0.2993
 X219.0475 Z-0.3175
 X218.9483 Z-0.3984
 X218.8987 Z-0.4442
 X218.8739 Z-0.4686
 X218.8491 Z-0.4941
 X218.7995 Z-0.5488
 X218.7498 Z-0.6091
 X218.7002 Z-0.6760
 X218.6754 Z-0.7125
 X218.6630 Z-0.7315
 X218.6506 Z-0.7512
 X218.6010 Z-0.8371
 X218.5514 Z-0.9380
 X218.5266 Z-0.9964
 X218.5018 Z-1.0625
 X218.4522 Z-1.2346
 X218.4274 Z-1.3703
 X218.4150 Z-1.4979
 X218.4119 Z-6.0000
 X194.0971
 X194.0475
 X193.9483 Z-6.0034
 X193.8987 Z-6.0074
 X193.8491 Z-6.0130
 X193.7499 Z-6.0290
 X193.7003 Z-6.0394
 X193.6755 Z-6.0453
 X193.6507 Z-6.0516
 X193.5515 Z-6.0810
 X193.5019 Z-6.0984
 X193.4523 Z-6.1176
 X193.3531 Z-6.1621
 X193.3035 Z-6.1875
 X193.2787 Z-6.2011
 X193.2539 Z-6.2152
 X193.1547 Z-6.2779
 X193.1050 Z-6.3133
 X193.0554 Z-6.3518
 X192.9562 Z-6.4388
 X192.9066 Z-6.4883
 X192.8818 Z-6.5147
 X192.8570 Z-6.5424
 X192.7578 Z-6.6681
 X192.7082 Z-6.7422
 X192.6834 Z-6.7830
 X192.6586 Z-6.8268
 X192.6090 Z-6.9257
 X192.5594 Z-7.0468
 X192.5098 Z-7.2109
 X192.4850 Z-7.3331
 X192.4726 Z-7.4271
 X192.4664 Z-7.5095
 X192.4633 Z-19.0000
 X57.7382
 X57.6390 Z-7.5475
 X57.6142 Z-7.3052
 X57.6018 Z-7.2436
 X57.5894 Z-7.1918
 X57.5646 Z-7.1056
 X57.5522 Z-7.0683
 X57.5460 Z-7.0507
 X57.5398 Z-7.0338
 X57.4902 Z-6.9154
 X57.4406 Z-6.8181
 X57.3910 Z-6.7347
 X57.3662 Z-6.6969
 X57.3414 Z-6.6614
 X57.2918 Z-6.5960
 X57.2422 Z-6.5370
 X57.1926 Z-6.4833
 X57.1678 Z-6.4582
 X57.1430 Z-6.4343
 X57.0438 Z-6.3479
 X56.9942 Z-6.3098
 X56.9446 Z-6.2747
 X56.8453 Z-6.2125
 X56.7957 Z-6.1850
 X56.7709 Z-6.1721
 X56.7461 Z-6.1598
 X56.6469 Z-6.1157
 X56.5973 Z-6.0966
 X56.5477 Z-6.0794
 X56.4485 Z-6.0503
 X56.3989 Z-6.0384
 X56.3493 Z-6.0281
 X55.9525 Z-6.0000
 X31.5974
 X31.5726 Z-1.3703
 X31.5602 Z-1.2942
 X31.5540 Z-1.2629
 X31.5478 Z-1.2346
 X31.4982 Z-1.0625
 X31.4734 Z-0.9964
 X31.4486 Z-0.9380
 X31.3990 Z-0.8371
 X31.3742 Z-0.7926
 X31.3618 Z-0.7716
 X31.3494 Z-0.7512
 X31.2502 Z-0.6091
 X31.2005 Z-0.5488
 X31.1509 Z-0.4941
 X31.0517 Z-0.3984
 X31.0021 Z-0.3563
 X30.9773 Z-0.3365
 X30.9525 Z-0.3175
 X30.8533 Z-0.2488
 X30.8037 Z-0.2185
 X30.7541 Z-0.1906
 X30.6549 Z-0.1414
 X30.6053 Z-0.1199
 X30.5805 Z-0.1099
 X30.5557 Z-0.1004
 X30.4565 Z-0.0671
 X30.4069 Z-0.0530
 X30.3573 Z-0.0407
 X30.2581 Z-0.0211
 X30.2085 Z-0.0137
 X30.1589 Z-0.0080
 X29.7621 Z0.0000
 X1.5875
 Y24.4034
 X29.9605
 X30.0597 Z-0.0011
 X30.1093 Z-0.0038
 X30.1341 Z-0.0057
 X30.1589 Z-0.0080
 X30.2581 Z-0.0211
 X30.3077 Z-0.0301
 X30.3573 Z-0.0407
 X30.4565 Z-0.0671
 X30.5061 Z-0.0828
 X30.5309 Z-0.0914
 X30.5557 Z-0.1004
 X30.6549 Z-0.1414
 X30.7045 Z-0.1649
 X30.7541 Z-0.1906
 X30.8533 Z-0.2488
 X30.9029 Z-0.2818
 X30.9277 Z-0.2993
 X30.9525 Z-0.3175
 X31.0517 Z-0.3984
 X31.1013 Z-0.4442
 X31.1261 Z-0.4686
 X31.1509 Z-0.4941
 X31.2005 Z-0.5488
 X31.2502 Z-0.6091
 X31.2998 Z-0.6760
 X31.3246 Z-0.7125
 X31.3370 Z-0.7315
 X31.3494 Z-0.7512
 X31.3990 Z-0.8371
 X31.4486 Z-0.9380
 X31.4734 Z-0.9964
 X31.4982 Z-1.0625
 X31.5478 Z-1.2346
 X31.5726 Z-1.3703
 X31.5850 Z-1.4979
 X31.5881 Z-6.0000
 X56.0517
 X56.1509 Z-6.0031
 X56.2501 Z-6.0124
 X56.2997 Z-6.0194
 X56.3245 Z-6.0236
 X56.3493 Z-6.0281
 X56.4485 Z-6.0503
 X56.4981 Z-6.0640
 X56.5477 Z-6.0794
 X56.6469 Z-6.1157
 X56.6965 Z-6.1367
 X56.7213 Z-6.1480
 X56.7461 Z-6.1598
 X56.8453 Z-6.2125
 X56.8950 Z-6.2423
 X56.9446 Z-6.2747
 X57.0438 Z-6.3479
 X57.0934 Z-6.3893
 X57.1182 Z-6.4113
 X57.1306 Z-6.4227
 X57.1368 Z-6.4284
 X57.1399 Z-6.4313
 X57.1414 Z-6.4328
 X57.1430 Z-6.4343
 X57.1926 Z-6.4833
 X57.2174 Z-6.5095
 X57.2298 Z-6.5231
 X57.2360 Z-6.5300
 X57.2391 Z-6.5335
 X57.2406 Z-6.5352
 X57.2414 Z-6.5361
 X57.2418 Z-6.5365
 X57.2422 Z-6.5370
 X57.2546 Z-6.5512
 X57.2577 Z-6.5548
 X57.2592 Z-6.5566
 X57.2600 Z-6.5575
 X57.2604 Z-6.5580
 X57.2606 Z-6.5582
 X57.2607 Z-6.5583
 Z-6.5584
 X57.2608
 X57.2670 Z-6.5590
 X192.8322
 X192.8570 Z-6.5424
 X192.9562 Z-6.4388
 X193.0058 Z-6.3935
 X193.0554 Z-6.3518
 X193.1547 Z-6.2779
 X193.2043 Z-6.2453
 X193.2291 Z-6.2300
 X193.2539 Z-6.2152
 X193.3531 Z-6.1621
 X193.4027 Z-6.1389
 X193.4523 Z-6.1176
 X193.5515 Z-6.0810
 X193.6011 Z-6.0654
 X193.6259 Z-6.0583
 X193.6507 Z-6.0516
 X193.7499 Z-6.0290
 X193.8491 Z-6.0130
 X194.0475 Z-6.0000
 X194.4443
 X218.4026
 X218.4274 Z-1.3703
 X218.4398 Z-1.2942
 X218.4460 Z-1.2629
 X218.4522 Z-1.2346
 X218.5018 Z-1.0625
 X218.5266 Z-0.9964
 X218.5514 Z-0.9380
 X218.6010 Z-0.8371
 X218.6258 Z-0.7926
 X218.6382 Z-0.7716
 X218.6506 Z-0.7512
 X218.7498 Z-0.6091
 X218.7995 Z-0.5488
 X218.8491 Z-0.4941
 X218.9483 Z-0.3984
 X218.9979 Z-0.3563
 X219.0227 Z-0.3365
 X219.0475 Z-0.3175
 X219.1467 Z-0.2488
 X219.1963 Z-0.2185
 X219.2459 Z-0.1906
 X219.3451 Z-0.1414
 X219.3947 Z-0.1199
 X219.4195 Z-0.1099
 X219.4443 Z-0.1004
 X219.5435 Z-0.0671
 X219.5931 Z-0.0530
 X219.6427 Z-0.0407
 X219.7419 Z-0.0211
 X219.7915 Z-0.0137
 X219.8411 Z-0.0080
 X220.2379 Z0.0000
 X248.4125
 Y25.6709
 X220.0395
 X219.9403 Z-0.0011
 X219.8907 Z-0.0038
 X219.8659 Z-0.0057
 X219.8411 Z-0.0080
 X219.7419 Z-0.0211
 X219.6923 Z-0.0301
 X219.6427 Z-0.0407
 X219.5435 Z-0.0671
 X219.4939 Z-0.0828
 X219.4691 Z-0.0914
 X219.4443 Z-0.1004
 X219.3451 Z-0.1414
 X219.2955 Z-0.1649
 X219.2459 Z-0.1906
 X219.1467 Z-0.2488
 X219.0971 Z-0.2818
 X219.0723 Z-0.2993
 X219.0475 Z-0.3175
 X218.9483 Z-0.3984
 X218.8987 Z-0.4442
 X218.8739 Z-0.4686
 X218.8491 Z-0.4941
 X218.7995 Z-0.5488
 X218.7498 Z-0.6091
 X218.7002 Z-0.6760
 X218.6754 Z-0.7125
 X218.6630 Z-0.7315
 X218.6506 Z-0.7512
 X218.6010 Z-0.8371
 X218.5514 Z-0.9380
 X218.5266 Z-0.9964
 X218.5018 Z-1.0625
 X218.4522 Z-1.2346
 X218.4274 Z-1.3703
 X218.4150 Z-1.4979
 X218.4119 Z-6.0000
 X31.5974
 X31.5726 Z-1.3703
 X31.5602 Z-1.2942
 X31.5540 Z-1.2629
 X31.5478 Z-1.2346
 X31.4982 Z-1.0625
 X31.4734 Z-0.9964
 X31.4486 Z-0.9380
 X31.3990 Z-0.8371
 X31.3742 Z-0.7926
 X31.3618 Z-0.7716
 X31.3494 Z-0.7512
 X31.2502 Z-0.6091
 X31.2005 Z-0.5488
 X31.1509 Z-0.4941
 X31.0517 Z-0.3984
 X31.0021 Z-0.3563
 X30.9773 Z-0.3365
 X30.9525 Z-0.3175
 X30.8533 Z-0.2488
 X30.8037 Z-0.2185
 X30.7541 Z-0.1906
 X30.6549 Z-0.1414
 X30.6053 Z-0.1199
 X30.5805 Z-0.1099
 X30.5557 Z-0.1004
 X30.4565 Z-0.0671
 X30.4069 Z-0.0530
 X30.3573 Z-0.0407
 X30.2581 Z-0.0211
 X30.2085 Z-0.0137
 X30.1589 Z-0.0080
 X29.7621 Z0.0000
 X1.5875
 Y26.9385
 X29.9605
 X30.0597 Z-0.0011
 X30.1093 Z-0.0038
 X30.1341 Z-0.0057
 X30.1589 Z-0.0080
 X30.2581 Z-0.0211
 X30.3077 Z-0.0301
 X30.3573 Z-0.0407
 X30.4565 Z-0.0671
 X30.5061 Z-0.0828
 X30.5309 Z-0.0914
 X30.5557 Z-0.1004
 X30.6549 Z-0.1414
 X30.7045 Z-0.1649
 X30.7541 Z-0.1906
 X30.8533 Z-0.2488
 X30.9029 Z-0.2818
 X30.9277 Z-0.2993
 X30.9525 Z-0.3175
 X31.0517 Z-0.3984
 X31.1013 Z-0.4442
 X31.1261 Z-0.4686
 X31.1509 Z-0.4941
 X31.2005 Z-0.5488
 X31.2502 Z-0.6091
 X31.2998 Z-0.6760
 X31.3246 Z-0.7125
 X31.3370 Z-0.7315
 X31.3494 Z-0.7512
 X31.3990 Z-0.8371
 X31.4486 Z-0.9380
 X31.4734 Z-0.9964
 X31.4982 Z-1.0625
 X31.5478 Z-1.2346
 X31.5726 Z-1.3703
 X31.5850 Z-1.4979
 X31.5881 Z-6.0000
 X218.4026
 X218.4274 Z-1.3703
 X218.4398 Z-1.2942
 X218.4460 Z-1.2629
 X218.4522 Z-1.2346
 X218.5018 Z-1.0625
 X218.5266 Z-0.9964
 X218.5514 Z-0.9380
 X218.6010 Z-0.8371
 X218.6258 Z-0.7926
 X218.6382 Z-0.7716
 X218.6506 Z-0.7512
 X218.7498 Z-0.6091
 X218.7995 Z-0.5488
 X218.8491 Z-0.4941
 X218.9483 Z-0.3984
 X218.9979 Z-0.3563
 X219.0227 Z-0.3365
 X219.0475 Z-0.3175
 X219.1467 Z-0.2488
 X219.1963 Z-0.2185
 X219.2459 Z-0.1906
 X219.3451 Z-0.1414
 X219.3947 Z-0.1199
 X219.4195 Z-0.1099
 X219.4443 Z-0.1004
 X219.5435 Z-0.0671
 X219.5931 Z-0.0530
 X219.6427 Z-0.0407
 X219.7419 Z-0.0211
 X219.7915 Z-0.0137
 X219.8411 Z-0.0080
 X220.2379 Z0.0000
 X248.4125
 Y28.2060
 X220.0395
 X219.9403 Z-0.0011
 X219.8907 Z-0.0038
 X219.8659 Z-0.0057
 X219.8411 Z-0.0080
 X219.7419 Z-0.0211
 X219.6923 Z-0.0301
 X219.6427 Z-0.0407
 X219.5435 Z-0.0671
 X219.4939 Z-0.0828
 X219.4691 Z-0.0914
 X219.4443 Z-0.1004
 X219.3451 Z-0.1414
 X219.2955 Z-0.1649
 X219.2459 Z-0.1906
 X219.1467 Z-0.2488
 X219.0971 Z-0.2818
 X219.0723 Z-0.2993
 X219.0475 Z-0.3175
 X218.9483 Z-0.3984
 X218.8987 Z-0.4442
 X218.8739 Z-0.4686
 X218.8491 Z-0.4941
 X218.7995 Z-0.5488
 X218.7498 Z-0.6091
 X218.7002 Z-0.6760
 X218.6754 Z-0.7125
 X218.6630 Z-0.7315
 X218.6506 Z-0.7512
 X218.6010 Z-0.8371
 X218.5514 Z-0.9380
 X218.5266 Z-0.9964
 X218.5018 Z-1.0625
 X218.4522 Z-1.2346
 X218.4274 Z-1.3703
 X218.4150 Z-1.4979
 X218.4119 Z-6.0000
 X31.5974
 X31.5726 Z-1.3703
 X31.5602 Z-1.2942
 X31.5540 Z-1.2629
 X31.5478 Z-1.2346
 X31.4982 Z-1.0625
 X31.4734 Z-0.9964
 X31.4486 Z-0.9380
 X31.3990 Z-0.8371
 X31.3742 Z-0.7926
 X31.3618 Z-0.7716
 X31.3494 Z-0.7512
 X31.2502 Z-0.6091
 X31.2005 Z-0.5488
 X31.1509 Z-0.4941
 X31.0517 Z-0.3984
 X31.0021 Z-0.3563
 X30.9773 Z-0.3365
 X30.9525 Z-0.3175
 X30.8533 Z-0.2488
 X30.8037 Z-0.2185
 X30.7541 Z-0.1906
 X30.6549 Z-0.1414
 X30.6053 Z-0.1199
 X30.5805 Z-0.1099
 X30.5557 Z-0.1004
 X30.4565 Z-0.0671
 X30.4069 Z-0.0530
 X30.3573 Z-0.0407
 X30.2581 Z-0.0211
 X30.2085 Z-0.0137
 X30.1589 Z-0.0080
 X29.7621 Z0.0000
 X1.5875
 Y29.4736
 X29.9605
 X30.0597 Z-0.0011
 X30.1093 Z-0.0038
 X30.1341 Z-0.0057
 X30.1589 Z-0.0080
 X30.2581 Z-0.0211
 X30.3077 Z-0.0301
 X30.3573 Z-0.0407
 X30.4565 Z-0.0671
 X30.5061 Z-0.0828
 X30.5309 Z-0.0914
 X30.5557 Z-0.1004
 X30.6549 Z-0.1414
 X30.7045 Z-0.1649
 X30.7541 Z-0.1906
 X30.8533 Z-0.2488
 X30.9029 Z-0.2818
 X30.9277 Z-0.2993
 X30.9525 Z-0.3175
 X31.0517 Z-0.3984
 X31.1013 Z-0.4442
 X31.1261 Z-0.4686
 X31.1509 Z-0.4941
 X31.2005 Z-0.5488
 X31.2502 Z-0.6091
 X31.2998 Z-0.6760
 X31.3246 Z-0.7125
 X31.3370 Z-0.7315
 X31.3494 Z-0.7512
 X31.3990 Z-0.8371
 X31.4486 Z-0.9380
 X31.4734 Z-0.9964
 X31.4982 Z-1.0625
 X31.5478 Z-1.2346
 X31.5726 Z-1.3703
 X31.5850 Z-1.4979
 X31.5881 Z-6.0000
 X218.4026
 X218.4274 Z-1.3703
 X218.4398 Z-1.2942
 X218.4460 Z-1.2629
 X218.4522 Z-1.2346
 X218.5018 Z-1.0625
 X218.5266 Z-0.9964
 X218.5514 Z-0.9380
 X218.6010 Z-0.8371
 X218.6258 Z-0.7926
 X218.6382 Z-0.7716
 X218.6506 Z-0.7512
 X218.7498 Z-0.6091
 X218.7995 Z-0.5488
 X218.8491 Z-0.4941
 X218.9483 Z-0.3984
 X218.9979 Z-0.3563
 X219.0227 Z-0.3365
 X219.0475 Z-0.3175
 X219.1467 Z-0.2488
 X219.1963 Z-0.2185
 X219.2459 Z-0.1906
 X219.3451 Z-0.1414
 X219.3947 Z-0.1199
 X219.4195 Z-0.1099
 X219.4443 Z-0.1004
 X219.5435 Z-0.0671
 X219.5931 Z-0.0530
 X219.6427 Z-0.0407
 X219.7419 Z-0.0211
 X219.7915 Z-0.0137
 X219.8411 Z-0.0080
 X220.2379 Z0.0000
 X248.4125
 Y30.7411
 X220.0395
 X219.9403 Z-0.0011
 X219.8907 Z-0.0038
 X219.8659 Z-0.0057
 X219.8411 Z-0.0080
 X219.7419 Z-0.0211
 X219.6923 Z-0.0301
 X219.6427 Z-0.0407
 X219.5435 Z-0.0671
 X219.4939 Z-0.0828
 X219.4691 Z-0.0914
 X219.4443 Z-0.1004
 X219.3451 Z-0.1414
 X219.2955 Z-0.1649
 X219.2459 Z-0.1906
 X219.1467 Z-0.2488
 X219.0971 Z-0.2818
 X219.0723 Z-0.2993
 X219.0475 Z-0.3175
 X218.9483 Z-0.3984
 X218.8987 Z-0.4442
 X218.8739 Z-0.4686
 X218.8491 Z-0.4941
 X218.7995 Z-0.5488
 X218.7498 Z-0.6091
 X218.7002 Z-0.6760
 X218.6754 Z-0.7125
 X218.6630 Z-0.7315
 X218.6506 Z-0.7512
 X218.6010 Z-0.8371
 X218.5514 Z-0.9380
 X218.5266 Z-0.9964
 X218.5018 Z-1.0625
 X218.4522 Z-1.2346
 X218.4274 Z-1.3703
 X218.4150 Z-1.4979
 X218.4119 Z-6.0000
 X31.5974
 X31.5726 Z-1.3703
 X31.5602 Z-1.2942
 X31.5540 Z-1.2629
 X31.5478 Z-1.2346
 X31.4982 Z-1.0625
 X31.4734 Z-0.9964
 X31.4486 Z-0.9380
 X31.3990 Z-0.8371
 X31.3742 Z-0.7926
 X31.3618 Z-0.7716
 X31.3494 Z-0.7512
 X31.2502 Z-0.6091
 X31.2005 Z-0.5488
 X31.1509 Z-0.4941
 X31.0517 Z-0.3984
 X31.0021 Z-0.3563
 X30.9773 Z-0.3365
 X30.9525 Z-0.3175
 X30.8533 Z-0.2488
 X30.8037 Z-0.2185
 X30.7541 Z-0.1906
 X30.6549 Z-0.1414
 X30.6053 Z-0.1199
 X30.5805 Z-0.1099
 X30.5557 Z-0.1004
 X30.4565 Z-0.0671
 X30.4069 Z-0.0530
 X30.3573 Z-0.0407
 X30.2581 Z-0.0211
 X30.2085 Z-0.0137
 X30.1589 Z-0.0080
 X29.7621 Z0.0000
 X1.5875
 Y32.0087
 X29.9605
 X30.0597 Z-0.0011
 X30.1093 Z-0.0038
 X30.1341 Z-0.0057
 X30.1589 Z-0.0080
 X30.2581 Z-0.0211
 X30.3077 Z-0.0301
 X30.3573 Z-0.0407
 X30.4565 Z-0.0671
 X30.5061 Z-0.0828
 X30.5309 Z-0.0914
 X30.5557 Z-0.1004
 X30.6549 Z-0.1414
 X30.7045 Z-0.1649
 X30.7541 Z-0.1906
 X30.8533 Z-0.2488
 X30.9029 Z-0.2818
 X30.9277 Z-0.2993
 X30.9525 Z-0.3175
 X31.0517 Z-0.3984
 X31.1013 Z-0.4442
 X31.1261 Z-0.4686
 X31.1509 Z-0.4941
 X31.2005 Z-0.5488
 X31.2502 Z-0.6091
 X31.2998 Z-0.6760
 X31.3246 Z-0.7125
 X31.3370 Z-0.7315
 X31.3494 Z-0.7512
 X31.3990 Z-0.8371
 X31.4486 Z-0.9380
 X31.4734 Z-0.9964
 X31.4982 Z-1.0625
 X31.5478 Z-1.2346
 X31.5726 Z-1.3703
 X31.5850 Z-1.4979
 X31.5881 Z-6.0000
 X218.4026
 X218.4274 Z-1.3703
 X218.4398 Z-1.2942
 X218.4460 Z-1.2629
 X218.4522 Z-1.2346
 X218.5018 Z-1.0625
 X218.5266 Z-0.9964
 X218.5514 Z-0.9380
 X218.6010 Z-0.8371
 X218.6258 Z-0.7926
 X218.6382 Z-0.7716
 X218.6506 Z-0.7512
 X218.7498 Z-0.6091
 X218.7995 Z-0.5488
 X218.8491 Z-0.4941
 X218.9483 Z-0.3984
 X218.9979 Z-0.3563
 X219.0227 Z-0.3365
 X219.0475 Z-0.3175
 X219.1467 Z-0.2488
 X219.1963 Z-0.2185
 X219.2459 Z-0.1906
 X219.3451 Z-0.1414
 X219.3947 Z-0.1199
 X219.4195 Z-0.1099
 X219.4443 Z-0.1004
 X219.5435 Z-0.0671
 X219.5931 Z-0.0530
 X219.6427 Z-0.0407
 X219.7419 Z-0.0211
 X219.7915 Z-0.0137
 X219.8411 Z-0.0080
 X220.2379 Z0.0000
 X248.4125
 Y33.2762
 X220.0395
 X219.9403 Z-0.0011
 X219.8907 Z-0.0038
 X219.8659 Z-0.0057
 X219.8411 Z-0.0080
 X219.7419 Z-0.0211
 X219.6923 Z-0.0301
 X219.6427 Z-0.0407
 X219.5435 Z-0.0671
 X219.4939 Z-0.0828
 X219.4691 Z-0.0914
 X219.4443 Z-0.1004
 X219.3451 Z-0.1414
 X219.2955 Z-0.1649
 X219.2459 Z-0.1906
 X219.1467 Z-0.2488
 X219.0971 Z-0.2818
 X219.0723 Z-0.2993
 X219.0475 Z-0.3175
 X218.9483 Z-0.3984
 X218.8987 Z-0.4442
 X218.8739 Z-0.4686
 X218.8491 Z-0.4941
 X218.7995 Z-0.5488
 X218.7498 Z-0.6091
 X218.7002 Z-0.6760
 X218.6754 Z-0.7125
 X218.6630 Z-0.7315
 X218.6506 Z-0.7512
 X218.6010 Z-0.8371
 X218.5514 Z-0.9380
 X218.5266 Z-0.9964
 X218.5018 Z-1.0625
 X218.4522 Z-1.2346
 X218.4274 Z-1.3703
 X218.4150 Z-1.4979
 X218.4119 Z-6.0000
 X31.5974
 X31.5726 Z-1.3703
 X31.5602 Z-1.2942
 X31.5540 Z-1.2629
 X31.5478 Z-1.2346
 X31.4982 Z-1.0625
 X31.4734 Z-0.9964
 X31.4486 Z-0.9380
 X31.3990 Z-0.8371
 X31.3742 Z-0.7926
 X31.3618 Z-0.7716
 X31.3494 Z-0.7512
 X31.2502 Z-0.6091
 X31.2005 Z-0.5488
 X31.1509 Z-0.4941
 X31.0517 Z-0.3984
 X31.0021 Z-0.3563
 X30.9773 Z-0.3365
 X30.9525 Z-0.3175
 X30.8533 Z-0.2488
 X30.8037 Z-0.2185
 X30.7541 Z-0.1906
 X30.6549 Z-0.1414
 X30.6053 Z-0.1199
 X30.5805 Z-0.1099
 X30.5557 Z-0.1004
 X30.4565 Z-0.0671
 X30.4069 Z-0.0530
 X30.3573 Z-0.0407
 X30.2581 Z-0.0211
 X30.2085 Z-0.0137
 X30.1589 Z-0.0080
 X29.7621 Z0.0000
 X1.5875
 Y34.5437
 X29.9605
 X30.0597 Z-0.0011
 X30.1093 Z-0.0038
 X30.1341 Z-0.0057
 X30.1589 Z-0.0080
 X30.2581 Z-0.0211
 X30.3077 Z-0.0301
 X30.3573 Z-0.0407
 X30.4565 Z-0.0671
 X30.5061 Z-0.0828
 X30.5309 Z-0.0914
 X30.5557 Z-0.1004
 X30.6549 Z-0.1414
 X30.7045 Z-0.1649
 X30.7541 Z-0.1906
 X30.8533 Z-0.2488
 X30.9029 Z-0.2818
 X30.9277 Z-0.2993
 X30.9525 Z-0.3175
 X31.0517 Z-0.3984
 X31.1013 Z-0.4442
 X31.1261 Z-0.4686
 X31.1509 Z-0.4941
 X31.2005 Z-0.5488
 X31.2502 Z-0.6091
 X31.2998 Z-0.6760
 X31.3246 Z-0.7125
 X31.3370 Z-0.7315
 X31.3494 Z-0.7512
 X31.3990 Z-0.8371
 X31.4486 Z-0.9380
 X31.4734 Z-0.9964
 X31.4982 Z-1.0625
 X31.5478 Z-1.2346
 X31.5726 Z-1.3703
 X31.5850 Z-1.4979
 X31.5881 Z-6.0000
 X218.4026
 X218.4274 Z-1.3703
 X218.4398 Z-1.2942
 X218.4460 Z-1.2629
 X218.4522 Z-1.2346
 X218.5018 Z-1.0625
 X218.5266 Z-0.9964
 X218.5514 Z-0.9380
 X218.6010 Z-0.8371
 X218.6258 Z-0.7926
 X218.6382 Z-0.7716
 X218.6506 Z-0.7512
 X218.7498 Z-0.6091
 X218.7995 Z-0.5488
 X218.8491 Z-0.4941
 X218.9483 Z-0.3984
 X218.9979 Z-0.3563
 X219.0227 Z-0.3365
 X219.0475 Z-0.3175
 X219.1467 Z-0.2488
 X219.1963 Z-0.2185
 X219.2459 Z-0.1906
 X219.3451 Z-0.1414
 X219.3947 Z-0.1199
 X219.4195 Z-0.1099
 X219.4443 Z-0.1004
 X219.5435 Z-0.0671
 X219.5931 Z-0.0530
 X219.6427 Z-0.0407
 X219.7419 Z-0.0211
 X219.7915 Z-0.0137
 X219.8411 Z-0.0080
 X220.2379 Z0.0000
 X248.4125
 Y35.8113
 X220.0395
 X219.9403 Z-0.0011
 X219.8907 Z-0.0038
 X219.8659 Z-0.0057
 X219.8411 Z-0.0080
 X219.7419 Z-0.0211
 X219.6923 Z-0.0301
 X219.6427 Z-0.0407
 X219.5435 Z-0.0671
 X219.4939 Z-0.0828
 X219.4691 Z-0.0914
 X219.4443 Z-0.1004
 X219.3451 Z-0.1414
 X219.2955 Z-0.1649
 X219.2459 Z-0.1906
 X219.1467 Z-0.2488
 X219.0971 Z-0.2818
 X219.0723 Z-0.2993
 X219.0475 Z-0.3175
 X218.9483 Z-0.3984
 X218.8987 Z-0.4442
 X218.8739 Z-0.4686
 X218.8491 Z-0.4941
 X218.7995 Z-0.5488
 X218.7498 Z-0.6091
 X218.7002 Z-0.6760
 X218.6754 Z-0.7125
 X218.6630 Z-0.7315
 X218.6506 Z-0.7512
 X218.6010 Z-0.8371
 X218.5514 Z-0.9380
 X218.5266 Z-0.9964
 X218.5018 Z-1.0625
 X218.4522 Z-1.2346
 X218.4274 Z-1.3703
 X218.4150 Z-1.4979
 X218.4119 Z-6.0000
 X194.0971
 X194.0475
 X193.9483 Z-6.0034
 X193.8987 Z-6.0074
 X193.8491 Z-6.0130
 X193.7499 Z-6.0290
 X193.7003 Z-6.0394
 X193.6755 Z-6.0453
 X193.6507 Z-6.0516
 X193.5515 Z-6.0810
 X193.5019 Z-6.0984
 X193.4523 Z-6.1176
 X193.3531 Z-6.1621
 X193.3035 Z-6.1875
 X193.2787 Z-6.2011
 X193.2539 Z-6.2152
 X193.1547 Z-6.2779
 X193.1050 Z-6.3133
 X193.0554 Z-6.3518
 X192.9562 Z-6.4388
 X192.9066 Z-6.4883
 X192.8818 Z-6.5147
 X192.8694 Z-6.5284
 X192.8632 Z-6.5354
 X192.8601 Z-6.5389
 X192.8586 Z-6.5406
 X192.8578 Z-6.5415
 X192.8570 Z-6.5424
 X192.4602 Z-6.5467
 X57.3414
 X57.1430 Z-6.4343
 X57.0438 Z-6.3479
 X56.9942 Z-6.3098
 X56.9446 Z-6.2747
 X56.8453 Z-6.2125
 X56.7957 Z-6.1850
 X56.7709 Z-6.1721
 X56.7461 Z-6.1598
 X56.6469 Z-6.1157
 X56.5973 Z-6.0966
 X56.5477 Z-6.0794
 X56.4485 Z-6.0503
 X56.3989 Z-6.0384
 X56.3493 Z-6.0281
 X55.9525 Z-6.0000
 X31.5974
 X31.5726 Z-1.3703
 X31.5602 Z-1.2942
 X31.5540 Z-1.2629
 X31.5478 Z-1.2346
 X31.4982 Z-1.0625
 X31.4734 Z-0.9964
 X31.4486 Z-0.9380
 X31.3990 Z-0.8371
 X31.3742 Z-0.7926
 X31.3618 Z-0.7716
 X31.3494 Z-0.7512
 X31.2502 Z-0.6091
 X31.2005 Z-0.5488
 X31.1509 Z-0.4941
 X31.0517 Z-0.3984
 X31.0021 Z-0.3563
 X30.9773 Z-0.3365
 X30.9525 Z-0.3175
 X30.8533 Z-0.2488
 X30.8037 Z-0.2185
 X30.7541 Z-0.1906
 X30.6549 Z-0.1414
 X30.6053 Z-0.1199
 X30.5805 Z-0.1099
 X30.5557 Z-0.1004
 X30.4565 Z-0.0671
 X30.4069 Z-0.0530
 X30.3573 Z-0.0407
 X30.2581 Z-0.0211
 X30.2085 Z-0.0137
 X30.1589 Z-0.0080
 X29.7621 Z0.0000
 X1.5875
 Y37.0788
 X29.9605
 X30.0597 Z-0.0011
 X30.1093 Z-0.0038
 X30.1341 Z-0.0057
 X30.1589 Z-0.0080
 X30.2581 Z-0.0211
 X30.3077 Z-0.0301
 X30.3573 Z-0.0407
 X30.4565 Z-0.0671
 X30.5061 Z-0.0828
 X30.5309 Z-0.0914
 X30.5557 Z-0.1004
 X30.6549 Z-0.1414
 X30.7045 Z-0.1649
 X30.7541 Z-0.1906
 X30.8533 Z-0.2488
 X30.9029 Z-0.2818
 X30.9277 Z-0.2993
 X30.9525 Z-0.3175
 X31.0517 Z-0.3984
 X31.1013 Z-0.4442
 X31.1261 Z-0.4686
 X31.1509 Z-0.4941
 X31.2005 Z-0.5488
 X31.2502 Z-0.6091
 X31.2998 Z-0.6760
 X31.3246 Z-0.7125
 X31.3370 Z-0.7315
 X31.3494 Z-0.7512
 X31.3990 Z-0.8371
 X31.4486 Z-0.9380
 X31.4734 Z-0.9964
 X31.4982 Z-1.0625
 X31.5478 Z-1.2346
 X31.5726 Z-1.3703
 X31.5850 Z-1.4979
 X31.5881 Z-6.0000
 X56.0517
 X56.1509 Z-6.0031
 X56.2501 Z-6.0124
 X56.2997 Z-6.0194
 X56.3245 Z-6.0236
 X56.3493 Z-6.0281
 X56.4485 Z-6.0503
 X56.4981 Z-6.0640
 X56.5477 Z-6.0794
 X56.6469 Z-6.1157
 X56.6965 Z-6.1367
 X56.7213 Z-6.1480
 X56.7461 Z-6.1598
 X56.8453 Z-6.2125
 X56.8950 Z-6.2423
 X56.9446 Z-6.2747
 X57.0438 Z-6.3479
 X57.0934 Z-6.3893
 X57.1182 Z-6.4113
 X57.1306 Z-6.4227
 X57.1430 Z-6.4343
 X57.2422 Z-6.5370
 X57.2918 Z-6.5960
 X57.3166 Z-6.6278
 X57.3414 Z-6.6614
 X57.3910 Z-6.7347
 X57.4158 Z-6.7749
 X57.4406 Z-6.8181
 X57.4902 Z-6.9154
 X57.5398 Z-7.0338
 X57.6390 Z-7.5475
 X57.6452 Z-19.0000
 X192.4602
 X192.5594 Z-7.0468
 X192.6090 Z-6.9257
 X192.6338 Z-6.8741
 X192.6586 Z-6.8268
 X192.7082 Z-6.7422
 X192.7578 Z-6.6681
 X192.8074 Z-6.6020
 X192.8322 Z-6.5715
 X192.8570 Z-6.5424
 X192.9562 Z-6.4388
 X193.0058 Z-6.3935
 X193.0554 Z-6.3518
 X193.1547 Z-6.2779
 X193.2043 Z-6.2453
 X193.2291 Z-6.2300
 X193.2539 Z-6.2152
 X193.3531 Z-6.1621
 X193.4027 Z-6.1389
 X193.4523 Z-6.1176
 X193.5515 Z-6.0810
 X193.6011 Z-6.0654
 X193.6259 Z-6.0583
 X193.6507 Z-6.0516
 X193.7499 Z-6.0290
 X193.8491 Z-6.0130
 X194.0475 Z-6.0000
 X194.4443
 X218.4026
 X218.4274 Z-1.3703
 X218.4398 Z-1.2942
 X218.4460 Z-1.2629
 X218.4522 Z-1.2346
 X218.5018 Z-1.0625
 X218.5266 Z-0.9964
 X218.5514 Z-0.9380
 X218.6010 Z-0.8371
 X218.6258 Z-0.7926
 X218.6382 Z-0.7716
 X218.6506 Z-0.7512
 X218.7498 Z-0.6091
 X218.7995 Z-0.5488
 X218.8491 Z-0.4941
 X218.9483 Z-0.3984
 X218.9979 Z-0.3563
 X219.0227 Z-0.3365
 X219.0475 Z-0.3175
 X219.1467 Z-0.2488
 X219.1963 Z-0.2185
 X219.2459 Z-0.1906
 X219.3451 Z-0.1414
 X219.3947 Z-0.1199
 X219.4195 Z-0.1099
 X219.4443 Z-0.1004
 X219.5435 Z-0.0671
 X219.5931 Z-0.0530
 X219.6427 Z-0.0407
 X219.7419 Z-0.0211
 X219.7915 Z-0.0137
 X219.8411 Z-0.0080
 X220.2379 Z0.0000
 X248.4125
 Y38.3464
 X220.0395
 X219.9403 Z-0.0011
 X219.8907 Z-0.0038
 X219.8659 Z-0.0057
 X219.8411 Z-0.0080
 X219.7419 Z-0.0211
 X219.6923 Z-0.0301
 X219.6427 Z-0.0407
 X219.5435 Z-0.0671
 X219.4939 Z-0.0828
 X219.4691 Z-0.0914
 X219.4443 Z-0.1004
 X219.3451 Z-0.1414
 X219.2955 Z-0.1649
 X219.2459 Z-0.1906
 X219.1467 Z-0.2488
 X219.0971 Z-0.2818
 X219.0723 Z-0.2993
 X219.0475 Z-0.3175
 X218.9483 Z-0.3984
 X218.8987 Z-0.4442
 X218.8739 Z-0.4686
 X218.8491 Z-0.4941
 X218.7995 Z-0.5488
 X218.7498 Z-0.6091
 X218.7002 Z-0.6760
 X218.6754 Z-0.7125
 X218.6630 Z-0.7315
 X218.6506 Z-0.7512
 X218.6010 Z-0.8371
 X218.5514 Z-0.9380
 X218.5266 Z-0.9964
 X218.5018 Z-1.0625
 X218.4522 Z-1.2346
 X218.4274 Z-1.3703
 X218.4150 Z-1.4979
 X218.4119 Z-6.0000
 X194.0971
 X194.0475
 X193.9483 Z-6.0034
 X193.8987 Z-6.0074
 X193.8491 Z-6.0130
 X193.7499 Z-6.0290
 X193.7003 Z-6.0394
 X193.6755 Z-6.0453
 X193.6507 Z-6.0516
 X193.5515 Z-6.0810
 X193.5019 Z-6.0984
 X193.4523 Z-6.1176
 X193.3531 Z-6.1621
 X193.3035 Z-6.1875
 X193.2787 Z-6.2011
 X193.2539 Z-6.2152
 X193.1547 Z-6.2779
 X193.1050 Z-6.3133
 X193.0554 Z-6.3518
 X192.9562 Z-6.4388
 X192.9066 Z-6.4883
 X192.8818 Z-6.5147
 X192.8570 Z-6.5424
 X192.7578 Z-6.6681
 X192.7082 Z-6.7422
 X192.6834 Z-6.7830
 X192.6586 Z-6.8268
 X192.6090 Z-6.9257
 X192.5594 Z-7.0468
 X192.5098 Z-7.2109
 X192.4850 Z-7.3331
 X192.4726 Z-7.4271
 X192.4664 Z-7.5095
 X192.4633 Z-19.0000
 X57.7382
 X57.6390 Z-7.5475
 X57.6142 Z-7.3052
 X57.6018 Z-7.2436
 X57.5894 Z-7.1918
 X57.5646 Z-7.1056
 X57.5522 Z-7.0683
 X57.5460 Z-7.0507
 X57.5398 Z-7.0338
 X57.4902 Z-6.9154
 X57.4406 Z-6.8181
 X57.3910 Z-6.7347
 X57.3662 Z-6.6969
 X57.3414 Z-6.6614
 X57.2918 Z-6.5960
 X57.2422 Z-6.5370
 X57.1926 Z-6.4833
 X57.1678 Z-6.4582
 X57.1430 Z-6.4343
 X57.0438 Z-6.3479
 X56.9942 Z-6.3098
 X56.9446 Z-6.2747
 X56.8453 Z-6.2125
 X56.7957 Z-6.1850
 X56.7709 Z-6.1721
 X56.7461 Z-6.1598
 X56.6469 Z-6.1157
 X56.5973 Z-6.0966
 X56.5477 Z-6.0794
 X56.4485 Z-6.0503
 X56.3989 Z-6.0384
 X56.3493 Z-6.0281
 X55.9525 Z-6.0000
 X31.5974
 X31.5726 Z-1.3703
 X31.5602 Z-1.2942
 X31.5540 Z-1.2629
 X31.5478 Z-1.2346
 X31.4982 Z-1.0625
 X31.4734 Z-0.9964
 X31.4486 Z-0.9380
 X31.3990 Z-0.8371
 X31.3742 Z-0.7926
 X31.3618 Z-0.7716
 X31.3494 Z-0.7512
 X31.2502 Z-0.6091
 X31.2005 Z-0.5488
 X31.1509 Z-0.4941
 X31.0517 Z-0.3984
 X31.0021 Z-0.3563
 X30.9773 Z-0.3365
 X30.9525 Z-0.3175
 X30.8533 Z-0.2488
 X30.8037 Z-0.2185
 X30.7541 Z-0.1906
 X30.6549 Z-0.1414
 X30.6053 Z-0.1199
 X30.5805 Z-0.1099
 X30.5557 Z-0.1004
 X30.4565 Z-0.0671
 X30.4069 Z-0.0530
 X30.3573 Z-0.0407
 X30.2581 Z-0.0211
 X30.2085 Z-0.0137
 X30.1589 Z-0.0080
 X29.7621 Z0.0000
 X1.5875
 Y39.6139
 X29.9605
 X30.0597 Z-0.0011
 X30.1093 Z-0.0038
 X30.1341 Z-0.0057
 X30.1589 Z-0.0080
 X30.2581 Z-0.0211
 X30.3077 Z-0.0301
 X30.3573 Z-0.0407
 X30.4565 Z-0.0671
 X30.5061 Z-0.0828
 X30.5309 Z-0.0914
 X30.5557 Z-0.1004
 X30.6549 Z-0.1414
 X30.7045 Z-0.1649
 X30.7541 Z-0.1906
 X30.8533 Z-0.2488
 X30.9029 Z-0.2818
 X30.9277 Z-0.2993
 X30.9525 Z-0.3175
 X31.0517 Z-0.3984
 X31.1013 Z-0.4442
 X31.1261 Z-0.4686
 X31.1509 Z-0.4941
 X31.2005 Z-0.5488
 X31.2502 Z-0.6091
 X31.2998 Z-0.6760
 X31.3246 Z-0.7125
 X31.3370 Z-0.7315
 X31.3494 Z-0.7512
 X31.3990 Z-0.8371
 X31.4486 Z-0.9380
 X31.4734 Z-0.9964
 X31.4982 Z-1.0625
 X31.5478 Z-1.2346
 X31.5726 Z-1.3703
 X31.5850 Z-1.4979
 X31.5881 Z-6.0000
 X56.0517
 X56.1509 Z-6.0031
 X56.2501 Z-6.0124
 X56.2997 Z-6.0194
 X56.3245 Z-6.0236
 X56.3493 Z-6.0281
 X56.4485 Z-6.0503
 X56.4981 Z-6.0640
 X56.5477 Z-6.0794
 X56.7461 Z-6.1598
 X56.8453 Z-6.2125
 X56.8950 Z-6.2423
 X56.9198 Z-6.2582
 X56.9322 Z-6.2663
 X56.9384 Z-6.2705
 X56.9446 Z-6.2747
 X56.9942 Z-6.3098
 X57.0190 Z-6.3285
 X57.0314 Z-6.3381
 X57.0376 Z-6.3430
 X57.0407 Z-6.3454
 X57.0422 Z-6.3467
 X57.0430 Z-6.3473
 X57.0434 Z-6.3476
 X57.0438 Z-6.3479
 X57.1430 Z-6.3535
 X192.8570
 X193.2539 Z-6.2152
 X193.3531 Z-6.1621
 X193.4027 Z-6.1389
 X193.4523 Z-6.1176
 X193.5515 Z-6.0810
 X193.6011 Z-6.0654
 X193.6259 Z-6.0583
 X193.6507 Z-6.0516
 X193.7499 Z-6.0290
 X193.8491 Z-6.0130
 X194.0475 Z-6.0000
 X194.4443
 X218.4026
 X218.4274 Z-1.3703
 X218.4398 Z-1.2942
 X218.4460 Z-1.2629
 X218.4522 Z-1.2346
 X218.5018 Z-1.0625
 X218.5266 Z-0.9964
 X218.5514 Z-0.9380
 X218.6010 Z-0.8371
 X218.6258 Z-0.7926
 X218.6382 Z-0.7716
 X218.6506 Z-0.7512
 X218.7498 Z-0.6091
 X218.7995 Z-0.5488
 X218.8491 Z-0.4941
 X218.9483 Z-0.3984
 X218.9979 Z-0.3563
 X219.0227 Z-0.3365
 X219.0475 Z-0.3175
 X219.1467 Z-0.2488
 X219.1963 Z-0.2185
 X219.2459 Z-0.1906
 X219.3451 Z-0.1414
 X219.3947 Z-0.1199
 X219.4195 Z-0.1099
 X219.4443 Z-0.1004
 X219.5435 Z-0.0671
 X219.5931 Z-0.0530
 X219.6427 Z-0.0407
 X219.7419 Z-0.0211
 X219.7915 Z-0.0137
 X219.8411 Z-0.0080
 X220.2379 Z0.0000
 X248.4125
 Y40.8815
 X220.0395
 X219.9403 Z-0.0011
 X219.8907 Z-0.0038
 X219.8659 Z-0.0057
 X219.8411 Z-0.0080
 X219.7419 Z-0.0211
 X219.6923 Z-0.0301
 X219.6427 Z-0.0407
 X219.5435 Z-0.0671
 X219.4939 Z-0.0828
 X219.4691 Z-0.0914
 X219.4443 Z-0.1004
 X219.3451 Z-0.1414
 X219.2955 Z-0.1649
 X219.2459 Z-0.1906
 X219.1467 Z-0.2488
 X219.0971 Z-0.2818
 X219.0723 Z-0.2993
 X219.0475 Z-0.3175
 X218.9483 Z-0.3984
 X218.8987 Z-0.4442
 X218.8739 Z-0.4686
 X218.8491 Z-0.4941
 X218.7995 Z-0.5488
 X218.7498 Z-0.6091
 X218.7002 Z-0.6760
 X218.6754 Z-0.7125
 X218.6630 Z-0.7315
 X218.6506 Z-0.7512
 X218.6010 Z-0.8371
 X218.5514 Z-0.9380
 X218.5266 Z-0.9964
 X218.5018 Z-1.0625
 X218.4522 Z-1.2346
 X218.4274 Z-1.3703
 X218.4150 Z-1.4979
 X218.4119 Z-6.0000
 X31.5974
 X31.5726 Z-1.3703
 X31.5602 Z-1.2942
 X31.5540 Z-1.2629
 X31.5478 Z-1.2346
 X31.4982 Z-1.0625
 X31.4734 Z-0.9964
 X31.4486 Z-0.9380
 X31.3990 Z-0.8371
 X31.3742 Z-0.7926
 X31.3618 Z-0.7716
 X31.3494 Z-0.7512
 X31.2502 Z-0.6091
 X31.2005 Z-0.5488
 X31.1509 Z-0.4941
 X31.0517 Z-0.3984
 X31.0021 Z-0.3563
 X30.9773 Z-0.3365
 X30.9525 Z-0.3175
 X30.8533 Z-0.2488
 X30.8037 Z-0.2185
 X30.7541 Z-0.1906
 X30.6549 Z-0.1414
 X30.6053 Z-0.1199
 X30.5805 Z-0.1099
 X30.5557 Z-0.1004
 X30.4565 Z-0.0671
 X30.4069 Z-0.0530
 X30.3573 Z-0.0407
 X30.2581 Z-0.0211
 X30.2085 Z-0.0137
 X30.1589 Z-0.0080
 X29.7621 Z0.0000
 X1.5875
 Y42.1490
 X29.9605
 X30.0597 Z-0.0011
 X30.1093 Z-0.0038
 X30.1341 Z-0.0057
 X30.1589 Z-0.0080
 X30.2581 Z-0.0211
 X30.3077 Z-0.0301
 X30.3573 Z-0.0407
 X30.4565 Z-0.0671
 X30.5061 Z-0.0828
 X30.5309 Z-0.0914
 X30.5557 Z-0.1004
 X30.6549 Z-0.1414
 X30.7045 Z-0.1649
 X30.7541 Z-0.1906
 X30.8533 Z-0.2488
 X30.9029 Z-0.2818
 X30.9277 Z-0.2993
 X30.9525 Z-0.3175
 X31.0517 Z-0.3984
 X31.1013 Z-0.4442
 X31.1261 Z-0.4686
 X31.1509 Z-0.4941
 X31.2005 Z-0.5488
 X31.2502 Z-0.6091
 X31.2998 Z-0.6760
 X31.3246 Z-0.7125
 X31.3370 Z-0.7315
 X31.3494 Z-0.7512
 X31.3990 Z-0.8371
 X31.4486 Z-0.9380
 X31.4734 Z-0.9964
 X31.4982 Z-1.0625
 X31.5478 Z-1.2346
 X31.5726 Z-1.3703
 X31.5850 Z-1.4979
 X31.5881 Z-6.0000
 X218.4026
 X218.4274 Z-1.3703
 X218.4398 Z-1.2942
 X218.4460 Z-1.2629
 X218.4522 Z-1.2346
 X218.5018 Z-1.0625
 X218.5266 Z-0.9964
 X218.5514 Z-0.9380
 X218.6010 Z-0.8371
 X218.6258 Z-0.7926
 X218.6382 Z-0.7716
 X218.6506 Z-0.7512
 X218.7498 Z-0.6091
 X218.7995 Z-0.5488
 X218.8491 Z-0.4941
 X218.9483 Z-0.3984
 X218.9979 Z-0.3563
 X219.0227 Z-0.3365
 X219.0475 Z-0.3175
 X219.1467 Z-0.2488
 X219.1963 Z-0.2185
 X219.2459 Z-0.1906
 X219.3451 Z-0.1414
 X219.3947 Z-0.1199
 X219.4195 Z-0.1099
 X219.4443 Z-0.1004
 X219.5435 Z-0.0671
 X219.5931 Z-0.0530
 X219.6427 Z-0.0407
 X219.7419 Z-0.0211
 X219.7915 Z-0.0137
 X219.8411 Z-0.0080
 X220.2379 Z0.0000
 X248.4125
 Y43.4166
 X220.0395
 X219.9403 Z-0.0011
 X219.8907 Z-0.0038
 X219.8659 Z-0.0057
 X219.8411 Z-0.0080
 X219.7419 Z-0.0211
 X219.6923 Z-0.0301
 X219.6427 Z-0.0407
 X219.5435 Z-0.0671
 X219.4939 Z-0.0828
 X219.4691 Z-0.0914
 X219.4443 Z-0.1004
 X219.3451 Z-0.1414
 X219.2955 Z-0.1649
 X219.2459 Z-0.1906
 X219.1467 Z-0.2488
 X219.0971 Z-0.2818
 X219.0723 Z-0.2993
 X219.0475 Z-0.3175
 X218.9483 Z-0.3984
 X218.8987 Z-0.4442
 X218.8739 Z-0.4686
 X218.8491 Z-0.4941
 X218.7995 Z-0.5488
 X218.7498 Z-0.6091
 X218.7002 Z-0.6760
 X218.6754 Z-0.7125
 X218.6630 Z-0.7315
 X218.6506 Z-0.7512
 X218.6010 Z-0.8371
 X218.5514 Z-0.9380
 X218.5266 Z-0.9964
 X218.5018 Z-1.0625
 X218.4522 Z-1.2346
 X218.4274 Z-1.3703
 X218.4150 Z-1.4979
 X218.4119 Z-6.0000
 X31.5974
 X31.5726 Z-1.3703
 X31.5602 Z-1.2942
 X31.5540 Z-1.2629
 X31.5478 Z-1.2346
 X31.4982 Z-1.0625
 X31.4734 Z-0.9964
 X31.4486 Z-0.9380
 X31.3990 Z-0.8371
 X31.3742 Z-0.7926
 X31.3618 Z-0.7716
 X31.3494 Z-0.7512
 X31.2502 Z-0.6091
 X31.2005 Z-0.5488
 X31.1509 Z-0.4941
 X31.0517 Z-0.3984
 X31.0021 Z-0.3563
 X30.9773 Z-0.3365
 X30.9525 Z-0.3175
 X30.8533 Z-0.2488
 X30.8037 Z-0.2185
 X30.7541 Z-0.1906
 X30.6549 Z-0.1414
 X30.6053 Z-0.1199
 X30.5805 Z-0.1099
 X30.5557 Z-0.1004
 X30.4565 Z-0.0671
 X30.4069 Z-0.0530
 X30.3573 Z-0.0407
 X30.2581 Z-0.0211
 X30.2085 Z-0.0137
 X30.1589 Z-0.0080
 X29.7621 Z0.0000
 X1.5875
 Y44.6841
 X29.9605
 X30.0597 Z-0.0011
 X30.1093 Z-0.0038
 X30.1341 Z-0.0057
 X30.1589 Z-0.0080
 X30.2581 Z-0.0211
 X30.3077 Z-0.0301
 X30.3573 Z-0.0407
 X30.4565 Z-0.0671
 X30.5061 Z-0.0828
 X30.5309 Z-0.0914
 X30.5557 Z-0.1004
 X30.6549 Z-0.1414
 X30.7045 Z-0.1649
 X30.7541 Z-0.1906
 X30.8533 Z-0.2488
 X30.9029 Z-0.2818
 X30.9277 Z-0.2993
 X30.9525 Z-0.3175
 X31.0517 Z-0.3984
 X31.1013 Z-0.4442
 X31.1261 Z-0.4686
 X31.1509 Z-0.4941
 X31.2005 Z-0.5488
 X31.2502 Z-0.6091
 X31.2998 Z-0.6760
 X31.3246 Z-0.7125
 X31.3370 Z-0.7315
 X31.3494 Z-0.7512
 X31.3990 Z-0.8371
 X31.4486 Z-0.9380
 X31.4734 Z-0.9964
 X31.4982 Z-1.0625
 X31.5478 Z-1.2346
 X31.5726 Z-1.3703
 X31.5850 Z-1.4979
 X31.5881 Z-6.0000
 X218.4026
 X218.4274 Z-1.3703
 X218.4398 Z-1.2942
 X218.4460 Z-1.2629
 X218.4522 Z-1.2346
 X218.5018 Z-1.0625
 X218.5266 Z-0.9964
 X218.5514 Z-0.9380
 X218.6010 Z-0.8371
 X218.6258 Z-0.7926
 X218.6382 Z-0.7716
 X218.6506 Z-0.7512
 X218.7498 Z-0.6091
 X218.7995 Z-0.5488
 X218.8491 Z-0.4941
 X218.9483 Z-0.3984
 X218.9979 Z-0.3563
 X219.0227 Z-0.3365
 X219.0475 Z-0.3175
 X219.1467 Z-0.2488
 X219.1963 Z-0.2185
 X219.2459 Z-0.1906
 X219.3451 Z-0.1414
 X219.3947 Z-0.1199
 X219.4195 Z-0.1099
 X219.4443 Z-0.1004
 X219.5435 Z-0.0671
 X219.5931 Z-0.0530
 X219.6427 Z-0.0407
 X219.7419 Z-0.0211
 X219.7915 Z-0.0137
 X219.8411 Z-0.0080
 X220.2379 Z0.0000
 X248.4125
 Y45.9517
 X220.0395
 X219.9403 Z-0.0011
 X219.8907 Z-0.0038
 X219.8659 Z-0.0057
 X219.8411 Z-0.0080
 X219.7419 Z-0.0211
 X219.6923 Z-0.0301
 X219.6427 Z-0.0407
 X219.5435 Z-0.0671
 X219.4939 Z-0.0828
 X219.4691 Z-0.0914
 X219.4443 Z-0.1004
 X219.3451 Z-0.1414
 X219.2955 Z-0.1649
 X219.2459 Z-0.1906
 X219.1467 Z-0.2488
 X219.0971 Z-0.2818
 X219.0723 Z-0.2993
 X219.0475 Z-0.3175
 X218.9483 Z-0.3984
 X218.8987 Z-0.4442
 X218.8739 Z-0.4686
 X218.8491 Z-0.4941
 X218.7995 Z-0.5488
 X218.7498 Z-0.6091
 X218.7002 Z-0.6760
 X218.6754 Z-0.7125
 X218.6630 Z-0.7315
 X218.6506 Z-0.7512
 X218.6010 Z-0.8371
 X218.5514 Z-0.9380
 X218.5266 Z-0.9964
 X218.5018 Z-1.0625
 X218.4522 Z-1.2346
 X218.4274 Z-1.3703
 X218.4150 Z-1.4979
 X218.4119 Z-6.0000
 X31.5974
 X31.5726 Z-1.3703
 X31.5602 Z-1.2942
 X31.5540 Z-1.2629
 X31.5478 Z-1.2346
 X31.4982 Z-1.0625
 X31.4734 Z-0.9964
 X31.4486 Z-0.9380
 X31.3990 Z-0.8371
 X31.3742 Z-0.7926
 X31.3618 Z-0.7716
 X31.3494 Z-0.7512
 X31.2502 Z-0.6091
 X31.2005 Z-0.5488
 X31.1509 Z-0.4941
 X31.0517 Z-0.3984
 X31.0021 Z-0.3563
 X30.9773 Z-0.3365
 X30.9525 Z-0.3175
 X30.8533 Z-0.2488
 X30.8037 Z-0.2185
 X30.7541 Z-0.1906
 X30.6549 Z-0.1414
 X30.6053 Z-0.1199
 X30.5805 Z-0.1099
 X30.5557 Z-0.1004
 X30.4565 Z-0.0671
 X30.4069 Z-0.0530
 X30.3573 Z-0.0407
 X30.2581 Z-0.0211
 X30.2085 Z-0.0137
 X30.1589 Z-0.0080
 X29.7621 Z0.0000
 X1.5875
 Y47.2192
 X29.9605
 X30.0597 Z-0.0011
 X30.1093 Z-0.0038
 X30.1341 Z-0.0057
 X30.1589 Z-0.0080
 X30.2581 Z-0.0211
 X30.3077 Z-0.0301
 X30.3573 Z-0.0407
 X30.4565 Z-0.0671
 X30.5061 Z-0.0828
 X30.5309 Z-0.0914
 X30.5557 Z-0.1004
 X30.6549 Z-0.1414
 X30.7045 Z-0.1649
 X30.7541 Z-0.1906
 X30.8533 Z-0.2488
 X30.9029 Z-0.2818
 X30.9277 Z-0.2993
 X30.9525 Z-0.3175
 X31.0517 Z-0.3984
 X31.1013 Z-0.4442
 X31.1261 Z-0.4686
 X31.1509 Z-0.4941
 X31.2005 Z-0.5488
 X31.2502 Z-0.6091
 X31.2998 Z-0.6760
 X31.3246 Z-0.7125
 X31.3370 Z-0.7315
 X31.3494 Z-0.7512
 X31.3990 Z-0.8371
 X31.4486 Z-0.9380
 X31.4734 Z-0.9964
 X31.4982 Z-1.0625
 X31.5478 Z-1.2346
 X31.5726 Z-1.3703
 X31.5850 Z-1.4979
 X31.5881 Z-6.0000
 X218.4026
 X218.4274 Z-1.3703
 X218.4398 Z-1.2942
 X218.4460 Z-1.2629
 X218.4522 Z-1.2346
 X218.5018 Z-1.0625
 X218.5266 Z-0.9964
 X218.5514 Z-0.9380
 X218.6010 Z-0.8371
 X218.6258 Z-0.7926
 X218.6382 Z-0.7716
 X218.6506 Z-0.7512
 X218.7498 Z-0.6091
 X218.7995 Z-0.5488
 X218.8491 Z-0.4941
 X218.9483 Z-0.3984
 X218.9979 Z-0.3563
 X219.0227 Z-0.3365
 X219.0475 Z-0.3175
 X219.1467 Z-0.2488
 X219.1963 Z-0.2185
 X219.2459 Z-0.1906
 X219.3451 Z-0.1414
 X219.3947 Z-0.1199
 X219.4195 Z-0.1099
 X219.4443 Z-0.1004
 X219.5435 Z-0.0671
 X219.5931 Z-0.0530
 X219.6427 Z-0.0407
 X219.7419 Z-0.0211
 X219.7915 Z-0.0137
 X219.8411 Z-0.0080
 X220.2379 Z0.0000
 X248.4125
 Y48.4868
 X220.0395
 X219.9403 Z-0.0011
 X219.8907 Z-0.0038
 X219.8659 Z-0.0057
 X219.8411 Z-0.0080
 X219.7419 Z-0.0211
 X219.6923 Z-0.0301
 X219.6427 Z-0.0407
 X219.5435 Z-0.0671
 X219.4939 Z-0.0828
 X219.4691 Z-0.0914
 X219.4443 Z-0.1004
 X219.3451 Z-0.1414
 X219.2955 Z-0.1649
 X219.2459 Z-0.1906
 X219.1467 Z-0.2488
 X219.0971 Z-0.2818
 X219.0723 Z-0.2993
 X219.0475 Z-0.3175
 X218.9483 Z-0.3984
 X218.8987 Z-0.4442
 X218.8739 Z-0.4686
 X218.8491 Z-0.4941
 X218.7995 Z-0.5488
 X218.7498 Z-0.6091
 X218.7002 Z-0.6760
 X218.6754 Z-0.7125
 X218.6630 Z-0.7315
 X218.6506 Z-0.7512
 X218.6010 Z-0.8371
 X218.5514 Z-0.9380
 X218.5266 Z-0.9964
 X218.5018 Z-1.0625
 X218.4522 Z-1.2346
 X218.4274 Z-1.3703
 X218.4150 Z-1.4979
 X218.4119 Z-6.0000
 X31.5974
 X31.5726 Z-1.3703
 X31.5602 Z-1.2942
 X31.5540 Z-1.2629
 X31.5478 Z-1.2346
 X31.4982 Z-1.0625
 X31.4734 Z-0.9964
 X31.4486 Z-0.9380
 X31.3990 Z-0.8371
 X31.3742 Z-0.7926
 X31.3618 Z-0.7716
 X31.3494 Z-0.7512
 X31.2502 Z-0.6091
 X31.2005 Z-0.5488
 X31.1509 Z-0.4941
 X31.0517 Z-0.3984
 X31.0021 Z-0.3563
 X30.9773 Z-0.3365
 X30.9525 Z-0.3175
 X30.8533 Z-0.2488
 X30.8037 Z-0.2185
 X30.7541 Z-0.1906
 X30.6549 Z-0.1414
 X30.6053 Z-0.1199
 X30.5805 Z-0.1099
 X30.5557 Z-0.1004
 X30.4565 Z-0.0671
 X30.4069 Z-0.0530
 X30.3573 Z-0.0407
 X30.2581 Z-0.0211
 X30.2085 Z-0.0137
 X30.1589 Z-0.0080
 X29.7621 Z0.0000
 X1.5875
 Y49.7543
 X29.9605
 X30.0597 Z-0.0011
 X30.1093 Z-0.0038
 X30.1341 Z-0.0057
 X30.1589 Z-0.0080
 X30.2581 Z-0.0211
 X30.3077 Z-0.0301
 X30.3573 Z-0.0407
 X30.4565 Z-0.0671
 X30.5061 Z-0.0828
 X30.5309 Z-0.0914
 X30.5557 Z-0.1004
 X30.6549 Z-0.1414
 X30.7045 Z-0.1649
 X30.7541 Z-0.1906
 X30.8533 Z-0.2488
 X30.9029 Z-0.2818
 X30.9277 Z-0.2993
 X30.9525 Z-0.3175
 X31.0517 Z-0.3984
 X31.1013 Z-0.4442
 X31.1261 Z-0.4686
 X31.1509 Z-0.4941
 X31.2005 Z-0.5488
 X31.2502 Z-0.6091
 X31.2998 Z-0.6760
 X31.3246 Z-0.7125
 X31.3370 Z-0.7315
 X31.3494 Z-0.7512
 X31.3990 Z-0.8371
 X31.4486 Z-0.9380
 X31.4734 Z-0.9964
 X31.4982 Z-1.0625
 X31.5478 Z-1.2346
 X31.5726 Z-1.3703
 X31.5850 Z-1.4979
 X31.5881 Z-6.0000
 X55.9525
 X56.3493 Z-6.0063
 X193.6507
 X194.0475 Z-6.0000
 X194.4443
 X218.4026
 X218.4274 Z-1.3703
 X218.4398 Z-1.2942
 X218.4460 Z-1.2629
 X218.4522 Z-1.2346
 X218.5018 Z-1.0625
 X218.5266 Z-0.9964
 X218.5514 Z-0.9380
 X218.6010 Z-0.8371
 X218.6258 Z-0.7926
 X218.6382 Z-0.7716
 X218.6506 Z-0.7512
 X218.7498 Z-0.6091
 X218.7995 Z-0.5488
 X218.8491 Z-0.4941
 X218.9483 Z-0.3984
 X218.9979 Z-0.3563
 X219.0227 Z-0.3365
 X219.0475 Z-0.3175
 X219.1467 Z-0.2488
 X219.1963 Z-0.2185
 X219.2459 Z-0.1906
 X219.3451 Z-0.1414
 X219.3947 Z-0.1199
 X219.4195 Z-0.1099
 X219.4443 Z-0.1004
 X219.5435 Z-0.0671
 X219.5931 Z-0.0530
 X219.6427 Z-0.0407
 X219.7419 Z-0.0211
 X219.7915 Z-0.0137
 X219.8411 Z-0.0080
 X220.2379 Z0.0000
 X248.4125
 Y51.0219
 X220.0395
 X219.9403 Z-0.0011
 X219.8907 Z-0.0038
 X219.8659 Z-0.0057
 X219.8411 Z-0.0080
 X219.7419 Z-0.0211
 X219.6923 Z-0.0301
 X219.6427 Z-0.0407
 X219.5435 Z-0.0671
 X219.4939 Z-0.0828
 X219.4691 Z-0.0914
 X219.4443 Z-0.1004
 X219.3451 Z-0.1414
 X219.2955 Z-0.1649
 X219.2459 Z-0.1906
 X219.1467 Z-0.2488
 X219.0971 Z-0.2818
 X219.0723 Z-0.2993
 X219.0475 Z-0.3175
 X218.9483 Z-0.3984
 X218.8987 Z-0.4442
 X218.8739 Z-0.4686
 X218.8491 Z-0.4941
 X218.7995 Z-0.5488
 X218.7498 Z-0.6091
 X218.7002 Z-0.6760
 X218.6754 Z-0.7125
 X218.6630 Z-0.7315
 X218.6506 Z-0.7512
 X218.6010 Z-0.8371
 X218.5514 Z-0.9380
 X218.5266 Z-0.9964
 X218.5018 Z-1.0625
 X218.4522 Z-1.2346
 X218.4274 Z-1.3703
 X218.4150 Z-1.4979
 X218.4119 Z-6.0000
 X194.0971
 X194.0475
 X193.9483 Z-6.0034
 X193.8987 Z-6.0074
 X193.8491 Z-6.0130
 X193.7499 Z-6.0290
 X193.7003 Z-6.0394
 X193.6755 Z-6.0453
 X193.6507 Z-6.0516
 X193.5515 Z-6.0810
 X193.5019 Z-6.0984
 X193.4523 Z-6.1176
 X193.3531 Z-6.1621
 X193.3035 Z-6.1875
 X193.2787 Z-6.2011
 X193.2539 Z-6.2152
 X192.8570 Z-6.5424
 X192.7578 Z-6.6681
 X192.7082 Z-6.7422
 X192.6834 Z-6.7830
 X192.6710 Z-6.8045
 X192.6648 Z-6.8155
 X192.6617 Z-6.8211
 X192.6602 Z-6.8240
 X192.6594 Z-6.8254
 X192.6590 Z-6.8261
 X192.6588 Z-6.8264
 X192.6586 Z-6.8268
 X192.6524 Z-6.8383
 X192.6493 Z-6.8441
 X192.6478 Z-6.8470
 X192.6470 Z-6.8485
 X192.6466 Z-6.8492
 X192.6464 Z-6.8496
 X192.6463 Z-6.8498
 X192.6462 Z-6.8500
 X192.6447 Z-6.8529
 X192.6439 Z-6.8544
 X192.6435 Z-6.8552
 X192.6433 Z-6.8555
 X192.6432 Z-6.8557
 Z-6.8558
 X192.6431 Z-6.8559
 X192.6423 Z-6.8566
 X57.5398
 X57.3414 Z-6.6614
 X57.2918 Z-6.5960
 X57.2422 Z-6.5370
 X57.1926 Z-6.4833
 X57.1678 Z-6.4582
 X57.1430 Z-6.4343
 X57.0438 Z-6.3479
 X56.9942 Z-6.3098
 X56.9446 Z-6.2747
 X56.8453 Z-6.2125
 X56.7957 Z-6.1850
 X56.7709 Z-6.1721
 X56.7461 Z-6.1598
 X56.6469 Z-6.1157
 X56.5973 Z-6.0966
 X56.5477 Z-6.0794
 X56.4485 Z-6.0503
 X56.3989 Z-6.0384
 X56.3493 Z-6.0281
 X55.9525 Z-6.0000
 X31.5974
 X31.5726 Z-1.3703
 X31.5602 Z-1.2942
 X31.5540 Z-1.2629
 X31.5478 Z-1.2346
 X31.4982 Z-1.0625
 X31.4734 Z-0.9964
 X31.4486 Z-0.9380
 X31.3990 Z-0.8371
 X31.3742 Z-0.7926
 X31.3618 Z-0.7716
 X31.3494 Z-0.7512
 X31.2502 Z-0.6091
 X31.2005 Z-0.5488
 X31.1509 Z-0.4941
 X31.0517 Z-0.3984
 X31.0021 Z-0.3563
 X30.9773 Z-0.3365
 X30.9525 Z-0.3175
 X30.8533 Z-0.2488
 X30.8037 Z-0.2185
 X30.7541 Z-0.1906
 X30.6549 Z-0.1414
 X30.6053 Z-0.1199
 X30.5805 Z-0.1099
 X30.5557 Z-0.1004
 X30.4565 Z-0.0671
 X30.4069 Z-0.0530
 X30.3573 Z-0.0407
 X30.2581 Z-0.0211
 X30.2085 Z-0.0137
 X30.1589 Z-0.0080
 X29.7621 Z0.0000
 X1.5875
 Y52.2894
 X29.9605
 X30.0597 Z-0.0011
 X30.1093 Z-0.0038
 X30.1341 Z-0.0057
 X30.1589 Z-0.0080
 X30.2581 Z-0.0211
 X30.3077 Z-0.0301
 X30.3573 Z-0.0407
 X30.4565 Z-0.0671
 X30.5061 Z-0.0828
 X30.5309 Z-0.0914
 X30.5557 Z-0.1004
 X30.6549 Z-0.1414
 X30.7045 Z-0.1649
 X30.7541 Z-0.1906
 X30.8533 Z-0.2488
 X30.9029 Z-0.2818
 X30.9277 Z-0.2993
 X30.9525 Z-0.3175
 X31.0517 Z-0.3984
 X31.1013 Z-0.4442
 X31.1261 Z-0.4686
 X31.1509 Z-0.4941
 X31.2005 Z-0.5488
 X31.2502 Z-0.6091
 X31.2998 Z-0.6760
 X31.3246 Z-0.7125
 X31.3370 Z-0.7315
 X31.3494 Z-0.7512
 X31.3990 Z-0.8371
 X31.4486 Z-0.9380
 X31.4734 Z-0.9964
 X31.4982 Z-1.0625
 X31.5478 Z-1.2346
 X31.5726 Z-1.3703
 X31.5850 Z-1.4979
 X31.5881 Z-6.0000
 X56.0517
 X56.1509 Z-6.0031
 X56.2501 Z-6.0124
 X56.2997 Z-6.0194
 X56.3245 Z-6.0236
 X56.3493 Z-6.0281
 X56.4485 Z-6.0503
 X56.4981 Z-6.0640
 X56.5477 Z-6.0794
 X56.6469 Z-6.1157
 X56.6965 Z-6.1367
 X56.7213 Z-6.1480
 X56.7461 Z-6.1598
 X56.8453 Z-6.2125
 X56.8950 Z-6.2423
 X56.9446 Z-6.2747
 X57.0438 Z-6.3479
 X57.0934 Z-6.3893
 X57.1182 Z-6.4113
 X57.1306 Z-6.4227
 X57.1430 Z-6.4343
 X57.2422 Z-6.5370
 X57.2918 Z-6.5960
 X57.3166 Z-6.6278
 X57.3414 Z-6.6614
 X57.3910 Z-6.7347
 X57.4158 Z-6.7749
 X57.4406 Z-6.8181
 X57.4902 Z-6.9154
 X57.5398 Z-7.0338
 X57.6390 Z-7.5475
 X57.6452 Z-19.0000
 X192.4602
 X192.5594 Z-7.0468
 X192.6090 Z-6.9257
 X192.6338 Z-6.8741
 X192.6586 Z-6.8268
 X192.7082 Z-6.7422
 X192.7578 Z-6.6681
 X192.8074 Z-6.6020
 X192.8322 Z-6.5715
 X192.8570 Z-6.5424
 X192.9562 Z-6.4388
 X193.0058 Z-6.3935
 X193.0554 Z-6.3518
 X193.1547 Z-6.2779
 X193.2043 Z-6.2453
 X193.2291 Z-6.2300
 X193.2539 Z-6.2152
 X193.3531 Z-6.1621
 X193.4027 Z-6.1389
 X193.4523 Z-6.1176
 X193.5515 Z-6.0810
 X193.6011 Z-6.0654
 X193.6259 Z-6.0583
 X193.6507 Z-6.0516
 X193.7499 Z-6.0290
 X193.8491 Z-6.0130
 X194.0475 Z-6.0000
 X194.4443
 X218.4026
 X218.4274 Z-1.3703
 X218.4398 Z-1.2942
 X218.4460 Z-1.2629
 X218.4522 Z-1.2346
 X218.5018 Z-1.0625
 X218.5266 Z-0.9964
 X218.5514 Z-0.9380
 X218.6010 Z-0.8371
 X218.6258 Z-0.7926
 X218.6382 Z-0.7716
 X218.6506 Z-0.7512
 X218.7498 Z-0.6091
 X218.7995 Z-0.5488
 X218.8491 Z-0.4941
 X218.9483 Z-0.3984
 X218.9979 Z-0.3563
 X219.0227 Z-0.3365
 X219.0475 Z-0.3175
 X219.1467 Z-0.2488
 X219.1963 Z-0.2185
 X219.2459 Z-0.1906
 X219.3451 Z-0.1414
 X219.3947 Z-0.1199
 X219.4195 Z-0.1099
 X219.4443 Z-0.1004
 X219.5435 Z-0.0671
 X219.5931 Z-0.0530
 X219.6427 Z-0.0407
 X219.7419 Z-0.0211
 X219.7915 Z-0.0137
 X219.8411 Z-0.0080
 X220.2379 Z0.0000
 X248.4125
 Y53.5570
 X220.0395
 X219.9403 Z-0.0011
 X219.8907 Z-0.0038
 X219.8659 Z-0.0057
 X219.8411 Z-0.0080
 X219.7419 Z-0.0211
 X219.6923 Z-0.0301
 X219.6427 Z-0.0407
 X219.5435 Z-0.0671
 X219.4939 Z-0.0828
 X219.4691 Z-0.0914
 X219.4443 Z-0.1004
 X219.3451 Z-0.1414
 X219.2955 Z-0.1649
 X219.2459 Z-0.1906
 X219.1467 Z-0.2488
 X219.0971 Z-0.2818
 X219.0723 Z-0.2993
 X219.0475 Z-0.3175
 X218.9483 Z-0.3984
 X218.8987 Z-0.4442
 X218.8739 Z-0.4686
 X218.8491 Z-0.4941
 X218.7995 Z-0.5488
 X218.7498 Z-0.6091
 X218.7002 Z-0.6760
 X218.6754 Z-0.7125
 X218.6630 Z-0.7315
 X218.6506 Z-0.7512
 X218.6010 Z-0.8371
 X218.5514 Z-0.9380
 X218.5266 Z-0.9964
 X218.5018 Z-1.0625
 X218.4522 Z-1.2346
 X218.4274 Z-1.3703
 X218.4150 Z-1.4979
 X218.4119 Z-6.0000
 X194.0971
 X194.0475
 X193.9483 Z-6.0034
 X193.8987 Z-6.0074
 X193.8491 Z-6.0130
 X193.7499 Z-6.0290
 X193.7003 Z-6.0394
 X193.6755 Z-6.0453
 X193.6507 Z-6.0516
 X193.5515 Z-6.0810
 X193.5019 Z-6.0984
 X193.4523 Z-6.1176
 X193.3531 Z-6.1621
 X193.3035 Z-6.1875
 X193.2787 Z-6.2011
 X193.2539 Z-6.2152
 X193.1547 Z-6.2779
 X193.1050 Z-6.3133
 X193.0554 Z-6.3518
 X192.9562 Z-6.4388
 X192.9066 Z-6.4883
 X192.8818 Z-6.5147
 X192.8570 Z-6.5424
 X192.7578 Z-6.6681
 X192.7082 Z-6.7422
 X192.6834 Z-6.7830
 X192.6586 Z-6.8268
 X192.6090 Z-6.9257
 X192.5594 Z-7.0468
 X192.5098 Z-7.2109
 X192.4850 Z-7.3331
 X192.4726 Z-7.4271
 X192.4664 Z-7.5095
 X192.4633 Z-19.0000
 X57.7382
 X57.6390 Z-7.5475
 X57.6142 Z-7.3052
 X57.6018 Z-7.2436
 X57.5894 Z-7.1918
 X57.5646 Z-7.1056
 X57.5522 Z-7.0683
 X57.5460 Z-7.0507
 X57.5398 Z-7.0338
 X57.4902 Z-6.9154
 X57.4406 Z-6.8181
 X57.3910 Z-6.7347
 X57.3662 Z-6.6969
 X57.3414 Z-6.6614
 X57.2918 Z-6.5960
 X57.2422 Z-6.5370
 X57.1926 Z-6.4833
 X57.1678 Z-6.4582
 X57.1430 Z-6.4343
 X57.0438 Z-6.3479
 X56.9942 Z-6.3098
 X56.9446 Z-6.2747
 X56.8453 Z-6.2125
 X56.7957 Z-6.1850
 X56.7709 Z-6.1721
 X56.7461 Z-6.1598
 X56.6469 Z-6.1157
 X56.5973 Z-6.0966
 X56.5477 Z-6.0794
 X56.4485 Z-6.0503
 X56.3989 Z-6.0384
 X56.3493 Z-6.0281
 X55.9525 Z-6.0000
 X31.5974
 X31.5726 Z-1.3703
 X31.5602 Z-1.2942
 X31.5540 Z-1.2629
 X31.5478 Z-1.2346
 X31.4982 Z-1.0625
 X31.4734 Z-0.9964
 X31.4486 Z-0.9380
 X31.3990 Z-0.8371
 X31.3742 Z-0.7926
 X31.3618 Z-0.7716
 X31.3494 Z-0.7512
 X31.2502 Z-0.6091
 X31.2005 Z-0.5488
 X31.1509 Z-0.4941
 X31.0517 Z-0.3984
 X31.0021 Z-0.3563
 X30.9773 Z-0.3365
 X30.9525 Z-0.3175
 X30.8533 Z-0.2488
 X30.8037 Z-0.2185
 X30.7541 Z-0.1906
 X30.6549 Z-0.1414
 X30.6053 Z-0.1199
 X30.5805 Z-0.1099
 X30.5557 Z-0.1004
 X30.4565 Z-0.0671
 X30.4069 Z-0.0530
 X30.3573 Z-0.0407
 X30.2581 Z-0.0211
 X30.2085 Z-0.0137
 X30.1589 Z-0.0080
 X29.7621 Z0.0000
 X1.5875
 Y54.8245
 X29.9605
 X30.0597 Z-0.0011
 X30.1093 Z-0.0038
 X30.1341 Z-0.0057
 X30.1589 Z-0.0080
 X30.2581 Z-0.0211
 X30.3077 Z-0.0301
 X30.3573 Z-0.0407
 X30.4565 Z-0.0671
 X30.5061 Z-0.0828
 X30.5309 Z-0.0914
 X30.5557 Z-0.1004
 X30.6549 Z-0.1414
 X30.7045 Z-0.1649
 X30.7541 Z-0.1906
 X30.8533 Z-0.2488
 X30.9029 Z-0.2818
 X30.9277 Z-0.2993
 X30.9525 Z-0.3175
 X31.0517 Z-0.3984
 X31.1013 Z-0.4442
 X31.1261 Z-0.4686
 X31.1509 Z-0.4941
 X31.2005 Z-0.5488
 X31.2502 Z-0.6091
 X31.2998 Z-0.6760
 X31.3246 Z-0.7125
 X31.3370 Z-0.7315
 X31.3494 Z-0.7512
 X31.3990 Z-0.8371
 X31.4486 Z-0.9380
 X31.4734 Z-0.9964
 X31.4982 Z-1.0625
 X31.5478 Z-1.2346
 X31.5726 Z-1.3703
 X31.5850 Z-1.4979
 X31.5881 Z-6.0000
 X56.0517
 X56.1509 Z-6.0031
 X56.2501 Z-6.0124
 X56.2997 Z-6.0194
 X56.3245 Z-6.0236
 X56.3493 Z-6.0281
 X56.4485 Z-6.0503
 X56.4981 Z-6.0640
 X56.5477 Z-6.0794
 X56.6469 Z-6.1157
 X56.6965 Z-6.1367
 X56.7213 Z-6.1480
 X56.7337 Z-6.1538
 X56.7399 Z-6.1568
 X56.7461 Z-6.1598
 X56.7957 Z-6.1850
 X56.8205 Z-6.1984
 X56.8267 Z-6.2019
 X56.8298 Z-6.2036
 X56.8314 Z-6.2045
 X56.8322 Z-6.2049
 X56.8326 Z-6.2052
 X56.8329 Z-6.2054
 X56.8360 Z-6.2071
 X56.8376 Z-6.2080
 X56.8384 Z-6.2085
 X56.8388 Z-6.2087
 X56.8390 Z-6.2088
 X56.8391
 Z-6.2089
 X56.8453 Z-6.2094
 X193.2539
 X193.3531 Z-6.1621
 X193.4027 Z-6.1389
 X193.4523 Z-6.1176
 X193.5515 Z-6.0810
 X193.6011 Z-6.0654
 X193.6259 Z-6.0583
 X193.6507 Z-6.0516
 X193.7499 Z-6.0290
 X193.8491 Z-6.0130
 X194.0475 Z-6.0000
 X194.4443
 X218.4026
 X218.4274 Z-1.3703
 X218.4398 Z-1.2942
 X218.4460 Z-1.2629
 X218.4522 Z-1.2346
 X218.5018 Z-1.0625
 X218.5266 Z-0.9964
 X218.5514 Z-0.9380
 X218.6010 Z-0.8371
 X218.6258 Z-0.7926
 X218.6382 Z-0.7716
 X218.6506 Z-0.7512
 X218.7498 Z-0.6091
 X218.7995 Z-0.5488
 X218.8491 Z-0.4941
 X218.9483 Z-0.3984
 X218.9979 Z-0.3563
 X219.0227 Z-0.3365
 X219.0475 Z-0.3175
 X219.1467 Z-0.2488
 X219.1963 Z-0.2185
 X219.2459 Z-0.1906
 X219.3451 Z-0.1414
 X219.3947 Z-0.1199
 X219.4195 Z-0.1099
 X219.4443 Z-0.1004
 X219.5435 Z-0.0671
 X219.5931 Z-0.0530
 X219.6427 Z-0.0407
 X219.7419 Z-0.0211
 X219.7915 Z-0.0137
 X219.8411 Z-0.0080
 X220.2379 Z0.0000
 X248.4125
 Y56.0921
 X220.0395
 X219.9403 Z-0.0011
 X219.8907 Z-0.0038
 X219.8659 Z-0.0057
 X219.8411 Z-0.0080
 X219.7419 Z-0.0211
 X219.6923 Z-0.0301
 X219.6427 Z-0.0407
 X219.5435 Z-0.0671
 X219.4939 Z-0.0828
 X219.4691 Z-0.0914
 X219.4443 Z-0.1004
 X219.3451 Z-0.1414
 X219.2955 Z-0.1649
 X219.2459 Z-0.1906
 X219.1467 Z-0.2488
 X219.0971 Z-0.2818
 X219.0723 Z-0.2993
 X219.0475 Z-0.3175
 X218.9483 Z-0.3984
 X218.8987 Z-0.4442
 X218.8739 Z-0.4686
 X218.8491 Z-0.4941
 X218.7995 Z-0.5488
 X218.7498 Z-0.6091
 X218.7002 Z-0.6760
 X218.6754 Z-0.7125
 X218.6630 Z-0.7315
 X218.6506 Z-0.7512
 X218.6010 Z-0.8371
 X218.5514 Z-0.9380
 X218.5266 Z-0.9964
 X218.5018 Z-1.0625
 X218.4522 Z-1.2346
 X218.4274 Z-1.3703
 X218.4150 Z-1.4979
 X218.4119 Z-6.0000
 X31.5974
 X31.5726 Z-1.3703
 X31.5602 Z-1.2942
 X31.5540 Z-1.2629
 X31.5478 Z-1.2346
 X31.4982 Z-1.0625
 X31.4734 Z-0.9964
 X31.4486 Z-0.9380
 X31.3990 Z-0.8371
 X31.3742 Z-0.7926
 X31.3618 Z-0.7716
 X31.3494 Z-0.7512
 X31.2502 Z-0.6091
 X31.2005 Z-0.5488
 X31.1509 Z-0.4941
 X31.0517 Z-0.3984
 X31.0021 Z-0.3563
 X30.9773 Z-0.3365
 X30.9525 Z-0.3175
 X30.8533 Z-0.2488
 X30.8037 Z-0.2185
 X30.7541 Z-0.1906
 X30.6549 Z-0.1414
 X30.6053 Z-0.1199
 X30.5805 Z-0.1099
 X30.5557 Z-0.1004
 X30.4565 Z-0.0671
 X30.4069 Z-0.0530
 X30.3573 Z-0.0407
 X30.2581 Z-0.0211
 X30.2085 Z-0.0137
 X30.1589 Z-0.0080
 X29.7621 Z0.0000
 X1.5875
 Y57.3596
 X29.9605
 X30.0597 Z-0.0011
 X30.1093 Z-0.0038
 X30.1341 Z-0.0057
 X30.1589 Z-0.0080
 X30.2581 Z-0.0211
 X30.3077 Z-0.0301
 X30.3573 Z-0.0407
 X30.4565 Z-0.0671
 X30.5061 Z-0.0828
 X30.5309 Z-0.0914
 X30.5557 Z-0.1004
 X30.6549 Z-0.1414
 X30.7045 Z-0.1649
 X30.7541 Z-0.1906
 X30.8533 Z-0.2488
 X30.9029 Z-0.2818
 X30.9277 Z-0.2993
 X30.9525 Z-0.3175
 X31.0517 Z-0.3984
 X31.1013 Z-0.4442
 X31.1261 Z-0.4686
 X31.1509 Z-0.4941
 X31.2005 Z-0.5488
 X31.2502 Z-0.6091
 X31.2998 Z-0.6760
 X31.3246 Z-0.7125
 X31.3370 Z-0.7315
 X31.3494 Z-0.7512
 X31.3990 Z-0.8371
 X31.4486 Z-0.9380
 X31.4734 Z-0.9964
 X31.4982 Z-1.0625
 X31.5478 Z-1.2346
 X31.5726 Z-1.3703
 X31.5850 Z-1.4979
 X31.5881 Z-6.0000
 X218.4026
 X218.4274 Z-1.3703
 X218.4398 Z-1.2942
 X218.4460 Z-1.2629
 X218.4522 Z-1.2346
 X218.5018 Z-1.0625
 X218.5266 Z-0.9964
 X218.5514 Z-0.9380
 X218.6010 Z-0.8371
 X218.6258 Z-0.7926
 X218.6382 Z-0.7716
 X218.6506 Z-0.7512
 X218.7498 Z-0.6091
 X218.7995 Z-0.5488
 X218.8491 Z-0.4941
 X218.9483 Z-0.3984
 X218.9979 Z-0.3563
 X219.0227 Z-0.3365
 X219.0475 Z-0.3175
 X219.1467 Z-0.2488
 X219.1963 Z-0.2185
 X219.2459 Z-0.1906
 X219.3451 Z-0.1414
 X219.3947 Z-0.1199
 X219.4195 Z-0.1099
 X219.4443 Z-0.1004
 X219.5435 Z-0.0671
 X219.5931 Z-0.0530
 X219.6427 Z-0.0407
 X219.7419 Z-0.0211
 X219.7915 Z-0.0137
 X219.8411 Z-0.0080
 X220.2379 Z0.0000
 X248.4125
 Y58.6272
 X220.0395
 X219.9403 Z-0.0011
 X219.8907 Z-0.0038
 X219.8659 Z-0.0057
 X219.8411 Z-0.0080
 X219.7419 Z-0.0211
 X219.6923 Z-0.0301
 X219.6427 Z-0.0407
 X219.5435 Z-0.0671
 X219.4939 Z-0.0828
 X219.4691 Z-0.0914
 X219.4443 Z-0.1004
 X219.3451 Z-0.1414
 X219.2955 Z-0.1649
 X219.2459 Z-0.1906
 X219.1467 Z-0.2488
 X219.0971 Z-0.2818
 X219.0723 Z-0.2993
 X219.0475 Z-0.3175
 X218.9483 Z-0.3984
 X218.8987 Z-0.4442
 X218.8739 Z-0.4686
 X218.8491 Z-0.4941
 X218.7995 Z-0.5488
 X218.7498 Z-0.6091
 X218.7002 Z-0.6760
 X218.6754 Z-0.7125
 X218.6630 Z-0.7315
 X218.6506 Z-0.7512
 X218.6010 Z-0.8371
 X218.5514 Z-0.9380
 X218.5266 Z-0.9964
 X218.5018 Z-1.0625
 X218.4522 Z-1.2346
 X218.4274 Z-1.3703
 X218.4150 Z-1.4979
 X218.4119 Z-6.0000
 X31.5974
 X31.5726 Z-1.3703
 X31.5602 Z-1.2942
 X31.5540 Z-1.2629
 X31.5478 Z-1.2346
 X31.4982 Z-1.0625
 X31.4734 Z-0.9964
 X31.4486 Z-0.9380
 X31.3990 Z-0.8371
 X31.3742 Z-0.7926
 X31.3618 Z-0.7716
 X31.3494 Z-0.7512
 X31.2502 Z-0.6091
 X31.2005 Z-0.5488
 X31.1509 Z-0.4941
 X31.0517 Z-0.3984
 X31.0021 Z-0.3563
 X30.9773 Z-0.3365
 X30.9525 Z-0.3175
 X30.8533 Z-0.2488
 X30.8037 Z-0.2185
 X30.7541 Z-0.1906
 X30.6549 Z-0.1414
 X30.6053 Z-0.1199
 X30.5805 Z-0.1099
 X30.5557 Z-0.1004
 X30.4565 Z-0.0671
 X30.4069 Z-0.0530
 X30.3573 Z-0.0407
 X30.2581 Z-0.0211
 X30.2085 Z-0.0137
 X30.1589 Z-0.0080
 X29.7621 Z0.0000
 X1.5875
 Y59.8947
 X29.9605
 X30.0597 Z-0.0011
 X30.1093 Z-0.0038
 X30.1341 Z-0.0057
 X30.1589 Z-0.0080
 X30.2581 Z-0.0211
 X30.3077 Z-0.0301
 X30.3573 Z-0.0407
 X30.4565 Z-0.0671
 X30.5061 Z-0.0828
 X30.5309 Z-0.0914
 X30.5557 Z-0.1004
 X30.6549 Z-0.1414
 X30.7045 Z-0.1649
 X30.7541 Z-0.1906
 X30.8533 Z-0.2488
 X30.9029 Z-0.2818
 X30.9277 Z-0.2993
 X30.9525 Z-0.3175
 X31.0517 Z-0.3984
 X31.1013 Z-0.4442
 X31.1261 Z-0.4686
 X31.1509 Z-0.4941
 X31.2005 Z-0.5488
 X31.2502 Z-0.6091
 X31.2998 Z-0.6760
 X31.3246 Z-0.7125
 X31.3370 Z-0.7315
 X31.3494 Z-0.7512
 X31.3990 Z-0.8371
 X31.4486 Z-0.9380
 X31.4734 Z-0.9964
 X31.4982 Z-1.0625
 X31.5478 Z-1.2346
 X31.5726 Z-1.3703
 X31.5850 Z-1.4979
 X31.5881 Z-6.0000
 X218.4026
 X218.4274 Z-1.3703
 X218.4398 Z-1.2942
 X218.4460 Z-1.2629
 X218.4522 Z-1.2346
 X218.5018 Z-1.0625
 X218.5266 Z-0.9964
 X218.5514 Z-0.9380
 X218.6010 Z-0.8371
 X218.6258 Z-0.7926
 X218.6382 Z-0.7716
 X218.6506 Z-0.7512
 X218.7498 Z-0.6091
 X218.7995 Z-0.5488
 X218.8491 Z-0.4941
 X218.9483 Z-0.3984
 X218.9979 Z-0.3563
 X219.0227 Z-0.3365
 X219.0475 Z-0.3175
 X219.1467 Z-0.2488
 X219.1963 Z-0.2185
 X219.2459 Z-0.1906
 X219.3451 Z-0.1414
 X219.3947 Z-0.1199
 X219.4195 Z-0.1099
 X219.4443 Z-0.1004
 X219.5435 Z-0.0671
 X219.5931 Z-0.0530
 X219.6427 Z-0.0407
 X219.7419 Z-0.0211
 X219.7915 Z-0.0137
 X219.8411 Z-0.0080
 X220.2379 Z0.0000
 X248.4125
 Y61.1623
 X220.0395
 X219.9403 Z-0.0011
 X219.8907 Z-0.0038
 X219.8659 Z-0.0057
 X219.8411 Z-0.0080
 X219.7419 Z-0.0211
 X219.6923 Z-0.0301
 X219.6427 Z-0.0407
 X219.5435 Z-0.0671
 X219.4939 Z-0.0828
 X219.4691 Z-0.0914
 X219.4443 Z-0.1004
 X219.3451 Z-0.1414
 X219.2955 Z-0.1649
 X219.2459 Z-0.1906
 X219.1467 Z-0.2488
 X219.0971 Z-0.2818
 X219.0723 Z-0.2993
 X219.0475 Z-0.3175
 X218.9483 Z-0.3984
 X218.8987 Z-0.4442
 X218.8739 Z-0.4686
 X218.8491 Z-0.4941
 X218.7995 Z-0.5488
 X218.7498 Z-0.6091
 X218.7002 Z-0.6760
 X218.6754 Z-0.7125
 X218.6630 Z-0.7315
 X218.6506 Z-0.7512
 X218.6010 Z-0.8371
 X218.5514 Z-0.9380
 X218.5266 Z-0.9964
 X218.5018 Z-1.0625
 X218.4522 Z-1.2346
 X218.4274 Z-1.3703
 X218.4150 Z-1.4979
 X218.4119 Z-6.0000
 X31.5974
 X31.5726 Z-1.3703
 X31.5602 Z-1.2942
 X31.5540 Z-1.2629
 X31.5478 Z-1.2346
 X31.4982 Z-1.0625
 X31.4734 Z-0.9964
 X31.4486 Z-0.9380
 X31.3990 Z-0.8371
 X31.3742 Z-0.7926
 X31.3618 Z-0.7716
 X31.3494 Z-0.7512
 X31.2502 Z-0.6091
 X31.2005 Z-0.5488
 X31.1509 Z-0.4941
 X31.0517 Z-0.3984
 X31.0021 Z-0.3563
 X30.9773 Z-0.3365
 X30.9525 Z-0.3175
 X30.8533 Z-0.2488
 X30.8037 Z-0.2185
 X30.7541 Z-0.1906
 X30.6549 Z-0.1414
 X30.6053 Z-0.1199
 X30.5805 Z-0.1099
 X30.5557 Z-0.1004
 X30.4565 Z-0.0671
 X30.4069 Z-0.0530
 X30.3573 Z-0.0407
 X30.2581 Z-0.0211
 X30.2085 Z-0.0137
 X30.1589 Z-0.0080
 X29.7621 Z0.0000
 X1.5875
 Y62.4298
 X29.9605
 X30.0597 Z-0.0011
 X30.1093 Z-0.0038
 X30.1341 Z-0.0057
 X30.1589 Z-0.0080
 X30.2581 Z-0.0211
 X30.3077 Z-0.0301
 X30.3573 Z-0.0407
 X30.4565 Z-0.0671
 X30.5061 Z-0.0828
 X30.5309 Z-0.0914
 X30.5557 Z-0.1004
 X30.6549 Z-0.1414
 X30.7045 Z-0.1649
 X30.7541 Z-0.1906
 X30.8533 Z-0.2488
 X30.9029 Z-0.2818
 X30.9277 Z-0.2993
 X30.9525 Z-0.3175
 X31.0517 Z-0.3984
 X31.1013 Z-0.4442
 X31.1261 Z-0.4686
 X31.1509 Z-0.4941
 X31.2005 Z-0.5488
 X31.2502 Z-0.6091
 X31.2998 Z-0.6760
 X31.3246 Z-0.7125
 X31.3370 Z-0.7315
 X31.3494 Z-0.7512
 X31.3990 Z-0.8371
 X31.4486 Z-0.9380
 X31.4734 Z-0.9964
 X31.4982 Z-1.0625
 X31.5478 Z-1.2346
 X31.5726 Z-1.3703
 X31.5850 Z-1.4979
 X31.5881 Z-6.0000
 X218.4026
 X218.4274 Z-1.3703
 X218.4398 Z-1.2942
 X218.4460 Z-1.2629
 X218.4522 Z-1.2346
 X218.5018 Z-1.0625
 X218.5266 Z-0.9964
 X218.5514 Z-0.9380
 X218.6010 Z-0.8371
 X218.6258 Z-0.7926
 X218.6382 Z-0.7716
 X218.6506 Z-0.7512
 X218.7498 Z-0.6091
 X218.7995 Z-0.5488
 X218.8491 Z-0.4941
 X218.9483 Z-0.3984
 X218.9979 Z-0.3563
 X219.0227 Z-0.3365
 X219.0475 Z-0.3175
 X219.1467 Z-0.2488
 X219.1963 Z-0.2185
 X219.2459 Z-0.1906
 X219.3451 Z-0.1414
 X219.3947 Z-0.1199
 X219.4195 Z-0.1099
 X219.4443 Z-0.1004
 X219.5435 Z-0.0671
 X219.5931 Z-0.0530
 X219.6427 Z-0.0407
 X219.7419 Z-0.0211
 X219.7915 Z-0.0137
 X219.8411 Z-0.0080
 X220.2379 Z0.0000
 X248.4125
 Y63.6974
 X220.0395
 X219.9403 Z-0.0011
 X219.8907 Z-0.0038
 X219.8659 Z-0.0057
 X219.8411 Z-0.0080
 X219.7419 Z-0.0211
 X219.6923 Z-0.0301
 X219.6427 Z-0.0407
 X219.5435 Z-0.0671
 X219.4939 Z-0.0828
 X219.4691 Z-0.0914
 X219.4443 Z-0.1004
 X219.3451 Z-0.1414
 X219.2955 Z-0.1649
 X219.2459 Z-0.1906
 X219.1467 Z-0.2488
 X219.0971 Z-0.2818
 X219.0723 Z-0.2993
 X219.0475 Z-0.3175
 X218.9483 Z-0.3984
 X218.8987 Z-0.4442
 X218.8739 Z-0.4686
 X218.8491 Z-0.4941
 X218.7995 Z-0.5488
 X218.7498 Z-0.6091
 X218.7002 Z-0.6760
 X218.6754 Z-0.7125
 X218.6630 Z-0.7315
 X218.6506 Z-0.7512
 X218.6010 Z-0.8371
 X218.5514 Z-0.9380
 X218.5266 Z-0.9964
 X218.5018 Z-1.0625
 X218.4522 Z-1.2346
 X218.4274 Z-1.3703
 X218.4150 Z-1.4979
 X218.4119 Z-6.0000
 X31.5974
 X31.5726 Z-1.3703
 X31.5602 Z-1.2942
 X31.5540 Z-1.2629
 X31.5478 Z-1.2346
 X31.4982 Z-1.0625
 X31.4734 Z-0.9964
 X31.4486 Z-0.9380
 X31.3990 Z-0.8371
 X31.3742 Z-0.7926
 X31.3618 Z-0.7716
 X31.3494 Z-0.7512
 X31.2502 Z-0.6091
 X31.2005 Z-0.5488
 X31.1509 Z-0.4941
 X31.0517 Z-0.3984
 X31.0021 Z-0.3563
 X30.9773 Z-0.3365
 X30.9525 Z-0.3175
 X30.8533 Z-0.2488
 X30.8037 Z-0.2185
 X30.7541 Z-0.1906
 X30.6549 Z-0.1414
 X30.6053 Z-0.1199
 X30.5805 Z-0.1099
 X30.5557 Z-0.1004
 X30.4565 Z-0.0671
 X30.4069 Z-0.0530
 X30.3573 Z-0.0407
 X30.2581 Z-0.0211
 X30.2085 Z-0.0137
 X30.1589 Z-0.0080
 X29.7621 Z0.0000
 X1.5875
 Y64.9649
 X29.9605
 X30.0597 Z-0.0011
 X30.1093 Z-0.0038
 X30.1341 Z-0.0057
 X30.1589 Z-0.0080
 X30.2581 Z-0.0211
 X30.3077 Z-0.0301
 X30.3573 Z-0.0407
 X30.4565 Z-0.0671
 X30.5061 Z-0.0828
 X30.5309 Z-0.0914
 X30.5557 Z-0.1004
 X30.6549 Z-0.1414
 X30.7045 Z-0.1649
 X30.7541 Z-0.1906
 X30.8533 Z-0.2488
 X30.9029 Z-0.2818
 X30.9277 Z-0.2993
 X30.9525 Z-0.3175
 X31.0517 Z-0.3984
 X31.1013 Z-0.4442
 X31.1261 Z-0.4686
 X31.1509 Z-0.4941
 X31.2005 Z-0.5488
 X31.2502 Z-0.6091
 X31.2998 Z-0.6760
 X31.3246 Z-0.7125
 X31.3370 Z-0.7315
 X31.3494 Z-0.7512
 X31.3990 Z-0.8371
 X31.4486 Z-0.9380
 X31.4734 Z-0.9964
 X31.4982 Z-1.0625
 X31.5478 Z-1.2346
 X31.5726 Z-1.3703
 X31.5850 Z-1.4979
 X31.5881 Z-6.0000
 X55.9525
 X56.3493 Z-6.0281
 X56.7461 Z-6.0396
 X193.6507
 X193.8491 Z-6.0130
 X194.0475 Z-6.0000
 X194.4443
 X218.4026
 X218.4274 Z-1.3703
 X218.4398 Z-1.2942
 X218.4460 Z-1.2629
 X218.4522 Z-1.2346
 X218.5018 Z-1.0625
 X218.5266 Z-0.9964
 X218.5514 Z-0.9380
 X218.6010 Z-0.8371
 X218.6258 Z-0.7926
 X218.6382 Z-0.7716
 X218.6506 Z-0.7512
 X218.7498 Z-0.6091
 X218.7995 Z-0.5488
 X218.8491 Z-0.4941
 X218.9483 Z-0.3984
 X218.9979 Z-0.3563
 X219.0227 Z-0.3365
 X219.0475 Z-0.3175
 X219.1467 Z-0.2488
 X219.1963 Z-0.2185
 X219.2459 Z-0.1906
 X219.3451 Z-0.1414
 X219.3947 Z-0.1199
 X219.4195 Z-0.1099
 X219.4443 Z-0.1004
 X219.5435 Z-0.0671
 X219.5931 Z-0.0530
 X219.6427 Z-0.0407
 X219.7419 Z-0.0211
 X219.7915 Z-0.0137
 X219.8411 Z-0.0080
 X220.2379 Z0.0000
 X248.4125
 Y66.2325
 X220.0395
 X219.9403 Z-0.0011
 X219.8907 Z-0.0038
 X219.8659 Z-0.0057
 X219.8411 Z-0.0080
 X219.7419 Z-0.0211
 X219.6923 Z-0.0301
 X219.6427 Z-0.0407
 X219.5435 Z-0.0671
 X219.4939 Z-0.0828
 X219.4691 Z-0.0914
 X219.4443 Z-0.1004
 X219.3451 Z-0.1414
 X219.2955 Z-0.1649
 X219.2459 Z-0.1906
 X219.1467 Z-0.2488
 X219.0971 Z-0.2818
 X219.0723 Z-0.2993
 X219.0475 Z-0.3175
 X218.9483 Z-0.3984
 X218.8987 Z-0.4442
 X218.8739 Z-0.4686
 X218.8491 Z-0.4941
 X218.7995 Z-0.5488
 X218.7498 Z-0.6091
 X218.7002 Z-0.6760
 X218.6754 Z-0.7125
 X218.6630 Z-0.7315
 X218.6506 Z-0.7512
 X218.6010 Z-0.8371
 X218.5514 Z-0.9380
 X218.5266 Z-0.9964
 X218.5018 Z-1.0625
 X218.4522 Z-1.2346
 X218.4274 Z-1.3703
 X218.4150 Z-1.4979
 X218.4119 Z-6.0000
 X194.0971
 X194.0475
 X193.9483 Z-6.0034
 X193.8987 Z-6.0074
 X193.8491 Z-6.0130
 X193.7499 Z-6.0290
 X193.7003 Z-6.0394
 X193.6755 Z-6.0453
 X193.6507 Z-6.0516
 X193.5515 Z-6.0810
 X193.5019 Z-6.0984
 X193.4523 Z-6.1176
 X193.3531 Z-6.1621
 X193.3035 Z-6.1875
 X193.2787 Z-6.2011
 X193.2539 Z-6.2152
 X193.1547 Z-6.2779
 X193.1050 Z-6.3133
 X193.0554 Z-6.3518
 X192.9562 Z-6.4388
 X192.9066 Z-6.4883
 X192.8818 Z-6.5147
 X192.8570 Z-6.5424
 X192.7578 Z-6.6681
 X192.7082 Z-6.7422
 X192.6834 Z-6.7830
 X192.6586 Z-6.8268
 X192.6090 Z-6.9257
 X192.5594 Z-7.0468
 X192.5098 Z-7.2109
 X192.4850 Z-7.3331
 X192.4726 Z-7.4271
 X192.4664 Z-7.5095
 X192.4633 Z-19.0000
 X57.7382
 X57.6390 Z-7.5475
 X57.6142 Z-7.3052
 X57.6018 Z-7.2436
 X57.5894 Z-7.1918
 X57.5646 Z-7.1056
 X57.5522 Z-7.0683
 X57.5460 Z-7.0507
 X57.5398 Z-7.0338
 X57.4902 Z-6.9154
 X57.4406 Z-6.8181
 X57.3910 Z-6.7347
 X57.3662 Z-6.6969
 X57.3414 Z-6.6614
 X57.2918 Z-6.5960
 X57.2422 Z-6.5370
 X57.1926 Z-6.4833
 X57.1678 Z-6.4582
 X57.1430 Z-6.4343
 X57.0438 Z-6.3479
 X56.9942 Z-6.3098
 X56.9446 Z-6.2747
 X56.8453 Z-6.2125
 X56.7957 Z-6.1850
 X56.7709 Z-6.1721
 X56.7461 Z-6.1598
 X56.6469 Z-6.1157
 X56.5973 Z-6.0966
 X56.5477 Z-6.0794
 X56.4485 Z-6.0503
 X56.3989 Z-6.0384
 X56.3493 Z-6.0281
 X55.9525 Z-6.0000
 X31.5974
 X31.5726 Z-1.3703
 X31.5602 Z-1.2942
 X31.5540 Z-1.2629
 X31.5478 Z-1.2346
 X31.4982 Z-1.0625
 X31.4734 Z-0.9964
 X31.4486 Z-0.9380
 X31.3990 Z-0.8371
 X31.3742 Z-0.7926
 X31.3618 Z-0.7716
 X31.3494 Z-0.7512
 X31.2502 Z-0.6091
 X31.2005 Z-0.5488
 X31.1509 Z-0.4941
 X31.0517 Z-0.3984
 X31.0021 Z-0.3563
 X30.9773 Z-0.3365
 X30.9525 Z-0.3175
 X30.8533 Z-0.2488
 X30.8037 Z-0.2185
 X30.7541 Z-0.1906
 X30.6549 Z-0.1414
 X30.6053 Z-0.1199
 X30.5805 Z-0.1099
 X30.5557 Z-0.1004
 X30.4565 Z-0.0671
 X30.4069 Z-0.0530
 X30.3573 Z-0.0407
 X30.2581 Z-0.0211
 X30.2085 Z-0.0137
 X30.1589 Z-0.0080
 X29.7621 Z0.0000
 X1.5875
 Y67.5000
 X29.9605
 X30.0597 Z-0.0011
 X30.1093 Z-0.0038
 X30.1341 Z-0.0057
 X30.1589 Z-0.0080
 X30.2581 Z-0.0211
 X30.3077 Z-0.0301
 X30.3573 Z-0.0407
 X30.4565 Z-0.0671
 X30.5061 Z-0.0828
 X30.5309 Z-0.0914
 X30.5557 Z-0.1004
 X30.6549 Z-0.1414
 X30.7045 Z-0.1649
 X30.7541 Z-0.1906
 X30.8533 Z-0.2488
 X30.9029 Z-0.2818
 X30.9277 Z-0.2993
 X30.9525 Z-0.3175
 X31.0517 Z-0.3984
 X31.1013 Z-0.4442
 X31.1261 Z-0.4686
 X31.1509 Z-0.4941
 X31.2005 Z-0.5488
 X31.2502 Z-0.6091
 X31.2998 Z-0.6760
 X31.3246 Z-0.7125
 X31.3370 Z-0.7315
 X31.3494 Z-0.7512
 X31.3990 Z-0.8371
 X31.4486 Z-0.9380
 X31.4734 Z-0.9964
 X31.4982 Z-1.0625
 X31.5478 Z-1.2346
 X31.5726 Z-1.3703
 X31.5850 Z-1.4979
 X31.5881 Z-6.0000
 X56.0517
 X56.1509 Z-6.0031
 X56.2501 Z-6.0124
 X56.2997 Z-6.0194
 X56.3245 Z-6.0236
 X56.3493 Z-6.0281
 X56.4485 Z-6.0503
 X56.4981 Z-6.0640
 X56.5477 Z-6.0794
 X56.6469 Z-6.1157
 X56.6965 Z-6.1367
 X56.7213 Z-6.1480
 X56.7461 Z-6.1598
 X56.8453 Z-6.2125
 X56.8950 Z-6.2423
 X56.9446 Z-6.2747
 X57.0438 Z-6.3479
 X57.0934 Z-6.3893
 X57.1182 Z-6.4113
 X57.1306 Z-6.4227
 X57.1430 Z-6.4343
 X57.2422 Z-6.5370
 X57.2918 Z-6.5960
 X57.3166 Z-6.6278
 X57.3414 Z-6.6614
 X57.3910 Z-6.7347
 X57.4158 Z-6.7749
 X57.4406 Z-6.8181
 X57.4902 Z-6.9154
 X57.5398 Z-7.0338
 X57.6390 Z-7.5475
 X57.6452 Z-19.0000
 X192.4602
 X192.5594 Z-7.0468
 X192.6090 Z-6.9257
 X192.6338 Z-6.8741
 X192.6586 Z-6.8268
 X192.7082 Z-6.7422
 X192.7578 Z-6.6681
 X192.8074 Z-6.6020
 X192.8322 Z-6.5715
 X192.8570 Z-6.5424
 X192.9562 Z-6.4388
 X193.0058 Z-6.3935
 X193.0554 Z-6.3518
 X193.1547 Z-6.2779
 X193.2043 Z-6.2453
 X193.2291 Z-6.2300
 X193.2539 Z-6.2152
 X193.3531 Z-6.1621
 X193.4027 Z-6.1389
 X193.4523 Z-6.1176
 X193.5515 Z-6.0810
 X193.6011 Z-6.0654
 X193.6259 Z-6.0583
 X193.6507 Z-6.0516
 X193.7499 Z-6.0290
 X193.8491 Z-6.0130
 X194.0475 Z-6.0000
 X194.4443
 X218.4026
 X218.4274 Z-1.3703
 X218.4398 Z-1.2942
 X218.4460 Z-1.2629
 X218.4522 Z-1.2346
 X218.5018 Z-1.0625
 X218.5266 Z-0.9964
 X218.5514 Z-0.9380
 X218.6010 Z-0.8371
 X218.6258 Z-0.7926
 X218.6382 Z-0.7716
 X218.6506 Z-0.7512
 X218.7498 Z-0.6091
 X218.7995 Z-0.5488
 X218.8491 Z-0.4941
 X218.9483 Z-0.3984
 X218.9979 Z-0.3563
 X219.0227 Z-0.3365
 X219.0475 Z-0.3175
 X219.1467 Z-0.2488
 X219.1963 Z-0.2185
 X219.2459 Z-0.1906
 X219.3451 Z-0.1414
 X219.3947 Z-0.1199
 X219.4195 Z-0.1099
 X219.4443 Z-0.1004
 X219.5435 Z-0.0671
 X219.5931 Z-0.0530
 X219.6427 Z-0.0407
 X219.7419 Z-0.0211
 X219.7915 Z-0.0137
 X219.8411 Z-0.0080
 X220.2379 Z0.0000
 X248.4125
 Y68.7675
 X220.0395
 X219.9403 Z-0.0011
 X219.8907 Z-0.0038
 X219.8659 Z-0.0057
 X219.8411 Z-0.0080
 X219.7419 Z-0.0211
 X219.6923 Z-0.0301
 X219.6427 Z-0.0407
 X219.5435 Z-0.0671
 X219.4939 Z-0.0828
 X219.4691 Z-0.0914
 X219.4443 Z-0.1004
 X219.3451 Z-0.1414
 X219.2955 Z-0.1649
 X219.2459 Z-0.1906
 X219.1467 Z-0.2488
 X219.0971 Z-0.2818
 X219.0723 Z-0.2993
 X219.0475 Z-0.3175
 X218.9483 Z-0.3984
 X218.8987 Z-0.4442
 X218.8739 Z-0.4686
 X218.8491 Z-0.4941
 X218.7995 Z-0.5488
 X218.7498 Z-0.6091
 X218.7002 Z-0.6760
 X218.6754 Z-0.7125
 X218.6630 Z-0.7315
 X218.6506 Z-0.7512
 X218.6010 Z-0.8371
 X218.5514 Z-0.9380
 X218.5266 Z-0.9964
 X218.5018 Z-1.0625
 X218.4522 Z-1.2346
 X218.4274 Z-1.3703
 X218.4150 Z-1.4979
 X218.4119 Z-6.0000
 X194.0971
 X194.0475
 X193.9483 Z-6.0034
 X193.8987 Z-6.0074
 X193.8491 Z-6.0130
 X193.7499 Z-6.0290
 X193.7003 Z-6.0394
 X193.6755 Z-6.0453
 X193.6507 Z-6.0516
 X193.5515 Z-6.0810
 X193.5019 Z-6.0984
 X193.4523 Z-6.1176
 X193.3531 Z-6.1621
 X193.3035 Z-6.1875
 X193.2787 Z-6.2011
 X193.2539 Z-6.2152
 X193.1547 Z-6.2779
 X193.1050 Z-6.3133
 X193.0554 Z-6.3518
 X192.9562 Z-6.4388
 X192.9066 Z-6.4883
 X192.8818 Z-6.5147
 X192.8570 Z-6.5424
 X192.7578 Z-6.6681
 X192.7082 Z-6.7422
 X192.6834 Z-6.7830
 X192.6586 Z-6.8268
 X192.6090 Z-6.9257
 X192.5594 Z-7.0468
 X192.5098 Z-7.2109
 X192.4850 Z-7.3331
 X192.4726 Z-7.4271
 X192.4664 Z-7.5095
 X192.4633 Z-19.0000
 X57.7382
 X57.6390 Z-7.5475
 X57.6142 Z-7.3052
 X57.6018 Z-7.2436
 X57.5894 Z-7.1918
 X57.5646 Z-7.1056
 X57.5522 Z-7.0683
 X57.5460 Z-7.0507
 X57.5398 Z-7.0338
 X57.4902 Z-6.9154
 X57.4406 Z-6.8181
 X57.3910 Z-6.7347
 X57.3662 Z-6.6969
 X57.3414 Z-6.6614
 X57.2918 Z-6.5960
 X57.2422 Z-6.5370
 X57.1926 Z-6.4833
 X57.1678 Z-6.4582
 X57.1430 Z-6.4343
 X57.0438 Z-6.3479
 X56.9942 Z-6.3098
 X56.9446 Z-6.2747
 X56.8453 Z-6.2125
 X56.7957 Z-6.1850
 X56.7709 Z-6.1721
 X56.7461 Z-6.1598
 X56.6469 Z-6.1157
 X56.5973 Z-6.0966
 X56.5477 Z-6.0794
 X56.4485 Z-6.0503
 X56.3989 Z-6.0384
 X56.3493 Z-6.0281
 X55.9525 Z-6.0000
 X31.5974
 X31.5726 Z-1.3703
 X31.5602 Z-1.2942
 X31.5540 Z-1.2629
 X31.5478 Z-1.2346
 X31.4982 Z-1.0625
 X31.4734 Z-0.9964
 X31.4486 Z-0.9380
 X31.3990 Z-0.8371
 X31.3742 Z-0.7926
 X31.3618 Z-0.7716
 X31.3494 Z-0.7512
 X31.2502 Z-0.6091
 X31.2005 Z-0.5488
 X31.1509 Z-0.4941
 X31.0517 Z-0.3984
 X31.0021 Z-0.3563
 X30.9773 Z-0.3365
 X30.9525 Z-0.3175
 X30.8533 Z-0.2488
 X30.8037 Z-0.2185
 X30.7541 Z-0.1906
 X30.6549 Z-0.1414
 X30.6053 Z-0.1199
 X30.5805 Z-0.1099
 X30.5557 Z-0.1004
 X30.4565 Z-0.0671
 X30.4069 Z-0.0530
 X30.3573 Z-0.0407
 X30.2581 Z-0.0211
 X30.2085 Z-0.0137
 X30.1589 Z-0.0080
 X29.7621 Z0.0000
 X1.5875
 Y70.0351
 X29.9605
 X30.0597 Z-0.0011
 X30.1093 Z-0.0038
 X30.1341 Z-0.0057
 X30.1589 Z-0.0080
 X30.2581 Z-0.0211
 X30.3077 Z-0.0301
 X30.3573 Z-0.0407
 X30.4565 Z-0.0671
 X30.5061 Z-0.0828
 X30.5309 Z-0.0914
 X30.5557 Z-0.1004
 X30.6549 Z-0.1414
 X30.7045 Z-0.1649
 X30.7541 Z-0.1906
 X30.8533 Z-0.2488
 X30.9029 Z-0.2818
 X30.9277 Z-0.2993
 X30.9525 Z-0.3175
 X31.0517 Z-0.3984
 X31.1013 Z-0.4442
 X31.1261 Z-0.4686
 X31.1509 Z-0.4941
 X31.2005 Z-0.5488
 X31.2502 Z-0.6091
 X31.2998 Z-0.6760
 X31.3246 Z-0.7125
 X31.3370 Z-0.7315
 X31.3494 Z-0.7512
 X31.3990 Z-0.8371
 X31.4486 Z-0.9380
 X31.4734 Z-0.9964
 X31.4982 Z-1.0625
 X31.5478 Z-1.2346
 X31.5726 Z-1.3703
 X31.5850 Z-1.4979
 X31.5881 Z-6.0000
 X56.0517
 X56.1509 Z-6.0031
 X56.3493 Z-6.0281
 X56.4485 Z-6.0503
 X56.4981 Z-6.0640
 X56.5229 Z-6.0715
 X56.5353 Z-6.0754
 X56.5477 Z-6.0794
 X56.5973 Z-6.0966
 X56.6097 Z-6.1012
 X56.6159 Z-6.1035
 X56.6190 Z-6.1047
 X56.6206 Z-6.1053
 X56.6214 Z-6.1056
 X56.6221 Z-6.1059
 X56.6252 Z-6.1071
 X56.6268 Z-6.1077
 X56.6276 Z-6.1080
 X56.6279 Z-6.1082
 X56.6281
 X56.6282 Z-6.1083
 X56.6283
 X56.6291 Z-6.1086
 X56.6295 Z-6.1088
 X56.6299
 X193.2539
 X193.6507 Z-6.0516
 X193.7499 Z-6.0290
 X193.8491 Z-6.0130
 X194.0475 Z-6.0000
 X194.4443
 X218.4026
 X218.4274 Z-1.3703
 X218.4398 Z-1.2942
 X218.4460 Z-1.2629
 X218.4522 Z-1.2346
 X218.5018 Z-1.0625
 X218.5266 Z-0.9964
 X218.5514 Z-0.9380
 X218.6010 Z-0.8371
 X218.6258 Z-0.7926
 X218.6382 Z-0.7716
 X218.6506 Z-0.7512
 X218.7498 Z-0.6091
 X218.7995 Z-0.5488
 X218.8491 Z-0.4941
 X218.9483 Z-0.3984
 X218.9979 Z-0.3563
 X219.0227 Z-0.3365
 X219.0475 Z-0.3175
 X219.1467 Z-0.2488
 X219.1963 Z-0.2185
 X219.2459 Z-0.1906
 X219.3451 Z-0.1414
 X219.3947 Z-0.1199
 X219.4195 Z-0.1099
 X219.4443 Z-0.1004
 X219.5435 Z-0.0671
 X219.5931 Z-0.0530
 X219.6427 Z-0.0407
 X219.7419 Z-0.0211
 X219.7915 Z-0.0137
 X219.8411 Z-0.0080
 X220.2379 Z0.0000
 X248.4125
 Y71.3026
 X220.0395
 X219.9403 Z-0.0011
 X219.8907 Z-0.0038
 X219.8659 Z-0.0057
 X219.8411 Z-0.0080
 X219.7419 Z-0.0211
 X219.6923 Z-0.0301
 X219.6427 Z-0.0407
 X219.5435 Z-0.0671
 X219.4939 Z-0.0828
 X219.4691 Z-0.0914
 X219.4443 Z-0.1004
 X219.3451 Z-0.1414
 X219.2955 Z-0.1649
 X219.2459 Z-0.1906
 X219.1467 Z-0.2488
 X219.0971 Z-0.2818
 X219.0723 Z-0.2993
 X219.0475 Z-0.3175
 X218.9483 Z-0.3984
 X218.8987 Z-0.4442
 X218.8739 Z-0.4686
 X218.8491 Z-0.4941
 X218.7995 Z-0.5488
 X218.7498 Z-0.6091
 X218.7002 Z-0.6760
 X218.6754 Z-0.7125
 X218.6630 Z-0.7315
 X218.6506 Z-0.7512
 X218.6010 Z-0.8371
 X218.5514 Z-0.9380
 X218.5266 Z-0.9964
 X218.5018 Z-1.0625
 X218.4522 Z-1.2346
 X218.4274 Z-1.3703
 X218.4150 Z-1.4979
 X218.4119 Z-6.0000
 X31.5974
 X31.5726 Z-1.3703
 X31.5602 Z-1.2942
 X31.5540 Z-1.2629
 X31.5478 Z-1.2346
 X31.4982 Z-1.0625
 X31.4734 Z-0.9964
 X31.4486 Z-0.9380
 X31.3990 Z-0.8371
 X31.3742 Z-0.7926
 X31.3618 Z-0.7716
 X31.3494 Z-0.7512
 X31.2502 Z-0.6091
 X31.2005 Z-0.5488
 X31.1509 Z-0.4941
 X31.0517 Z-0.3984
 X31.0021 Z-0.3563
 X30.9773 Z-0.3365
 X30.9525 Z-0.3175
 X30.8533 Z-0.2488
 X30.8037 Z-0.2185
 X30.7541 Z-0.1906
 X30.6549 Z-0.1414
 X30.6053 Z-0.1199
 X30.5805 Z-0.1099
 X30.5557 Z-0.1004
 X30.4565 Z-0.0671
 X30.4069 Z-0.0530
 X30.3573 Z-0.0407
 X30.2581 Z-0.0211
 X30.2085 Z-0.0137
 X30.1589 Z-0.0080
 X29.7621 Z0.0000
 X1.5875
 Y72.5702
 X29.9605
 X30.0597 Z-0.0011
 X30.1093 Z-0.0038
 X30.1341 Z-0.0057
 X30.1589 Z-0.0080
 X30.2581 Z-0.0211
 X30.3077 Z-0.0301
 X30.3573 Z-0.0407
 X30.4565 Z-0.0671
 X30.5061 Z-0.0828
 X30.5309 Z-0.0914
 X30.5557 Z-0.1004
 X30.6549 Z-0.1414
 X30.7045 Z-0.1649
 X30.7541 Z-0.1906
 X30.8533 Z-0.2488
 X30.9029 Z-0.2818
 X30.9277 Z-0.2993
 X30.9525 Z-0.3175
 X31.0517 Z-0.3984
 X31.1013 Z-0.4442
 X31.1261 Z-0.4686
 X31.1509 Z-0.4941
 X31.2005 Z-0.5488
 X31.2502 Z-0.6091
 X31.2998 Z-0.6760
 X31.3246 Z-0.7125
 X31.3370 Z-0.7315
 X31.3494 Z-0.7512
 X31.3990 Z-0.8371
 X31.4486 Z-0.9380
 X31.4734 Z-0.9964
 X31.4982 Z-1.0625
 X31.5478 Z-1.2346
 X31.5726 Z-1.3703
 X31.5850 Z-1.4979
 X31.5881 Z-6.0000
 X218.4026
 X218.4274 Z-1.3703
 X218.4398 Z-1.2942
 X218.4460 Z-1.2629
 X218.4522 Z-1.2346
 X218.5018 Z-1.0625
 X218.5266 Z-0.9964
 X218.5514 Z-0.9380
 X218.6010 Z-0.8371
 X218.6258 Z-0.7926
 X218.6382 Z-0.7716
 X218.6506 Z-0.7512
 X218.7498 Z-0.6091
 X218.7995 Z-0.5488
 X218.8491 Z-0.4941
 X218.9483 Z-0.3984
 X218.9979 Z-0.3563
 X219.0227 Z-0.3365
 X219.0475 Z-0.3175
 X219.1467 Z-0.2488
 X219.1963 Z-0.2185
 X219.2459 Z-0.1906
 X219.3451 Z-0.1414
 X219.3947 Z-0.1199
 X219.4195 Z-0.1099
 X219.4443 Z-0.1004
 X219.5435 Z-0.0671
 X219.5931 Z-0.0530
 X219.6427 Z-0.0407
 X219.7419 Z-0.0211
 X219.7915 Z-0.0137
 X219.8411 Z-0.0080
 X220.2379 Z0.0000
 X248.4125
 Y73.8377
 X220.0395
 X219.9403 Z-0.0011
 X219.8907 Z-0.0038
 X219.8659 Z-0.0057
 X219.8411 Z-0.0080
 X219.7419 Z-0.0211
 X219.6923 Z-0.0301
 X219.6427 Z-0.0407
 X219.5435 Z-0.0671
 X219.4939 Z-0.0828
 X219.4691 Z-0.0914
 X219.4443 Z-0.1004
 X219.3451 Z-0.1414
 X219.2955 Z-0.1649
 X219.2459 Z-0.1906
 X219.1467 Z-0.2488
 X219.0971 Z-0.2818
 X219.0723 Z-0.2993
 X219.0475 Z-0.3175
 X218.9483 Z-0.3984
 X218.8987 Z-0.4442
 X218.8739 Z-0.4686
 X218.8491 Z-0.4941
 X218.7995 Z-0.5488
 X218.7498 Z-0.6091
 X218.7002 Z-0.6760
 X218.6754 Z-0.7125
 X218.6630 Z-0.7315
 X218.6506 Z-0.7512
 X218.6010 Z-0.8371
 X218.5514 Z-0.9380
 X218.5266 Z-0.9964
 X218.5018 Z-1.0625
 X218.4522 Z-1.2346
 X218.4274 Z-1.3703
 X218.4150 Z-1.4979
 X218.4119 Z-6.0000
 X31.5974
 X31.5726 Z-1.3703
 X31.5602 Z-1.2942
 X31.5540 Z-1.2629
 X31.5478 Z-1.2346
 X31.4982 Z-1.0625
 X31.4734 Z-0.9964
 X31.4486 Z-0.9380
 X31.3990 Z-0.8371
 X31.3742 Z-0.7926
 X31.3618 Z-0.7716
 X31.3494 Z-0.7512
 X31.2502 Z-0.6091
 X31.2005 Z-0.5488
 X31.1509 Z-0.4941
 X31.0517 Z-0.3984
 X31.0021 Z-0.3563
 X30.9773 Z-0.3365
 X30.9525 Z-0.3175
 X30.8533 Z-0.2488
 X30.8037 Z-0.2185
 X30.7541 Z-0.1906
 X30.6549 Z-0.1414
 X30.6053 Z-0.1199
 X30.5805 Z-0.1099
 X30.5557 Z-0.1004
 X30.4565 Z-0.0671
 X30.4069 Z-0.0530
 X30.3573 Z-0.0407
 X30.2581 Z-0.0211
 X30.2085 Z-0.0137
 X30.1589 Z-0.0080
 X29.7621 Z0.0000
 X1.5875
 Y75.1053
 X29.9605
 X30.0597 Z-0.0011
 X30.1093 Z-0.0038
 X30.1341 Z-0.0057
 X30.1589 Z-0.0080
 X30.2581 Z-0.0211
 X30.3077 Z-0.0301
 X30.3573 Z-0.0407
 X30.4565 Z-0.0671
 X30.5061 Z-0.0828
 X30.5309 Z-0.0914
 X30.5557 Z-0.1004
 X30.6549 Z-0.1414
 X30.7045 Z-0.1649
 X30.7541 Z-0.1906
 X30.8533 Z-0.2488
 X30.9029 Z-0.2818
 X30.9277 Z-0.2993
 X30.9525 Z-0.3175
 X31.0517 Z-0.3984
 X31.1013 Z-0.4442
 X31.1261 Z-0.4686
 X31.1509 Z-0.4941
 X31.2005 Z-0.5488
 X31.2502 Z-0.6091
 X31.2998 Z-0.6760
 X31.3246 Z-0.7125
 X31.3370 Z-0.7315
 X31.3494 Z-0.7512
 X31.3990 Z-0.8371
 X31.4486 Z-0.9380
 X31.4734 Z-0.9964
 X31.4982 Z-1.0625
 X31.5478 Z-1.2346
 X31.5726 Z-1.3703
 X31.5850 Z-1.4979
 X31.5881 Z-6.0000
 X218.4026
 X218.4274 Z-1.3703
 X218.4398 Z-1.2942
 X218.4460 Z-1.2629
 X218.4522 Z-1.2346
 X218.5018 Z-1.0625
 X218.5266 Z-0.9964
 X218.5514 Z-0.9380
 X218.6010 Z-0.8371
 X218.6258 Z-0.7926
 X218.6382 Z-0.7716
 X218.6506 Z-0.7512
 X218.7498 Z-0.6091
 X218.7995 Z-0.5488
 X218.8491 Z-0.4941
 X218.9483 Z-0.3984
 X218.9979 Z-0.3563
 X219.0227 Z-0.3365
 X219.0475 Z-0.3175
 X219.1467 Z-0.2488
 X219.1963 Z-0.2185
 X219.2459 Z-0.1906
 X219.3451 Z-0.1414
 X219.3947 Z-0.1199
 X219.4195 Z-0.1099
 X219.4443 Z-0.1004
 X219.5435 Z-0.0671
 X219.5931 Z-0.0530
 X219.6427 Z-0.0407
 X219.7419 Z-0.0211
 X219.7915 Z-0.0137
 X219.8411 Z-0.0080
 X220.2379 Z0.0000
 X248.4125
 Y76.3728
 X220.0395
 X219.9403 Z-0.0011
 X219.8907 Z-0.0038
 X219.8659 Z-0.0057
 X219.8411 Z-0.0080
 X219.7419 Z-0.0211
 X219.6923 Z-0.0301
 X219.6427 Z-0.0407
 X219.5435 Z-0.0671
 X219.4939 Z-0.0828
 X219.4691 Z-0.0914
 X219.4443 Z-0.1004
 X219.3451 Z-0.1414
 X219.2955 Z-0.1649
 X219.2459 Z-0.1906
 X219.1467 Z-0.2488
 X219.0971 Z-0.2818
 X219.0723 Z-0.2993
 X219.0475 Z-0.3175
 X218.9483 Z-0.3984
 X218.8987 Z-0.4442
 X218.8739 Z-0.4686
 X218.8491 Z-0.4941
 X218.7995 Z-0.5488
 X218.7498 Z-0.6091
 X218.7002 Z-0.6760
 X218.6754 Z-0.7125
 X218.6630 Z-0.7315
 X218.6506 Z-0.7512
 X218.6010 Z-0.8371
 X218.5514 Z-0.9380
 X218.5266 Z-0.9964
 X218.5018 Z-1.0625
 X218.4522 Z-1.2346
 X218.4274 Z-1.3703
 X218.4150 Z-1.4979
 X218.4119 Z-6.0000
 X31.5974
 X31.5726 Z-1.3703
 X31.5602 Z-1.2942
 X31.5540 Z-1.2629
 X31.5478 Z-1.2346
 X31.4982 Z-1.0625
 X31.4734 Z-0.9964
 X31.4486 Z-0.9380
 X31.3990 Z-0.8371
 X31.3742 Z-0.7926
 X31.3618 Z-0.7716
 X31.3494 Z-0.7512
 X31.2502 Z-0.6091
 X31.2005 Z-0.5488
 X31.1509 Z-0.4941
 X31.0517 Z-0.3984
 X31.0021 Z-0.3563
 X30.9773 Z-0.3365
 X30.9525 Z-0.3175
 X30.8533 Z-0.2488
 X30.8037 Z-0.2185
 X30.7541 Z-0.1906
 X30.6549 Z-0.1414
 X30.6053 Z-0.1199
 X30.5805 Z-0.1099
 X30.5557 Z-0.1004
 X30.4565 Z-0.0671
 X30.4069 Z-0.0530
 X30.3573 Z-0.0407
 X30.2581 Z-0.0211
 X30.2085 Z-0.0137
 X30.1589 Z-0.0080
 X29.7621 Z0.0000
 X1.5875
 Y77.6404
 X29.9605
 X30.0597 Z-0.0011
 X30.1093 Z-0.0038
 X30.1341 Z-0.0057
 X30.1589 Z-0.0080
 X30.2581 Z-0.0211
 X30.3077 Z-0.0301
 X30.3573 Z-0.0407
 X30.4565 Z-0.0671
 X30.5061 Z-0.0828
 X30.5309 Z-0.0914
 X30.5557 Z-0.1004
 X30.6549 Z-0.1414
 X30.7045 Z-0.1649
 X30.7541 Z-0.1906
 X30.8533 Z-0.2488
 X30.9029 Z-0.2818
 X30.9277 Z-0.2993
 X30.9525 Z-0.3175
 X31.0517 Z-0.3984
 X31.1013 Z-0.4442
 X31.1261 Z-0.4686
 X31.1509 Z-0.4941
 X31.2005 Z-0.5488
 X31.2502 Z-0.6091
 X31.2998 Z-0.6760
 X31.3246 Z-0.7125
 X31.3370 Z-0.7315
 X31.3494 Z-0.7512
 X31.3990 Z-0.8371
 X31.4486 Z-0.9380
 X31.4734 Z-0.9964
 X31.4982 Z-1.0625
 X31.5478 Z-1.2346
 X31.5726 Z-1.3703
 X31.5850 Z-1.4979
 X31.5881 Z-6.0000
 X218.4026
 X218.4274 Z-1.3703
 X218.4398 Z-1.2942
 X218.4460 Z-1.2629
 X218.4522 Z-1.2346
 X218.5018 Z-1.0625
 X218.5266 Z-0.9964
 X218.5514 Z-0.9380
 X218.6010 Z-0.8371
 X218.6258 Z-0.7926
 X218.6382 Z-0.7716
 X218.6506 Z-0.7512
 X218.7498 Z-0.6091
 X218.7995 Z-0.5488
 X218.8491 Z-0.4941
 X218.9483 Z-0.3984
 X218.9979 Z-0.3563
 X219.0227 Z-0.3365
 X219.0475 Z-0.3175
 X219.1467 Z-0.2488
 X219.1963 Z-0.2185
 X219.2459 Z-0.1906
 X219.3451 Z-0.1414
 X219.3947 Z-0.1199
 X219.4195 Z-0.1099
 X219.4443 Z-0.1004
 X219.5435 Z-0.0671
 X219.5931 Z-0.0530
 X219.6427 Z-0.0407
 X219.7419 Z-0.0211
 X219.7915 Z-0.0137
 X219.8411 Z-0.0080
 X220.2379 Z0.0000
 X248.4125
 Y78.9079
 X220.0395
 X219.9403 Z-0.0011
 X219.8907 Z-0.0038
 X219.8659 Z-0.0057
 X219.8411 Z-0.0080
 X219.7419 Z-0.0211
 X219.6923 Z-0.0301
 X219.6427 Z-0.0407
 X219.5435 Z-0.0671
 X219.4939 Z-0.0828
 X219.4691 Z-0.0914
 X219.4443 Z-0.1004
 X219.3451 Z-0.1414
 X219.2955 Z-0.1649
 X219.2459 Z-0.1906
 X219.1467 Z-0.2488
 X219.0971 Z-0.2818
 X219.0723 Z-0.2993
 X219.0475 Z-0.3175
 X218.9483 Z-0.3984
 X218.8987 Z-0.4442
 X218.8739 Z-0.4686
 X218.8491 Z-0.4941
 X218.7995 Z-0.5488
 X218.7498 Z-0.6091
 X218.7002 Z-0.6760
 X218.6754 Z-0.7125
 X218.6630 Z-0.7315
 X218.6506 Z-0.7512
 X218.6010 Z-0.8371
 X218.5514 Z-0.9380
 X218.5266 Z-0.9964
 X218.5018 Z-1.0625
 X218.4522 Z-1.2346
 X218.4274 Z-1.3703
 X218.4150 Z-1.4979
 X218.4119 Z-6.0000
 X31.5974
 X31.5726 Z-1.3703
 X31.5602 Z-1.2942
 X31.5540 Z-1.2629
 X31.5478 Z-1.2346
 X31.4982 Z-1.0625
 X31.4734 Z-0.9964
 X31.4486 Z-0.9380
 X31.3990 Z-0.8371
 X31.3742 Z-0.7926
 X31.3618 Z-0.7716
 X31.3494 Z-0.7512
 X31.2502 Z-0.6091
 X31.2005 Z-0.5488
 X31.1509 Z-0.4941
 X31.0517 Z-0.3984
 X31.0021 Z-0.3563
 X30.9773 Z-0.3365
 X30.9525 Z-0.3175
 X30.8533 Z-0.2488
 X30.8037 Z-0.2185
 X30.7541 Z-0.1906
 X30.6549 Z-0.1414
 X30.6053 Z-0.1199
 X30.5805 Z-0.1099
 X30.5557 Z-0.1004
 X30.4565 Z-0.0671
 X30.4069 Z-0.0530
 X30.3573 Z-0.0407
 X30.2581 Z-0.0211
 X30.2085 Z-0.0137
 X30.1589 Z-0.0080
 X29.7621 Z0.0000
 X1.5875
 Y80.1755
 X29.9605
 X30.0597 Z-0.0011
 X30.1093 Z-0.0038
 X30.1341 Z-0.0057
 X30.1589 Z-0.0080
 X30.2581 Z-0.0211
 X30.3077 Z-0.0301
 X30.3573 Z-0.0407
 X30.4565 Z-0.0671
 X30.5061 Z-0.0828
 X30.5309 Z-0.0914
 X30.5557 Z-0.1004
 X30.6549 Z-0.1414
 X30.7045 Z-0.1649
 X30.7541 Z-0.1906
 X30.8533 Z-0.2488
 X30.9029 Z-0.2818
 X30.9277 Z-0.2993
 X30.9525 Z-0.3175
 X31.0517 Z-0.3984
 X31.1013 Z-0.4442
 X31.1261 Z-0.4686
 X31.1509 Z-0.4941
 X31.2005 Z-0.5488
 X31.2502 Z-0.6091
 X31.2998 Z-0.6760
 X31.3246 Z-0.7125
 X31.3370 Z-0.7315
 X31.3494 Z-0.7512
 X31.3990 Z-0.8371
 X31.4486 Z-0.9380
 X31.4734 Z-0.9964
 X31.4982 Z-1.0625
 X31.5478 Z-1.2346
 X31.5726 Z-1.3703
 X31.5850 Z-1.4979
 X31.5881 Z-6.0000
 X56.0517
 X56.1509 Z-6.0031
 X56.3493 Z-6.0281
 X56.4485 Z-6.0503
 X56.4981 Z-6.0640
 X56.5229 Z-6.0715
 X56.5353 Z-6.0754
 X56.5415 Z-6.0774
 X56.5477 Z-6.0794
 X56.5973 Z-6.0966
 X56.6035 Z-6.0989
 X56.6066 Z-6.1000
 X56.6082 Z-6.1006
 X56.6090 Z-6.1009
 X56.6093 Z-6.1011
 X56.6097 Z-6.1012
 X56.6128 Z-6.1024
 X56.6136 Z-6.1027
 X56.6140 Z-6.1028
 X56.6142 Z-6.1029
 X56.6143
 X56.6144 Z-6.1030
 X56.6152 Z-6.1031
 X193.2539
 X193.6507 Z-6.0516
 X193.7499 Z-6.0290
 X193.8491 Z-6.0130
 X194.0475 Z-6.0000
 X194.4443
 X218.4026
 X218.4274 Z-1.3703
 X218.4398 Z-1.2942
 X218.4460 Z-1.2629
 X218.4522 Z-1.2346
 X218.5018 Z-1.0625
 X218.5266 Z-0.9964
 X218.5514 Z-0.9380
 X218.6010 Z-0.8371
 X218.6258 Z-0.7926
 X218.6382 Z-0.7716
 X218.6506 Z-0.7512
 X218.7498 Z-0.6091
 X218.7995 Z-0.5488
 X218.8491 Z-0.4941
 X218.9483 Z-0.3984
 X218.9979 Z-0.3563
 X219.0227 Z-0.3365
 X219.0475 Z-0.3175
 X219.1467 Z-0.2488
 X219.1963 Z-0.2185
 X219.2459 Z-0.1906
 X219.3451 Z-0.1414
 X219.3947 Z-0.1199
 X219.4195 Z-0.1099
 X219.4443 Z-0.1004
 X219.5435 Z-0.0671
 X219.5931 Z-0.0530
 X219.6427 Z-0.0407
 X219.7419 Z-0.0211
 X219.7915 Z-0.0137
 X219.8411 Z-0.0080
 X220.2379 Z0.0000
 X248.4125
 Y81.4430
 X220.0395
 X219.9403 Z-0.0011
 X219.8907 Z-0.0038
 X219.8659 Z-0.0057
 X219.8411 Z-0.0080
 X219.7419 Z-0.0211
 X219.6923 Z-0.0301
 X219.6427 Z-0.0407
 X219.5435 Z-0.0671
 X219.4939 Z-0.0828
 X219.4691 Z-0.0914
 X219.4443 Z-0.1004
 X219.3451 Z-0.1414
 X219.2955 Z-0.1649
 X219.2459 Z-0.1906
 X219.1467 Z-0.2488
 X219.0971 Z-0.2818
 X219.0723 Z-0.2993
 X219.0475 Z-0.3175
 X218.9483 Z-0.3984
 X218.8987 Z-0.4442
 X218.8739 Z-0.4686
 X218.8491 Z-0.4941
 X218.7995 Z-0.5488
 X218.7498 Z-0.6091
 X218.7002 Z-0.6760
 X218.6754 Z-0.7125
 X218.6630 Z-0.7315
 X218.6506 Z-0.7512
 X218.6010 Z-0.8371
 X218.5514 Z-0.9380
 X218.5266 Z-0.9964
 X218.5018 Z-1.0625
 X218.4522 Z-1.2346
 X218.4274 Z-1.3703
 X218.4150 Z-1.4979
 X218.4119 Z-6.0000
 X194.0971
 X194.0475
 X193.9483 Z-6.0034
 X193.8987 Z-6.0074
 X193.8491 Z-6.0130
 X193.7499 Z-6.0290
 X193.7003 Z-6.0394
 X193.6755 Z-6.0453
 X193.6507 Z-6.0516
 X193.5515 Z-6.0810
 X193.5019 Z-6.0984
 X193.4523 Z-6.1176
 X193.3531 Z-6.1621
 X193.3035 Z-6.1875
 X193.2787 Z-6.2011
 X193.2539 Z-6.2152
 X193.1547 Z-6.2779
 X193.1050 Z-6.3133
 X193.0554 Z-6.3518
 X192.9562 Z-6.4388
 X192.9066 Z-6.4883
 X192.8818 Z-6.5147
 X192.8570 Z-6.5424
 X192.7578 Z-6.6681
 X192.7082 Z-6.7422
 X192.6834 Z-6.7830
 X192.6586 Z-6.8268
 X192.6090 Z-6.9257
 X192.5594 Z-7.0468
 X192.5098 Z-7.2109
 X192.4850 Z-7.3331
 X192.4726 Z-7.4271
 X192.4664 Z-7.5095
 X192.4633 Z-19.0000
 X57.7382
 X57.6390 Z-7.5475
 X57.6142 Z-7.3052
 X57.6018 Z-7.2436
 X57.5894 Z-7.1918
 X57.5646 Z-7.1056
 X57.5522 Z-7.0683
 X57.5460 Z-7.0507
 X57.5398 Z-7.0338
 X57.4902 Z-6.9154
 X57.4406 Z-6.8181
 X57.3910 Z-6.7347
 X57.3662 Z-6.6969
 X57.3414 Z-6.6614
 X57.2918 Z-6.5960
 X57.2422 Z-6.5370
 X57.1926 Z-6.4833
 X57.1678 Z-6.4582
 X57.1430 Z-6.4343
 X57.0438 Z-6.3479
 X56.9942 Z-6.3098
 X56.9446 Z-6.2747
 X56.8453 Z-6.2125
 X56.7957 Z-6.1850
 X56.7709 Z-6.1721
 X56.7461 Z-6.1598
 X56.6469 Z-6.1157
 X56.5973 Z-6.0966
 X56.5477 Z-6.0794
 X56.4485 Z-6.0503
 X56.3989 Z-6.0384
 X56.3493 Z-6.0281
 X55.9525 Z-6.0000
 X31.5974
 X31.5726 Z-1.3703
 X31.5602 Z-1.2942
 X31.5540 Z-1.2629
 X31.5478 Z-1.2346
 X31.4982 Z-1.0625
 X31.4734 Z-0.9964
 X31.4486 Z-0.9380
 X31.3990 Z-0.8371
 X31.3742 Z-0.7926
 X31.3618 Z-0.7716
 X31.3494 Z-0.7512
 X31.2502 Z-0.6091
 X31.2005 Z-0.5488
 X31.1509 Z-0.4941
 X31.0517 Z-0.3984
 X31.0021 Z-0.3563
 X30.9773 Z-0.3365
 X30.9525 Z-0.3175
 X30.8533 Z-0.2488
 X30.8037 Z-0.2185
 X30.7541 Z-0.1906
 X30.6549 Z-0.1414
 X30.6053 Z-0.1199
 X30.5805 Z-0.1099
 X30.5557 Z-0.1004
 X30.4565 Z-0.0671
 X30.4069 Z-0.0530
 X30.3573 Z-0.0407
 X30.2581 Z-0.0211
 X30.2085 Z-0.0137
 X30.1589 Z-0.0080
 X29.7621 Z0.0000
 X1.5875
 Y82.7106
 X29.9605
 X30.0597 Z-0.0011
 X30.1093 Z-0.0038
 X30.1341 Z-0.0057
 X30.1589 Z-0.0080
 X30.2581 Z-0.0211
 X30.3077 Z-0.0301
 X30.3573 Z-0.0407
 X30.4565 Z-0.0671
 X30.5061 Z-0.0828
 X30.5309 Z-0.0914
 X30.5557 Z-0.1004
 X30.6549 Z-0.1414
 X30.7045 Z-0.1649
 X30.7541 Z-0.1906
 X30.8533 Z-0.2488
 X30.9029 Z-0.2818
 X30.9277 Z-0.2993
 X30.9525 Z-0.3175
 X31.0517 Z-0.3984
 X31.1013 Z-0.4442
 X31.1261 Z-0.4686
 X31.1509 Z-0.4941
 X31.2005 Z-0.5488
 X31.2502 Z-0.6091
 X31.2998 Z-0.6760
 X31.3246 Z-0.7125
 X31.3370 Z-0.7315
 X31.3494 Z-0.7512
 X31.3990 Z-0.8371
 X31.4486 Z-0.9380
 X31.4734 Z-0.9964
 X31.4982 Z-1.0625
 X31.5478 Z-1.2346
 X31.5726 Z-1.3703
 X31.5850 Z-1.4979
 X31.5881 Z-6.0000
 X56.0517
 X56.1509 Z-6.0031
 X56.2501 Z-6.0124
 X56.2997 Z-6.0194
 X56.3245 Z-6.0236
 X56.3493 Z-6.0281
 X56.4485 Z-6.0503
 X56.4981 Z-6.0640
 X56.5477 Z-6.0794
 X56.6469 Z-6.1157
 X56.6965 Z-6.1367
 X56.7213 Z-6.1480
 X56.7461 Z-6.1598
 X56.8453 Z-6.2125
 X56.8950 Z-6.2423
 X56.9446 Z-6.2747
 X57.0438 Z-6.3479
 X57.0934 Z-6.3893
 X57.1182 Z-6.4113
 X57.1306 Z-6.4227
 X57.1430 Z-6.4343
 X57.2422 Z-6.5370
 X57.2918 Z-6.5960
 X57.3166 Z-6.6278
 X57.3414 Z-6.6614
 X57.3910 Z-6.7347
 X57.4158 Z-6.7749
 X57.4406 Z-6.8181
 X57.4902 Z-6.9154
 X57.5398 Z-7.0338
 X57.6390 Z-7.5475
 X57.6452 Z-19.0000
 X192.4602
 X192.5594 Z-7.0468
 X192.6090 Z-6.9257
 X192.6338 Z-6.8741
 X192.6586 Z-6.8268
 X192.7082 Z-6.7422
 X192.7578 Z-6.6681
 X192.8074 Z-6.6020
 X192.8322 Z-6.5715
 X192.8570 Z-6.5424
 X192.9562 Z-6.4388
 X193.0058 Z-6.3935
 X193.0554 Z-6.3518
 X193.1547 Z-6.2779
 X193.2043 Z-6.2453
 X193.2291 Z-6.2300
 X193.2539 Z-6.2152
 X193.3531 Z-6.1621
 X193.4027 Z-6.1389
 X193.4523 Z-6.1176
 X193.5515 Z-6.0810
 X193.6011 Z-6.0654
 X193.6259 Z-6.0583
 X193.6507 Z-6.0516
 X193.7499 Z-6.0290
 X193.8491 Z-6.0130
 X194.0475 Z-6.0000
 X194.4443
 X218.4026
 X218.4274 Z-1.3703
 X218.4398 Z-1.2942
 X218.4460 Z-1.2629
 X218.4522 Z-1.2346
 X218.5018 Z-1.0625
 X218.5266 Z-0.9964
 X218.5514 Z-0.9380
 X218.6010 Z-0.8371
 X218.6258 Z-0.7926
 X218.6382 Z-0.7716
 X218.6506 Z-0.7512
 X218.7498 Z-0.6091
 X218.7995 Z-0.5488
 X218.8491 Z-0.4941
 X218.9483 Z-0.3984
 X218.9979 Z-0.3563
 X219.0227 Z-0.3365
 X219.0475 Z-0.3175
 X219.1467 Z-0.2488
 X219.1963 Z-0.2185
 X219.2459 Z-0.1906
 X219.3451 Z-0.1414
 X219.3947 Z-0.1199
 X219.4195 Z-0.1099
 X219.4443 Z-0.1004
 X219.5435 Z-0.0671
 X219.5931 Z-0.0530
 X219.6427 Z-0.0407
 X219.7419 Z-0.0211
 X219.7915 Z-0.0137
 X219.8411 Z-0.0080
 X220.2379 Z0.0000
 X248.4125
 Y83.9781
 X220.0395
 X219.9403 Z-0.0011
 X219.8907 Z-0.0038
 X219.8659 Z-0.0057
 X219.8411 Z-0.0080
 X219.7419 Z-0.0211
 X219.6923 Z-0.0301
 X219.6427 Z-0.0407
 X219.5435 Z-0.0671
 X219.4939 Z-0.0828
 X219.4691 Z-0.0914
 X219.4443 Z-0.1004
 X219.3451 Z-0.1414
 X219.2955 Z-0.1649
 X219.2459 Z-0.1906
 X219.1467 Z-0.2488
