%
(1967)
(T1  D=3.175 CR=0 TAPER=30deg - ZMIN=-1.6 - countersink)
G90 G94
G17
G21
G28 G91 Z0
G90

(2D Contour1)
M9
T1 M6
S15000 M3
G54
M8
G0 X26.3 Y14
Z15
Z5
G1 Z2.5 F333.3
X23.5 Z-0.3
X15.1 F1000
G2 X15 Y14.1 J0.1
G1 Y20.043
G2 X15.1 Y20.143 I0.1
G1 X16.962
G2 X17.062 Y20.043 J-0.1
G1 Y16
X30
Y20.043
G2 X30.1 Y20.143 I0.1
G1 X31.9
G2 X32 Y20.043 J-0.1
G1 Y14.1
G2 X31.9 Y14 I-0.1
G1 X23.5
G0 Z15

(2D Contour2)
M8
X62.005 Y13.047
Z15
Z5
G1 Z1 F1000
Z0.017 F333.3
G19 G3 Y13.365 Z-0.3 J0.318
G1 Y13.682 F1000
G17 G3 X61.688 Y14 I-0.318
G1 X45.1
G2 X45 Y14.1 J0.1
G1 Y20.043
G2 X45.1 Y20.143 I0.1
G1 X46.9
G2 X47 Y20.043 J-0.1
G1 Y16
X60
Y20.043
G2 X60.1 Y20.143 I0.1
G1 X61.9
G2 X62 Y20.043 J-0.1
G1 Y14.1
G2 X61.9 Y14 I-0.1
G1 X61.688
G3 X61.37 Y13.682 J-0.318
G1 Y13.365
G19 G2 Y13.047 Z0.017 K0.318
G0 Z15
G17

(2D Contour3)
M8
G0 X91.982 Y13.047
Z15
Z5
G1 Z1 F1000
Z0.017 F333.3
G19 G3 Y13.365 Z-0.3 J0.318
G1 Y13.682 F1000
G17 G3 X91.664 Y14 I-0.318
G1 X75.1
G2 X75 Y14.1 J0.1
G1 Y20.043
G2 X75.1 Y20.143 I0.1
G1 X76.9
G2 X77 Y20.043 J-0.1
G1 Y16
X89.988
Y20.043
G2 X90.088 Y20.143 I0.1
G1 X91.876
G2 X91.976 Y20.043 J-0.1
G1 Y14.1
G2 X91.876 Y14 I-0.1
G1 X91.664
G3 X91.347 Y13.682 J-0.318
G1 Y13.365
G19 G2 Y13.047 Z0.017 K0.318
G0 Z15
G17

(2D Contour4)
S5000 M3
M8
G0 X9.682 Y202.054
Z15
Z5
G1 Z1 F1000
Z-1.283 F333.3
G19 G2 Y201.736 Z-1.6 J-0.318
G1 Y21.948 F1000
G17 G3 X10 Y21.63 I0.318
G1 X35.318
Z-0.806
X39.493
Z-1.6 F333.3
X65.637 F1000
Z-0.806
X69.812
Z-1.6 F333.3
X97 F1000
G2 X98.588 Y20.043 J-1.587
G1 Y10
G2 X97 Y8.413 I-1.588
G1 X88.539
Z-0.806
X84.364
Z-1.6 F333.3
X54.296 F1000
Z-0.806
X50.121
Z-1.6 F333.3
X24.155 F1000
Z-0.806
X19.98
Z-1.6 F333.3
X10 F1000
G2 X8.413 Y10 J1.587
G1 Y20.043
G2 X10 Y21.63 I1.587
G3 X10.318 Y21.948 J0.318
G1 Y22.265
G19 G3 Y22.583 Z-1.283 K0.317
G0 Z15
G17
M9
G28 G91 Z0
G28 X0 Y0
M30
%
