%
(1966)
(T4  D=3.175 CR=0 - ZMIN=-15 - flat end mill)
G90 G94
G17
G21
G28 G91 Z0
G90

(all slots an button hole)
M9
T4 M6
S15000 M3
G54
M9
G0 X54.505 Y66.483
Z15
Z4
G1 Z3.467 F333.3
S5000
X54.511 Y66.488 Z3.398
G3 X54.525 Y66.505 Z3.332 I-1.118 J1.012
X54.549 Y66.533 Z3.273 I-1.133 J0.995
X54.579 Y66.57 Z3.223 I-1.157 J0.967
X54.614 Y66.617 Z3.185 I-1.187 J0.93
X54.651 Y66.67 Z3.16 I-1.222 J0.883
X54.688 Y66.728 Z3.15 I-1.259 J0.83
X52.096 Y68.272 Z2.985 I-1.296 J0.772
X54.688 Y66.728 Z2.819 I1.296 J-0.772
X52.096 Y68.272 Z2.654 I-1.296 J0.772
X54.688 Y66.728 Z2.488 I1.296 J-0.772
X52.096 Y68.272 Z2.323 I-1.296 J0.772
X54.688 Y66.728 Z2.157 I1.296 J-0.772
X52.096 Y68.272 Z1.992 I-1.296 J0.772
X54.688 Y66.728 Z1.826 I1.296 J-0.772
X52.096 Y68.272 Z1.661 I-1.296 J0.772
X54.688 Y66.728 Z1.495 I1.296 J-0.772
X52.096 Y68.272 Z1.33 I-1.296 J0.772
X54.688 Y66.728 Z1.165 I1.296 J-0.772
X52.096 Y68.272 Z0.999 I-1.296 J0.772
X54.688 Y66.728 Z0.834 I1.296 J-0.772
X52.096 Y68.272 Z0.668 I-1.296 J0.772
X54.688 Y66.728 Z0.503 I1.296 J-0.772
X52.096 Y68.272 Z0.337 I-1.296 J0.772
X54.688 Y66.728 Z0.172 I1.296 J-0.772
X52.096 Y68.272 Z0.006 I-1.296 J0.772
X54.688 Y66.728 Z-0.159 I1.296 J-0.772
X52.096 Y68.272 Z-0.324 I-1.296 J0.772
X54.688 Y66.728 Z-0.49 I1.296 J-0.772
X52.096 Y68.272 Z-0.655 I-1.296 J0.772
X54.688 Y66.728 Z-0.821 I1.296 J-0.772
X52.096 Y68.272 Z-0.986 I-1.296 J0.772
X54.688 Y66.728 Z-1.152 I1.296 J-0.772
X52.096 Y68.272 Z-1.317 I-1.296 J0.772
X54.688 Y66.728 Z-1.483 I1.296 J-0.772
X52.096 Y68.272 Z-1.648 I-1.296 J0.772
X54.688 Y66.728 Z-1.814 I1.296 J-0.772
X52.096 Y68.272 Z-1.979 I-1.296 J0.772
X54.688 Y66.728 Z-2.144 I1.296 J-0.772
X52.096 Y68.272 Z-2.31 I-1.296 J0.772
X54.688 Y66.728 Z-2.475 I1.296 J-0.772
X52.096 Y68.272 Z-2.641 I-1.296 J0.772
X54.688 Y66.728 Z-2.806 I1.296 J-0.772
X52.096 Y68.272 Z-2.972 I-1.296 J0.772
X51.884 Y67.5 Z-3 I1.296 J-0.772
S15000
G1 Y67.412 F800
G3 X52.412 Y66.884 I0.528
G1 X197.5
G3 Y68.116 J0.616
G1 X52.412
G3 X51.884 Y67.588 J-0.528
G1 Y67.5
G2 X51.342 Y66.604 I-1.011
G3 X51.592 Y65.588 I0.25 J-0.478
G1 X199.413
Y69.412
X50.588
Y65.588
X51.592
G3 X51.746 Y65.708 J0.159
G1 X52.312 Y68.006
G3 X52.012 Y68.108 I-0.154 J0.038
S5000
X54.772 Y66.892 Z-3.165 I1.38 J-0.608 F333.3
X52.012 Y68.108 Z-3.331 I-1.38 J0.608
X54.772 Y66.892 Z-3.496 I1.38 J-0.608
X52.012 Y68.108 Z-3.662 I-1.38 J0.608
X54.772 Y66.892 Z-3.827 I1.38 J-0.608
X52.012 Y68.108 Z-3.993 I-1.38 J0.608
X54.772 Y66.892 Z-4.158 I1.38 J-0.608
X52.012 Y68.108 Z-4.324 I-1.38 J0.608
X54.772 Y66.892 Z-4.489 I1.38 J-0.608
X52.012 Y68.108 Z-4.655 I-1.38 J0.608
X54.772 Y66.892 Z-4.82 I1.38 J-0.608
X52.012 Y68.108 Z-4.985 I-1.38 J0.608
X54.772 Y66.892 Z-5.151 I1.38 J-0.608
X52.012 Y68.108 Z-5.316 I-1.38 J0.608
X54.772 Y66.892 Z-5.482 I1.38 J-0.608
X52.012 Y68.108 Z-5.647 I-1.38 J0.608
X54.772 Y66.892 Z-5.813 I1.38 J-0.608
X52.012 Y68.108 Z-5.978 I-1.38 J0.608
X51.884 Y67.5 Z-6 I1.38 J-0.608
S15000
G1 Y67.412 F800
G3 X52.412 Y66.884 I0.528
G1 X197.5
G3 Y68.116 J0.616
G1 X52.412
G3 X51.884 Y67.588 J-0.528
G1 Y67.5
G2 X51.342 Y66.604 I-1.011
G3 X51.592 Y65.588 I0.25 J-0.478
G1 X199.413
Y69.412
X50.588
Y65.588
X51.592
G3 X51.747 Y65.71 J0.159
G1 X52.249 Y67.832
G3 X51.941 Y67.912 I-0.154 J0.037
S5000
X54.843 Y67.088 Z-6.165 I1.451 J-0.412 F333.3
X51.941 Y67.912 Z-6.331 I-1.451 J0.412
X54.843 Y67.088 Z-6.496 I1.451 J-0.412
X51.941 Y67.912 Z-6.662 I-1.451 J0.412
X54.843 Y67.088 Z-6.827 I1.451 J-0.412
X51.941 Y67.912 Z-6.993 I-1.451 J0.412
X54.843 Y67.088 Z-7.158 I1.451 J-0.412
X51.941 Y67.912 Z-7.324 I-1.451 J0.412
X54.843 Y67.088 Z-7.489 I1.451 J-0.412
X51.941 Y67.912 Z-7.655 I-1.451 J0.412
X54.843 Y67.088 Z-7.82 I1.451 J-0.412
X53.6 Y68.994 Z-7.91 I-1.451 J0.412
X51.884 Y67.5 Z-8 I-0.208 J-1.494
S15000
G1 Y67.412 F800
G3 X52.412 Y66.884 I0.528
G1 X197.5
G3 Y68.116 J0.616
G1 X52.412
G3 X51.884 Y67.588 J-0.528
G1 Y67.5
G2 X51.342 Y66.604 I-1.011
G3 X51.592 Y65.588 I0.25 J-0.478
G1 X199.413
Y69.412
X50.588
Y65.588
X51.592
G3 X51.648 Y65.598 J0.159
G1 X58.81 Y68.321
G2 X59.012 Y68.108 I0.056 J-0.148
S5000
G3 X61.772 Y66.892 Z-8.165 I1.38 J-0.608 F333.3
X59.012 Y68.108 Z-8.331 I-1.38 J0.608
X61.772 Y66.892 Z-8.496 I1.38 J-0.608
X59.012 Y68.108 Z-8.662 I-1.38 J0.608
X61.772 Y66.892 Z-8.827 I1.38 J-0.608
X59.012 Y68.108 Z-8.993 I-1.38 J0.608
X61.772 Y66.892 Z-9.158 I1.38 J-0.608
X59.012 Y68.108 Z-9.324 I-1.38 J0.608
X61.772 Y66.892 Z-9.489 I1.38 J-0.608
X59.012 Y68.108 Z-9.655 I-1.38 J0.608
X61.772 Y66.892 Z-9.82 I1.38 J-0.608
X59.012 Y68.108 Z-9.985 I-1.38 J0.608
X61.772 Y66.892 Z-10.151 I1.38 J-0.608
X59.012 Y68.108 Z-10.316 I-1.38 J0.608
X61.772 Y66.892 Z-10.482 I1.38 J-0.608
X59.012 Y68.108 Z-10.647 I-1.38 J0.608
X61.772 Y66.892 Z-10.813 I1.38 J-0.608
X59.012 Y68.108 Z-10.978 I-1.38 J0.608
X58.884 Y67.5 Z-11 I1.38 J-0.608
S15000
G1 Y67.412 F800
G3 X59.412 Y66.884 I0.528
G1 X190.5
G3 Y68.116 J0.616
G1 X59.412
G3 X58.884 Y67.588 J-0.528
G1 Y67.5
G2 X58.342 Y66.604 I-1.011
G3 X58.592 Y65.588 I0.25 J-0.478
G1 X192.413
Y69.412
X57.588
Y65.588
X58.592
G3 X58.746 Y65.708 J0.159
G1 X59.312 Y68.006
G3 X59.012 Y68.108 I-0.154 J0.038
S5000
X61.772 Y66.892 Z-11.165 I1.38 J-0.608 F333.3
X59.012 Y68.108 Z-11.331 I-1.38 J0.608
X61.772 Y66.892 Z-11.496 I1.38 J-0.608
X59.012 Y68.108 Z-11.662 I-1.38 J0.608
X61.772 Y66.892 Z-11.827 I1.38 J-0.608
X59.012 Y68.108 Z-11.993 I-1.38 J0.608
X61.772 Y66.892 Z-12.158 I1.38 J-0.608
X59.012 Y68.108 Z-12.324 I-1.38 J0.608
X61.772 Y66.892 Z-12.489 I1.38 J-0.608
X59.012 Y68.108 Z-12.655 I-1.38 J0.608
X61.772 Y66.892 Z-12.82 I1.38 J-0.608
X59.012 Y68.108 Z-12.985 I-1.38 J0.608
X61.772 Y66.892 Z-13.151 I1.38 J-0.608
X59.012 Y68.108 Z-13.316 I-1.38 J0.608
X61.772 Y66.892 Z-13.482 I1.38 J-0.608
X59.012 Y68.108 Z-13.647 I-1.38 J0.608
X61.772 Y66.892 Z-13.813 I1.38 J-0.608
X59.012 Y68.108 Z-13.978 I-1.38 J0.608
X58.884 Y67.5 Z-14 I1.38 J-0.608
S15000
G1 Y67.412 F800
G3 X59.412 Y66.884 I0.528
G1 X190.5
G3 Y68.116 J0.616
G1 X59.412
G3 X58.884 Y67.588 J-0.528
G1 Y67.5
G2 X58.342 Y66.604 I-1.011
G3 X58.592 Y65.588 I0.25 J-0.478
G1 X192.413
Y69.412
X57.588
Y65.588
X58.592
G3 X58.746 Y65.709 J0.159
G1 X59.21 Y67.649
G3 X59.085 Y67.842 I-0.154 J0.037
X58.898 Y67.708 I-0.029 J-0.156
S5000
X61.886 Y67.292 Z-14.165 I1.494 J-0.208 F333.3
X58.898 Y67.708 Z-14.331 I-1.494 J0.208
X61.886 Y67.292 Z-14.496 I1.494 J-0.208
X58.898 Y67.708 Z-14.662 I-1.494 J0.208
X61.886 Y67.292 Z-14.827 I1.494 J-0.208
X60.496 Y69.005 Z-14.914 I-1.494 J0.208
X58.884 Y67.5 Z-15 I-0.104 J-1.505
S15000
G1 Y67.412 F800
G3 X59.412 Y66.884 I0.528
G1 X190.5
G3 Y68.116 J0.616
G1 X59.412
G3 X58.884 Y67.588 J-0.528
G1 Y67.5
G2 X58.342 Y66.604 I-1.011
G3 X58.592 Y65.588 I0.25 J-0.478
G1 X192.413
Y69.412
X57.588
Y65.588
X58.592
G3 X58.662 Y65.595 Z-14.992 J0.317 F1000
X58.726 Y65.617 Z-14.969 I-0.07 J0.31
X58.777 Y65.647 Z-14.931 I-0.133 J0.288
X58.816 Y65.68 Z-14.88 I-0.185 J0.258
X58.841 Y65.708 Z-14.82 I-0.224 J0.225
X58.855 Y65.727 Z-14.753 I-0.249 J0.197
G1 X58.859 Y65.733 Z-14.682
G0 Z5
X54.505 Y81.483
Z3.467
S5000
G1 X54.511 Y81.488 Z3.398 F333.3
G3 X54.525 Y81.505 Z3.332 I-1.118 J1.012
X54.549 Y81.533 Z3.273 I-1.133 J0.995
X54.579 Y81.57 Z3.223 I-1.157 J0.967
X54.614 Y81.617 Z3.185 I-1.187 J0.93
X54.651 Y81.67 Z3.16 I-1.222 J0.883
X54.688 Y81.728 Z3.15 I-1.259 J0.83
X52.096 Y83.272 Z2.985 I-1.296 J0.772
X54.688 Y81.728 Z2.819 I1.296 J-0.772
X52.096 Y83.272 Z2.654 I-1.296 J0.772
X54.688 Y81.728 Z2.488 I1.296 J-0.772
X52.096 Y83.272 Z2.323 I-1.296 J0.772
X54.688 Y81.728 Z2.157 I1.296 J-0.772
X52.096 Y83.272 Z1.992 I-1.296 J0.772
X54.688 Y81.728 Z1.826 I1.296 J-0.772
X52.096 Y83.272 Z1.661 I-1.296 J0.772
X54.688 Y81.728 Z1.495 I1.296 J-0.772
X52.096 Y83.272 Z1.33 I-1.296 J0.772
X54.688 Y81.728 Z1.165 I1.296 J-0.772
X52.096 Y83.272 Z0.999 I-1.296 J0.772
X54.688 Y81.728 Z0.834 I1.296 J-0.772
X52.096 Y83.272 Z0.668 I-1.296 J0.772
X54.688 Y81.728 Z0.503 I1.296 J-0.772
X52.096 Y83.272 Z0.337 I-1.296 J0.772
X54.688 Y81.728 Z0.172 I1.296 J-0.772
X52.096 Y83.272 Z0.006 I-1.296 J0.772
X54.688 Y81.728 Z-0.159 I1.296 J-0.772
X52.096 Y83.272 Z-0.324 I-1.296 J0.772
X54.688 Y81.728 Z-0.49 I1.296 J-0.772
X52.096 Y83.272 Z-0.655 I-1.296 J0.772
X54.688 Y81.728 Z-0.821 I1.296 J-0.772
X52.096 Y83.272 Z-0.986 I-1.296 J0.772
X54.688 Y81.728 Z-1.152 I1.296 J-0.772
X52.096 Y83.272 Z-1.317 I-1.296 J0.772
X54.688 Y81.728 Z-1.483 I1.296 J-0.772
X52.096 Y83.272 Z-1.648 I-1.296 J0.772
X54.688 Y81.728 Z-1.814 I1.296 J-0.772
X52.096 Y83.272 Z-1.979 I-1.296 J0.772
X54.688 Y81.728 Z-2.144 I1.296 J-0.772
X52.096 Y83.272 Z-2.31 I-1.296 J0.772
X54.688 Y81.728 Z-2.475 I1.296 J-0.772
X52.096 Y83.272 Z-2.641 I-1.296 J0.772
X54.688 Y81.728 Z-2.806 I1.296 J-0.772
X52.096 Y83.272 Z-2.972 I-1.296 J0.772
X51.884 Y82.5 Z-3 I1.296 J-0.772
S15000
G1 Y82.412 F800
G3 X52.412 Y81.884 I0.528
G1 X197.588
G3 X198.116 Y82.412 J0.528
G1 Y82.588
G3 X197.588 Y83.116 I-0.528
G1 X52.412
G3 X51.884 Y82.588 J-0.528
G1 Y82.5
G2 X51.342 Y81.604 I-1.011
G3 X51.592 Y80.588 I0.25 J-0.478
G1 X199.413
Y84.412
X50.588
Y80.588
X51.592
G3 X51.746 Y80.708 J0.159
G1 X52.312 Y83.006
G3 X52.012 Y83.108 I-0.154 J0.038
S5000
X54.772 Y81.892 Z-3.165 I1.38 J-0.608 F333.3
X52.012 Y83.108 Z-3.331 I-1.38 J0.608
X54.772 Y81.892 Z-3.496 I1.38 J-0.608
X52.012 Y83.108 Z-3.662 I-1.38 J0.608
X54.772 Y81.892 Z-3.827 I1.38 J-0.608
X52.012 Y83.108 Z-3.993 I-1.38 J0.608
X54.772 Y81.892 Z-4.158 I1.38 J-0.608
X52.012 Y83.108 Z-4.324 I-1.38 J0.608
X54.772 Y81.892 Z-4.489 I1.38 J-0.608
X52.012 Y83.108 Z-4.655 I-1.38 J0.608
X54.772 Y81.892 Z-4.82 I1.38 J-0.608
X52.012 Y83.108 Z-4.985 I-1.38 J0.608
X54.772 Y81.892 Z-5.151 I1.38 J-0.608
X52.012 Y83.108 Z-5.316 I-1.38 J0.608
X54.772 Y81.892 Z-5.482 I1.38 J-0.608
X52.012 Y83.108 Z-5.647 I-1.38 J0.608
X54.772 Y81.892 Z-5.813 I1.38 J-0.608
X52.012 Y83.108 Z-5.978 I-1.38 J0.608
X51.884 Y82.5 Z-6 I1.38 J-0.608
S15000
G1 Y82.412 F800
G3 X52.412 Y81.884 I0.528
G1 X197.588
G3 X198.116 Y82.412 J0.528
G1 Y82.588
G3 X197.588 Y83.116 I-0.528
G1 X52.412
G3 X51.884 Y82.588 J-0.528
G1 Y82.5
G2 X51.342 Y81.604 I-1.011
G3 X51.592 Y80.588 I0.25 J-0.478
G1 X199.413
Y84.412
X50.588
Y80.588
X51.592
G3 X51.747 Y80.71 J0.159
G1 X52.249 Y82.832
G3 X51.941 Y82.912 I-0.154 J0.037
S5000
X54.843 Y82.088 Z-6.165 I1.451 J-0.412 F333.3
X51.941 Y82.912 Z-6.331 I-1.451 J0.412
X54.843 Y82.088 Z-6.496 I1.451 J-0.412
X51.941 Y82.912 Z-6.662 I-1.451 J0.412
X54.843 Y82.088 Z-6.827 I1.451 J-0.412
X51.941 Y82.912 Z-6.993 I-1.451 J0.412
X54.843 Y82.088 Z-7.158 I1.451 J-0.412
X51.941 Y82.912 Z-7.324 I-1.451 J0.412
X54.843 Y82.088 Z-7.489 I1.451 J-0.412
X51.941 Y82.912 Z-7.655 I-1.451 J0.412
X54.843 Y82.088 Z-7.82 I1.451 J-0.412
X53.6 Y83.994 Z-7.91 I-1.451 J0.412
X51.884 Y82.5 Z-8 I-0.208 J-1.494
S15000
G1 Y82.412 F800
G3 X52.412 Y81.884 I0.528
G1 X197.588
G3 X198.116 Y82.412 J0.528
G1 Y82.588
G3 X197.588 Y83.116 I-0.528
G1 X52.412
G3 X51.884 Y82.588 J-0.528
G1 Y82.5
G2 X51.342 Y81.604 I-1.011
G3 X51.592 Y80.588 I0.25 J-0.478
G1 X199.413
Y84.412
X50.588
Y80.588
X51.592
G3 X51.648 Y80.598 J0.159
G1 X58.81 Y83.321
G2 X59.012 Y83.108 I0.056 J-0.148
S5000
G3 X61.772 Y81.892 Z-8.165 I1.38 J-0.608 F333.3
X59.012 Y83.108 Z-8.331 I-1.38 J0.608
X61.772 Y81.892 Z-8.496 I1.38 J-0.608
X59.012 Y83.108 Z-8.662 I-1.38 J0.608
X61.772 Y81.892 Z-8.827 I1.38 J-0.608
X59.012 Y83.108 Z-8.993 I-1.38 J0.608
X61.772 Y81.892 Z-9.158 I1.38 J-0.608
X59.012 Y83.108 Z-9.324 I-1.38 J0.608
X61.772 Y81.892 Z-9.489 I1.38 J-0.608
X59.012 Y83.108 Z-9.655 I-1.38 J0.608
X61.772 Y81.892 Z-9.82 I1.38 J-0.608
X59.012 Y83.108 Z-9.985 I-1.38 J0.608
X61.772 Y81.892 Z-10.151 I1.38 J-0.608
X59.012 Y83.108 Z-10.316 I-1.38 J0.608
X61.772 Y81.892 Z-10.482 I1.38 J-0.608
X59.012 Y83.108 Z-10.647 I-1.38 J0.608
X61.772 Y81.892 Z-10.813 I1.38 J-0.608
X59.012 Y83.108 Z-10.978 I-1.38 J0.608
X58.884 Y82.5 Z-11 I1.38 J-0.608
S15000
G1 Y82.412 F800
G3 X59.412 Y81.884 I0.528
G1 X190.588
G3 X191.116 Y82.412 J0.528
G1 Y82.588
G3 X190.588 Y83.116 I-0.528
G1 X59.412
G3 X58.884 Y82.588 J-0.528
G1 Y82.5
G2 X58.342 Y81.604 I-1.011
G3 X58.592 Y80.588 I0.25 J-0.478
G1 X192.413
Y84.412
X57.588
Y80.588
X58.592
G3 X58.746 Y80.708 J0.159
G1 X59.312 Y83.006
G3 X59.012 Y83.108 I-0.154 J0.038
S5000
X61.772 Y81.892 Z-11.165 I1.38 J-0.608 F333.3
X59.012 Y83.108 Z-11.331 I-1.38 J0.608
X61.772 Y81.892 Z-11.496 I1.38 J-0.608
X59.012 Y83.108 Z-11.662 I-1.38 J0.608
X61.772 Y81.892 Z-11.827 I1.38 J-0.608
X59.012 Y83.108 Z-11.993 I-1.38 J0.608
X61.772 Y81.892 Z-12.158 I1.38 J-0.608
X59.012 Y83.108 Z-12.324 I-1.38 J0.608
X61.772 Y81.892 Z-12.489 I1.38 J-0.608
X59.012 Y83.108 Z-12.655 I-1.38 J0.608
X61.772 Y81.892 Z-12.82 I1.38 J-0.608
X59.012 Y83.108 Z-12.985 I-1.38 J0.608
X61.772 Y81.892 Z-13.151 I1.38 J-0.608
X59.012 Y83.108 Z-13.316 I-1.38 J0.608
X61.772 Y81.892 Z-13.482 I1.38 J-0.608
X59.012 Y83.108 Z-13.647 I-1.38 J0.608
X61.772 Y81.892 Z-13.813 I1.38 J-0.608
X59.012 Y83.108 Z-13.978 I-1.38 J0.608
X58.884 Y82.5 Z-14 I1.38 J-0.608
S15000
G1 Y82.412 F800
G3 X59.412 Y81.884 I0.528
G1 X190.588
G3 X191.116 Y82.412 J0.528
G1 Y82.588
G3 X190.588 Y83.116 I-0.528
G1 X59.412
G3 X58.884 Y82.588 J-0.528
G1 Y82.5
G2 X58.342 Y81.604 I-1.011
G3 X58.592 Y80.588 I0.25 J-0.478
G1 X192.413
Y84.412
X57.588
Y80.588
X58.592
G3 X58.746 Y80.709 J0.159
G1 X59.21 Y82.649
G3 X59.085 Y82.842 I-0.154 J0.037
X58.898 Y82.708 I-0.029 J-0.156
S5000
X61.886 Y82.292 Z-14.165 I1.494 J-0.208 F333.3
X58.898 Y82.708 Z-14.331 I-1.494 J0.208
X61.886 Y82.292 Z-14.496 I1.494 J-0.208
X58.898 Y82.708 Z-14.662 I-1.494 J0.208
X61.886 Y82.292 Z-14.827 I1.494 J-0.208
X60.496 Y84.005 Z-14.914 I-1.494 J0.208
X58.884 Y82.5 Z-15 I-0.104 J-1.505
S15000
G1 Y82.412 F800
G3 X59.412 Y81.884 I0.528
G1 X190.588
G3 X191.116 Y82.412 J0.528
G1 Y82.588
G3 X190.588 Y83.116 I-0.528
G1 X59.412
G3 X58.884 Y82.588 J-0.528
G1 Y82.5
G2 X58.342 Y81.604 I-1.011
G3 X58.592 Y80.588 I0.25 J-0.478
G1 X192.413
Y84.412
X57.588
Y80.588
X58.592
G3 X58.662 Y80.595 Z-14.992 J0.317 F1000
X58.726 Y80.617 Z-14.969 I-0.07 J0.31
X58.777 Y80.647 Z-14.931 I-0.133 J0.288
X58.816 Y80.68 Z-14.88 I-0.185 J0.258
X58.841 Y80.708 Z-14.82 I-0.224 J0.225
X58.855 Y80.727 Z-14.753 I-0.249 J0.197
G1 X58.859 Y80.733 Z-14.682
G0 Z5
X198.517 Y98.209
Z3.467
S5000
G1 X198.512 Y98.214 Z3.398 F333.3
G3 X198.495 Y98.229 Z3.332 I-1.012 J-1.118
X198.467 Y98.253 Z3.273 I-0.995 J-1.133
X198.43 Y98.283 Z3.223 I-0.967 J-1.157
X198.383 Y98.318 Z3.185 I-0.93 J-1.187
X198.33 Y98.355 Z3.16 I-0.883 J-1.222
X198.272 Y98.391 Z3.15 I-0.83 J-1.259
X196.728 Y95.8 Z2.985 I-0.772 J-1.296
X198.272 Y98.391 Z2.819 I0.772 J1.296
X196.728 Y95.8 Z2.654 I-0.772 J-1.296
X198.272 Y98.391 Z2.488 I0.772 J1.296
X196.728 Y95.8 Z2.323 I-0.772 J-1.296
X198.272 Y98.391 Z2.157 I0.772 J1.296
X196.728 Y95.8 Z1.992 I-0.772 J-1.296
X198.272 Y98.391 Z1.826 I0.772 J1.296
X196.728 Y95.8 Z1.661 I-0.772 J-1.296
X198.272 Y98.391 Z1.495 I0.772 J1.296
X196.728 Y95.8 Z1.33 I-0.772 J-1.296
X198.272 Y98.391 Z1.165 I0.772 J1.296
X196.728 Y95.8 Z0.999 I-0.772 J-1.296
X198.272 Y98.391 Z0.834 I0.772 J1.296
X196.728 Y95.8 Z0.668 I-0.772 J-1.296
X198.272 Y98.391 Z0.503 I0.772 J1.296
X196.728 Y95.8 Z0.337 I-0.772 J-1.296
X198.272 Y98.391 Z0.172 I0.772 J1.296
X196.728 Y95.8 Z0.006 I-0.772 J-1.296
X198.272 Y98.391 Z-0.159 I0.772 J1.296
X196.728 Y95.8 Z-0.324 I-0.772 J-1.296
X198.272 Y98.391 Z-0.49 I0.772 J1.296
X196.728 Y95.8 Z-0.655 I-0.772 J-1.296
X198.272 Y98.391 Z-0.821 I0.772 J1.296
X196.728 Y95.8 Z-0.986 I-0.772 J-1.296
X198.272 Y98.391 Z-1.152 I0.772 J1.296
X196.728 Y95.8 Z-1.317 I-0.772 J-1.296
X198.272 Y98.391 Z-1.483 I0.772 J1.296
X196.728 Y95.8 Z-1.648 I-0.772 J-1.296
X198.272 Y98.391 Z-1.814 I0.772 J1.296
X196.728 Y95.8 Z-1.979 I-0.772 J-1.296
X198.272 Y98.391 Z-2.144 I0.772 J1.296
X196.728 Y95.8 Z-2.31 I-0.772 J-1.296
X198.272 Y98.391 Z-2.475 I0.772 J1.296
X196.728 Y95.8 Z-2.641 I-0.772 J-1.296
X198.272 Y98.391 Z-2.806 I0.772 J1.296
X196.728 Y95.8 Z-2.972 I-0.772 J-1.296
X197.5 Y95.588 Z-3 I0.772 J1.296
Y98.116 J1.264
S15000
G1 X52.684 F800
G3 Y96.884 J-0.616
G1 X197.588
G3 X198.116 Y97.412 J0.528
G1 Y97.588
G3 X197.588 Y98.116 I-0.528
G1 X197.5
G2 X196.528 Y98.764 J1.053
G3 X195.555 Y99.412 I-0.972 J-0.405
G1 X50.588
Y95.588
X199.413
Y99.412
X195.555
G3 X195.409 Y99.193 J-0.159
G1 X196.809 Y95.801
G3 X196.892 Y95.716 I0.147 J0.061
S5000
X197.5 Y95.588 Z-3.022 I0.608 J1.38 F333.3
Y98.604 Z-3.187 J1.508
Y95.588 Z-3.353 J-1.508
Y98.604 Z-3.518 J1.508
Y95.588 Z-3.684 J-1.508
Y98.604 Z-3.849 J1.508
Y95.588 Z-4.015 J-1.508
Y98.604 Z-4.18 J1.508
Y95.588 Z-4.345 J-1.508
Y98.604 Z-4.511 J1.508
Y95.588 Z-4.676 J-1.508
Y98.604 Z-4.842 J1.508
Y95.588 Z-5.007 J-1.508
Y98.604 Z-5.173 J1.508
Y95.588 Z-5.338 J-1.508
Y98.604 Z-5.504 J1.508
Y95.588 Z-5.669 J-1.508
Y98.604 Z-5.835 J1.508
Y95.588 Z-6 J-1.508
Y98.116 J1.264
S15000
G1 X52.684 F800
G3 Y96.884 J-0.616
G1 X197.588
G3 X198.116 Y97.412 J0.528
G1 Y97.588
G3 X197.588 Y98.116 I-0.528
G1 X197.5
G2 X196.528 Y98.764 J1.053
G3 X195.555 Y99.412 I-0.972 J-0.405
G1 X50.588
Y95.588
X199.413
Y99.412
X195.555
G3 X195.411 Y99.188 J-0.159
G1 X196.987 Y95.732
G3 X197.088 Y95.645 I0.144 J0.066
S5000
X197.912 Y98.546 Z-6.165 I0.412 J1.451 F333.3
X197.088 Y95.645 Z-6.331 I-0.412 J-1.451
X197.912 Y98.546 Z-6.496 I0.412 J1.451
X197.088 Y95.645 Z-6.662 I-0.412 J-1.451
X197.912 Y98.546 Z-6.827 I0.412 J1.451
X197.088 Y95.645 Z-6.993 I-0.412 J-1.451
X197.912 Y98.546 Z-7.158 I0.412 J1.451
X197.088 Y95.645 Z-7.324 I-0.412 J-1.451
X197.912 Y98.546 Z-7.489 I0.412 J1.451
X197.088 Y95.645 Z-7.655 I-0.412 J-1.451
X197.912 Y98.546 Z-7.82 I0.412 J1.451
X196.006 Y97.304 Z-7.91 I-0.412 J-1.451
X197.5 Y95.588 Z-8 I1.494 J-0.208
Y98.116 J1.264
S15000
G1 X52.684 F800
G3 Y96.884 J-0.616
G1 X197.588
G3 X198.116 Y97.412 J0.528
G1 Y97.588
G3 X197.588 Y98.116 I-0.528
G1 X197.5
G2 X196.528 Y98.764 J1.053
G3 X195.555 Y99.412 I-0.972 J-0.405
G1 X50.588
Y95.588
X199.413
Y99.412
X195.555
X191.178 Y99.271
G2 X191.108 Y99.284 I-0.005 J0.159
S5000
G3 X190.5 Y99.412 Z-8.022 I-0.608 J-1.38 F333.3
Y96.396 Z-8.187 J-1.508
Y99.412 Z-8.353 J1.508
Y96.396 Z-8.518 J-1.508
Y99.412 Z-8.684 J1.508
Y96.396 Z-8.849 J-1.508
Y99.412 Z-9.015 J1.508
Y96.396 Z-9.18 J-1.508
Y99.412 Z-9.345 J1.508
Y96.396 Z-9.511 J-1.508
Y99.412 Z-9.676 J1.508
Y96.396 Z-9.842 J-1.508
Y99.412 Z-10.007 J1.508
Y96.396 Z-10.173 J-1.508
Y99.412 Z-10.338 J1.508
Y96.396 Z-10.504 J-1.508
Y99.412 Z-10.669 J1.508
Y96.396 Z-10.835 J-1.508
Y99.412 Z-11 J1.508
Y96.884 J-1.264
S15000
G1 X190.588 F800
G3 X191.116 Y97.412 J0.528
G1 Y97.588
G3 X190.588 Y98.116 I-0.528
G1 X59.684
G3 Y96.884 J-0.616
G1 X190.5
G2 X191.396 Y96.342 J-1.011
G3 X192.413 Y96.592 I0.478 J0.25
G1 Y99.412
X57.588
Y95.588
X192.413
Y96.592
G3 X192.397 Y96.66 I-0.159
G1 X191.188 Y99.207
G3 X191.108 Y99.284 I-0.143 J-0.068
S5000
X190.5 Y99.412 Z-11.022 I-0.608 J-1.38 F333.3
Y96.396 Z-11.187 J-1.508
Y99.412 Z-11.353 J1.508
Y96.396 Z-11.518 J-1.508
Y99.412 Z-11.684 J1.508
Y96.396 Z-11.849 J-1.508
Y99.412 Z-12.015 J1.508
Y96.396 Z-12.18 J-1.508
Y99.412 Z-12.345 J1.508
Y96.396 Z-12.511 J-1.508
Y99.412 Z-12.676 J1.508
Y96.396 Z-12.842 J-1.508
Y99.412 Z-13.007 J1.508
Y96.396 Z-13.173 J-1.508
Y99.412 Z-13.338 J1.508
Y96.396 Z-13.504 J-1.508
Y99.412 Z-13.669 J1.508
Y96.396 Z-13.835 J-1.508
Y99.412 Z-14 J1.508
Y96.884 J-1.264
S15000
G1 X190.588 F800
G3 X191.116 Y97.412 J0.528
G1 Y97.588
G3 X190.588 Y98.116 I-0.528
G1 X59.684
G3 Y96.884 J-0.616
G1 X190.5
G2 X191.396 Y96.342 J-1.011
G3 X192.413 Y96.592 I0.478 J0.25
G1 Y99.412
X57.588
Y95.588
X192.413
Y96.592
G3 X192.39 Y96.673 I-0.159
G1 X190.823 Y99.322
G3 X190.708 Y99.398 I-0.137 J-0.081
S5000
X190.292 Y96.411 Z-14.165 I-0.208 J-1.494 F333.3
X190.708 Y99.398 Z-14.331 I0.208 J1.494
X190.292 Y96.411 Z-14.496 I-0.208 J-1.494
X190.708 Y99.398 Z-14.662 I0.208 J1.494
X190.292 Y96.411 Z-14.827 I-0.208 J-1.494
X192.005 Y97.8 Z-14.914 I0.208 J1.494
X190.5 Y99.412 Z-15 I-1.505 J0.104
Y96.884 J-1.264
S15000
G1 X190.588 F800
G3 X191.116 Y97.412 J0.528
G1 Y97.588
G3 X190.588 Y98.116 I-0.528
G1 X59.684
G3 Y96.884 J-0.616
G1 X190.5
G2 X191.396 Y96.342 J-1.011
G3 X192.413 Y96.592 I0.478 J0.25
G1 Y99.412
X57.588
Y95.588
X192.413
Y96.592
G3 X192.405 Y96.662 Z-14.992 I-0.318 F1000
X192.383 Y96.726 Z-14.969 I-0.31 J-0.07
X192.353 Y96.777 Z-14.931 I-0.288 J-0.133
X192.32 Y96.816 Z-14.88 I-0.258 J-0.185
X192.292 Y96.841 Z-14.82 I-0.225 J-0.224
X192.273 Y96.855 Z-14.753 I-0.197 J-0.249
G1 X192.267 Y96.859 Z-14.682
G0 Z5
X54.505 Y111.483
Z3.467
S5000
G1 X54.511 Y111.488 Z3.398 F333.3
G3 X54.525 Y111.505 Z3.332 I-1.118 J1.012
X54.549 Y111.533 Z3.273 I-1.133 J0.995
X54.579 Y111.57 Z3.223 I-1.157 J0.967
X54.614 Y111.617 Z3.185 I-1.187 J0.93
X54.651 Y111.67 Z3.16 I-1.222 J0.883
X54.688 Y111.728 Z3.15 I-1.259 J0.83
X52.096 Y113.272 Z2.985 I-1.296 J0.772
X54.688 Y111.728 Z2.819 I1.296 J-0.772
X52.096 Y113.272 Z2.654 I-1.296 J0.772
X54.688 Y111.728 Z2.488 I1.296 J-0.772
X52.096 Y113.272 Z2.323 I-1.296 J0.772
X54.688 Y111.728 Z2.157 I1.296 J-0.772
X52.096 Y113.272 Z1.992 I-1.296 J0.772
X54.688 Y111.728 Z1.826 I1.296 J-0.772
X52.096 Y113.272 Z1.661 I-1.296 J0.772
X54.688 Y111.728 Z1.495 I1.296 J-0.772
X52.096 Y113.272 Z1.33 I-1.296 J0.772
X54.688 Y111.728 Z1.165 I1.296 J-0.772
X52.096 Y113.272 Z0.999 I-1.296 J0.772
X54.688 Y111.728 Z0.834 I1.296 J-0.772
X52.096 Y113.272 Z0.668 I-1.296 J0.772
X54.688 Y111.728 Z0.503 I1.296 J-0.772
X52.096 Y113.272 Z0.337 I-1.296 J0.772
X54.688 Y111.728 Z0.172 I1.296 J-0.772
X52.096 Y113.272 Z0.006 I-1.296 J0.772
X54.688 Y111.728 Z-0.159 I1.296 J-0.772
X52.096 Y113.272 Z-0.324 I-1.296 J0.772
X54.688 Y111.728 Z-0.49 I1.296 J-0.772
X52.096 Y113.272 Z-0.655 I-1.296 J0.772
X54.688 Y111.728 Z-0.821 I1.296 J-0.772
X52.096 Y113.272 Z-0.986 I-1.296 J0.772
X54.688 Y111.728 Z-1.152 I1.296 J-0.772
X52.096 Y113.272 Z-1.317 I-1.296 J0.772
X54.688 Y111.728 Z-1.483 I1.296 J-0.772
X52.096 Y113.272 Z-1.648 I-1.296 J0.772
X54.688 Y111.728 Z-1.814 I1.296 J-0.772
X52.096 Y113.272 Z-1.979 I-1.296 J0.772
X54.688 Y111.728 Z-2.144 I1.296 J-0.772
X52.096 Y113.272 Z-2.31 I-1.296 J0.772
X54.688 Y111.728 Z-2.475 I1.296 J-0.772
X52.096 Y113.272 Z-2.641 I-1.296 J0.772
X54.688 Y111.728 Z-2.806 I1.296 J-0.772
X52.096 Y113.272 Z-2.972 I-1.296 J0.772
X51.884 Y112.5 Z-3 I1.296 J-0.772
S15000
G1 Y112.412 F800
G3 X52.412 Y111.884 I0.528
G1 X197.5
G3 Y113.116 J0.616
G1 X52.412
G3 X51.884 Y112.588 J-0.528
G1 Y112.5
G2 X51.342 Y111.604 I-1.011
G3 X51.592 Y110.588 I0.25 J-0.478
G1 X199.413
Y114.412
X50.588
Y110.588
X51.592
G3 X51.746 Y110.708 J0.159
G1 X52.312 Y113.006
G3 X52.012 Y113.108 I-0.154 J0.038
S5000
X54.772 Y111.892 Z-3.165 I1.38 J-0.608 F333.3
X52.012 Y113.108 Z-3.331 I-1.38 J0.608
X54.772 Y111.892 Z-3.496 I1.38 J-0.608
X52.012 Y113.108 Z-3.662 I-1.38 J0.608
X54.772 Y111.892 Z-3.827 I1.38 J-0.608
X52.012 Y113.108 Z-3.993 I-1.38 J0.608
X54.772 Y111.892 Z-4.158 I1.38 J-0.608
X52.012 Y113.108 Z-4.324 I-1.38 J0.608
X54.772 Y111.892 Z-4.489 I1.38 J-0.608
X52.012 Y113.108 Z-4.655 I-1.38 J0.608
X54.772 Y111.892 Z-4.82 I1.38 J-0.608
X52.012 Y113.108 Z-4.985 I-1.38 J0.608
X54.772 Y111.892 Z-5.151 I1.38 J-0.608
X52.012 Y113.108 Z-5.316 I-1.38 J0.608
X54.772 Y111.892 Z-5.482 I1.38 J-0.608
X52.012 Y113.108 Z-5.647 I-1.38 J0.608
X54.772 Y111.892 Z-5.813 I1.38 J-0.608
X52.012 Y113.108 Z-5.978 I-1.38 J0.608
X51.884 Y112.5 Z-6 I1.38 J-0.608
S15000
G1 Y112.412 F800
G3 X52.412 Y111.884 I0.528
G1 X197.5
G3 Y113.116 J0.616
G1 X52.412
G3 X51.884 Y112.588 J-0.528
G1 Y112.5
G2 X51.342 Y111.604 I-1.011
G3 X51.592 Y110.588 I0.25 J-0.478
G1 X199.413
Y114.412
X50.588
Y110.588
X51.592
G3 X51.747 Y110.71 J0.159
G1 X52.249 Y112.832
G3 X51.941 Y112.912 I-0.154 J0.037
S5000
X54.843 Y112.088 Z-6.165 I1.451 J-0.412 F333.3
X51.941 Y112.912 Z-6.331 I-1.451 J0.412
X54.843 Y112.088 Z-6.496 I1.451 J-0.412
X51.941 Y112.912 Z-6.662 I-1.451 J0.412
X54.843 Y112.088 Z-6.827 I1.451 J-0.412
X51.941 Y112.912 Z-6.993 I-1.451 J0.412
X54.843 Y112.088 Z-7.158 I1.451 J-0.412
X51.941 Y112.912 Z-7.324 I-1.451 J0.412
X54.843 Y112.088 Z-7.489 I1.451 J-0.412
X51.941 Y112.912 Z-7.655 I-1.451 J0.412
X54.843 Y112.088 Z-7.82 I1.451 J-0.412
X53.6 Y113.994 Z-7.91 I-1.451 J0.412
X51.884 Y112.5 Z-8 I-0.208 J-1.494
S15000
G1 Y112.412 F800
G3 X52.412 Y111.884 I0.528
G1 X197.5
G3 Y113.116 J0.616
G1 X52.412
G3 X51.884 Y112.588 J-0.528
G1 Y112.5
G2 X51.342 Y111.604 I-1.011
G3 X51.592 Y110.588 I0.25 J-0.478
G1 X199.413
Y114.412
X50.588
Y110.588
X51.592
G3 X51.648 Y110.598 J0.159
G1 X58.81 Y113.321
G2 X59.012 Y113.108 I0.056 J-0.148
S5000
G3 X61.772 Y111.892 Z-8.165 I1.38 J-0.608 F333.3
X59.012 Y113.108 Z-8.331 I-1.38 J0.608
X61.772 Y111.892 Z-8.496 I1.38 J-0.608
X59.012 Y113.108 Z-8.662 I-1.38 J0.608
X61.772 Y111.892 Z-8.827 I1.38 J-0.608
X59.012 Y113.108 Z-8.993 I-1.38 J0.608
X61.772 Y111.892 Z-9.158 I1.38 J-0.608
X59.012 Y113.108 Z-9.324 I-1.38 J0.608
X61.772 Y111.892 Z-9.489 I1.38 J-0.608
X59.012 Y113.108 Z-9.655 I-1.38 J0.608
X61.772 Y111.892 Z-9.82 I1.38 J-0.608
X59.012 Y113.108 Z-9.985 I-1.38 J0.608
X61.772 Y111.892 Z-10.151 I1.38 J-0.608
X59.012 Y113.108 Z-10.316 I-1.38 J0.608
X61.772 Y111.892 Z-10.482 I1.38 J-0.608
X59.012 Y113.108 Z-10.647 I-1.38 J0.608
X61.772 Y111.892 Z-10.813 I1.38 J-0.608
X59.012 Y113.108 Z-10.978 I-1.38 J0.608
X58.884 Y112.5 Z-11 I1.38 J-0.608
S15000
G1 Y112.412 F800
G3 X59.412 Y111.884 I0.528
G1 X190.5
G3 Y113.116 J0.616
G1 X59.412
G3 X58.884 Y112.588 J-0.528
G1 Y112.5
G2 X58.342 Y111.604 I-1.011
G3 X58.592 Y110.588 I0.25 J-0.478
G1 X192.413
Y114.412
X57.588
Y110.588
X58.592
G3 X58.746 Y110.708 J0.159
G1 X59.312 Y113.006
G3 X59.012 Y113.108 I-0.154 J0.038
S5000
X61.772 Y111.892 Z-11.165 I1.38 J-0.608 F333.3
X59.012 Y113.108 Z-11.331 I-1.38 J0.608
X61.772 Y111.892 Z-11.496 I1.38 J-0.608
X59.012 Y113.108 Z-11.662 I-1.38 J0.608
X61.772 Y111.892 Z-11.827 I1.38 J-0.608
X59.012 Y113.108 Z-11.993 I-1.38 J0.608
X61.772 Y111.892 Z-12.158 I1.38 J-0.608
X59.012 Y113.108 Z-12.324 I-1.38 J0.608
X61.772 Y111.892 Z-12.489 I1.38 J-0.608
X59.012 Y113.108 Z-12.655 I-1.38 J0.608
X61.772 Y111.892 Z-12.82 I1.38 J-0.608
X59.012 Y113.108 Z-12.985 I-1.38 J0.608
X61.772 Y111.892 Z-13.151 I1.38 J-0.608
X59.012 Y113.108 Z-13.316 I-1.38 J0.608
X61.772 Y111.892 Z-13.482 I1.38 J-0.608
X59.012 Y113.108 Z-13.647 I-1.38 J0.608
X61.772 Y111.892 Z-13.813 I1.38 J-0.608
X59.012 Y113.108 Z-13.978 I-1.38 J0.608
X58.884 Y112.5 Z-14 I1.38 J-0.608
S15000
G1 Y112.412 F800
G3 X59.412 Y111.884 I0.528
G1 X190.5
G3 Y113.116 J0.616
G1 X59.412
G3 X58.884 Y112.588 J-0.528
G1 Y112.5
G2 X58.342 Y111.604 I-1.011
G3 X58.592 Y110.588 I0.25 J-0.478
G1 X192.413
Y114.412
X57.588
Y110.588
X58.592
G3 X58.746 Y110.709 J0.159
G1 X59.21 Y112.649
G3 X59.085 Y112.842 I-0.154 J0.037
X58.898 Y112.708 I-0.029 J-0.156
S5000
X61.886 Y112.292 Z-14.165 I1.494 J-0.208 F333.3
X58.898 Y112.708 Z-14.331 I-1.494 J0.208
X61.886 Y112.292 Z-14.496 I1.494 J-0.208
X58.898 Y112.708 Z-14.662 I-1.494 J0.208
X61.886 Y112.292 Z-14.827 I1.494 J-0.208
X60.496 Y114.005 Z-14.914 I-1.494 J0.208
X58.884 Y112.5 Z-15 I-0.104 J-1.505
S15000
G1 Y112.412 F800
G3 X59.412 Y111.884 I0.528
G1 X190.5
G3 Y113.116 J0.616
G1 X59.412
G3 X58.884 Y112.588 J-0.528
G1 Y112.5
G2 X58.342 Y111.604 I-1.011
G3 X58.592 Y110.588 I0.25 J-0.478
G1 X192.413
Y114.412
X57.588
Y110.588
X58.592
G3 X58.662 Y110.595 Z-14.992 J0.317 F1000
X58.726 Y110.617 Z-14.969 I-0.07 J0.31
X58.777 Y110.647 Z-14.931 I-0.133 J0.288
X58.816 Y110.68 Z-14.88 I-0.185 J0.258
X58.841 Y110.708 Z-14.82 I-0.224 J0.225
X58.855 Y110.727 Z-14.753 I-0.249 J0.197
G1 X58.859 Y110.733 Z-14.682
G0 Z5
X196.483 Y51.791
Z3.467
S5000
G1 X196.488 Y51.786 Z3.398 F333.3
G3 X196.505 Y51.771 Z3.332 I1.012 J1.118
X196.533 Y51.747 Z3.273 I0.995 J1.133
X196.57 Y51.717 Z3.223 I0.967 J1.157
X196.617 Y51.682 Z3.185 I0.93 J1.187
X196.67 Y51.645 Z3.16 I0.883 J1.222
X196.728 Y51.609 Z3.15 I0.83 J1.259
X198.272 Y54.2 Z2.985 I0.772 J1.296
X196.728 Y51.609 Z2.819 I-0.772 J-1.296
X198.272 Y54.2 Z2.654 I0.772 J1.296
X196.728 Y51.609 Z2.488 I-0.772 J-1.296
X198.272 Y54.2 Z2.323 I0.772 J1.296
X196.728 Y51.609 Z2.157 I-0.772 J-1.296
X198.272 Y54.2 Z1.992 I0.772 J1.296
X196.728 Y51.609 Z1.826 I-0.772 J-1.296
X198.272 Y54.2 Z1.661 I0.772 J1.296
X196.728 Y51.609 Z1.495 I-0.772 J-1.296
X198.272 Y54.2 Z1.33 I0.772 J1.296
X196.728 Y51.609 Z1.165 I-0.772 J-1.296
X198.272 Y54.2 Z0.999 I0.772 J1.296
X196.728 Y51.609 Z0.834 I-0.772 J-1.296
X198.272 Y54.2 Z0.668 I0.772 J1.296
X196.728 Y51.609 Z0.503 I-0.772 J-1.296
X198.272 Y54.2 Z0.337 I0.772 J1.296
X196.728 Y51.609 Z0.172 I-0.772 J-1.296
X198.272 Y54.2 Z0.006 I0.772 J1.296
X196.728 Y51.609 Z-0.159 I-0.772 J-1.296
X198.272 Y54.2 Z-0.324 I0.772 J1.296
X196.728 Y51.609 Z-0.49 I-0.772 J-1.296
X198.272 Y54.2 Z-0.655 I0.772 J1.296
X196.728 Y51.609 Z-0.821 I-0.772 J-1.296
X198.272 Y54.2 Z-0.986 I0.772 J1.296
X196.728 Y51.609 Z-1.152 I-0.772 J-1.296
X198.272 Y54.2 Z-1.317 I0.772 J1.296
X196.728 Y51.609 Z-1.483 I-0.772 J-1.296
X198.272 Y54.2 Z-1.648 I0.772 J1.296
X196.728 Y51.609 Z-1.814 I-0.772 J-1.296
X198.272 Y54.2 Z-1.979 I0.772 J1.296
X196.728 Y51.609 Z-2.144 I-0.772 J-1.296
X198.272 Y54.2 Z-2.31 I0.772 J1.296
X196.728 Y51.609 Z-2.475 I-0.772 J-1.296
X198.272 Y54.2 Z-2.641 I0.772 J1.296
X196.728 Y51.609 Z-2.806 I-0.772 J-1.296
X198.272 Y54.2 Z-2.972 I0.772 J1.296
X197.5 Y54.412 Z-3 I-0.772 J-1.296
Y51.884 J-1.264
S15000
G1 X197.588 F800
G3 X198.116 Y52.412 J0.528
G1 Y52.588
G3 X197.588 Y53.116 I-0.528
G1 X52.684
G3 Y51.884 J-0.616
G1 X197.5
G2 X198.396 Y51.342 J-1.011
G3 X199.413 Y51.592 I0.478 J0.25
G1 Y54.412
X50.588
Y50.588
X199.413
Y51.592
G3 X199.397 Y51.66 I-0.159
G1 X198.188 Y54.207
G3 X198.108 Y54.284 I-0.143 J-0.068
S5000
X196.892 Y51.524 Z-3.165 I-0.608 J-1.38 F333.3
X198.108 Y54.284 Z-3.331 I0.608 J1.38
X196.892 Y51.524 Z-3.496 I-0.608 J-1.38
X198.108 Y54.284 Z-3.662 I0.608 J1.38
X196.892 Y51.524 Z-3.827 I-0.608 J-1.38
X198.108 Y54.284 Z-3.993 I0.608 J1.38
X196.892 Y51.524 Z-4.158 I-0.608 J-1.38
X198.108 Y54.284 Z-4.324 I0.608 J1.38
X196.892 Y51.524 Z-4.489 I-0.608 J-1.38
X198.108 Y54.284 Z-4.655 I0.608 J1.38
X196.892 Y51.524 Z-4.82 I-0.608 J-1.38
X198.108 Y54.284 Z-4.985 I0.608 J1.38
X196.892 Y51.524 Z-5.151 I-0.608 J-1.38
X198.108 Y54.284 Z-5.316 I0.608 J1.38
X196.892 Y51.524 Z-5.482 I-0.608 J-1.38
X198.108 Y54.284 Z-5.647 I0.608 J1.38
X196.892 Y51.524 Z-5.813 I-0.608 J-1.38
X198.108 Y54.284 Z-5.978 I0.608 J1.38
X197.5 Y54.412 Z-6 I-0.608 J-1.38
Y51.884 J-1.264
S15000
G1 X197.588 F800
G3 X198.116 Y52.412 J0.528
G1 Y52.588
G3 X197.588 Y53.116 I-0.528
G1 X52.684
G3 Y51.884 J-0.616
G1 X197.5
G2 X198.396 Y51.342 J-1.011
G3 X199.413 Y51.592 I0.478 J0.25
G1 Y54.412
X50.588
Y50.588
X199.413
Y51.592
G3 X199.394 Y51.666 I-0.159
G1 X198.009 Y54.277
G3 X197.912 Y54.355 I-0.14 J-0.074
S5000
X197.088 Y51.454 Z-6.165 I-0.412 J-1.451 F333.3
X197.912 Y54.355 Z-6.331 I0.412 J1.451
X197.088 Y51.454 Z-6.496 I-0.412 J-1.451
X197.912 Y54.355 Z-6.662 I0.412 J1.451
X197.088 Y51.454 Z-6.827 I-0.412 J-1.451
X197.912 Y54.355 Z-6.993 I0.412 J1.451
X197.088 Y51.454 Z-7.158 I-0.412 J-1.451
X197.912 Y54.355 Z-7.324 I0.412 J1.451
X197.088 Y51.454 Z-7.489 I-0.412 J-1.451
X197.912 Y54.355 Z-7.655 I0.412 J1.451
X197.088 Y51.454 Z-7.82 I-0.412 J-1.451
X198.994 Y52.696 Z-7.91 I0.412 J1.451
X197.5 Y54.412 Z-8 I-1.494 J0.208
Y51.884 J-1.264
S15000
G1 X197.588 F800
G3 X198.116 Y52.412 J0.528
G1 Y52.588
G3 X197.588 Y53.116 I-0.528
G1 X52.684
G3 Y51.884 J-0.616
G1 X197.5
G2 X198.396 Y51.342 J-1.011
G3 X199.413 Y51.592 I0.478 J0.25
G1 Y54.412
X50.588
Y50.588
X199.413
Y51.592
G3 X199.405 Y51.662 Z-7.992 I-0.318 F1000
X199.383 Y51.726 Z-7.969 I-0.31 J-0.07
X199.353 Y51.777 Z-7.931 I-0.288 J-0.133
X199.32 Y51.816 Z-7.88 I-0.258 J-0.185
X199.292 Y51.841 Z-7.82 I-0.225 J-0.224
X199.273 Y51.855 Z-7.753 I-0.197 J-0.249
G1 X199.267 Y51.859 Z-7.683
G0 Z5
X61.505 Y51.483
G1 Z-4.533 F333.3
S5000
X61.511 Y51.488 Z-4.602
G3 X61.525 Y51.505 Z-4.668 I-1.118 J1.012
X61.549 Y51.533 Z-4.727 I-1.133 J0.995
X61.579 Y51.57 Z-4.777 I-1.157 J0.967
X61.614 Y51.617 Z-4.815 I-1.187 J0.93
X61.651 Y51.67 Z-4.84 I-1.222 J0.883
X61.688 Y51.728 Z-4.85 I-1.259 J0.83
X59.096 Y53.272 Z-5.015 I-1.296 J0.772
X61.688 Y51.728 Z-5.181 I1.296 J-0.772
X59.096 Y53.272 Z-5.346 I-1.296 J0.772
X61.688 Y51.728 Z-5.512 I1.296 J-0.772
X59.096 Y53.272 Z-5.677 I-1.296 J0.772
X61.688 Y51.728 Z-5.843 I1.296 J-0.772
X59.096 Y53.272 Z-6.008 I-1.296 J0.772
X61.688 Y51.728 Z-6.174 I1.296 J-0.772
X59.096 Y53.272 Z-6.339 I-1.296 J0.772
X61.688 Y51.728 Z-6.505 I1.296 J-0.772
X59.096 Y53.272 Z-6.67 I-1.296 J0.772
X61.688 Y51.728 Z-6.835 I1.296 J-0.772
X59.096 Y53.272 Z-7.001 I-1.296 J0.772
X61.688 Y51.728 Z-7.166 I1.296 J-0.772
X59.096 Y53.272 Z-7.332 I-1.296 J0.772
X61.688 Y51.728 Z-7.497 I1.296 J-0.772
X59.096 Y53.272 Z-7.663 I-1.296 J0.772
X61.688 Y51.728 Z-7.828 I1.296 J-0.772
X59.096 Y53.272 Z-7.994 I-1.296 J0.772
X61.688 Y51.728 Z-8.159 I1.296 J-0.772
X59.096 Y53.272 Z-8.324 I-1.296 J0.772
X61.688 Y51.728 Z-8.49 I1.296 J-0.772
X59.096 Y53.272 Z-8.655 I-1.296 J0.772
X61.688 Y51.728 Z-8.821 I1.296 J-0.772
X59.096 Y53.272 Z-8.986 I-1.296 J0.772
X61.688 Y51.728 Z-9.152 I1.296 J-0.772
X59.096 Y53.272 Z-9.317 I-1.296 J0.772
X61.688 Y51.728 Z-9.483 I1.296 J-0.772
X59.096 Y53.272 Z-9.648 I-1.296 J0.772
X61.688 Y51.728 Z-9.814 I1.296 J-0.772
X59.096 Y53.272 Z-9.979 I-1.296 J0.772
X61.688 Y51.728 Z-10.144 I1.296 J-0.772
X59.096 Y53.272 Z-10.31 I-1.296 J0.772
X61.688 Y51.728 Z-10.475 I1.296 J-0.772
X59.096 Y53.272 Z-10.641 I-1.296 J0.772
X61.688 Y51.728 Z-10.806 I1.296 J-0.772
X59.096 Y53.272 Z-10.972 I-1.296 J0.772
X58.884 Y52.5 Z-11 I1.296 J-0.772
S15000
G1 Y52.412 F800
G3 X59.412 Y51.884 I0.528
G1 X190.588
G3 X191.116 Y52.412 J0.528
G1 Y52.588
G3 X190.588 Y53.116 I-0.528
G1 X59.412
G3 X58.884 Y52.588 J-0.528
G1 Y52.5
G2 X58.342 Y51.604 I-1.011
G3 X58.592 Y50.588 I0.25 J-0.478
G1 X192.413
Y54.412
X57.588
Y50.588
X58.592
G3 X58.746 Y50.708 J0.159
G1 X59.312 Y53.006
G3 X59.012 Y53.108 I-0.154 J0.038
S5000
X61.772 Y51.892 Z-11.165 I1.38 J-0.608 F333.3
X59.012 Y53.108 Z-11.331 I-1.38 J0.608
X61.772 Y51.892 Z-11.496 I1.38 J-0.608
X59.012 Y53.108 Z-11.662 I-1.38 J0.608
X61.772 Y51.892 Z-11.827 I1.38 J-0.608
X59.012 Y53.108 Z-11.993 I-1.38 J0.608
X61.772 Y51.892 Z-12.158 I1.38 J-0.608
X59.012 Y53.108 Z-12.324 I-1.38 J0.608
X61.772 Y51.892 Z-12.489 I1.38 J-0.608
X59.012 Y53.108 Z-12.655 I-1.38 J0.608
X61.772 Y51.892 Z-12.82 I1.38 J-0.608
X59.012 Y53.108 Z-12.985 I-1.38 J0.608
X61.772 Y51.892 Z-13.151 I1.38 J-0.608
X59.012 Y53.108 Z-13.316 I-1.38 J0.608
X61.772 Y51.892 Z-13.482 I1.38 J-0.608
X59.012 Y53.108 Z-13.647 I-1.38 J0.608
X61.772 Y51.892 Z-13.813 I1.38 J-0.608
X59.012 Y53.108 Z-13.978 I-1.38 J0.608
X58.884 Y52.5 Z-14 I1.38 J-0.608
S15000
G1 Y52.412 F800
G3 X59.412 Y51.884 I0.528
G1 X190.588
G3 X191.116 Y52.412 J0.528
G1 Y52.588
G3 X190.588 Y53.116 I-0.528
G1 X59.412
G3 X58.884 Y52.588 J-0.528
G1 Y52.5
G2 X58.342 Y51.604 I-1.011
G3 X58.592 Y50.588 I0.25 J-0.478
G1 X192.413
Y54.412
X57.588
Y50.588
X58.592
G3 X58.746 Y50.709 J0.159
G1 X59.21 Y52.649
G3 X59.085 Y52.842 I-0.154 J0.037
X58.898 Y52.708 I-0.029 J-0.156
S5000
X61.886 Y52.292 Z-14.165 I1.494 J-0.208 F333.3
X58.898 Y52.708 Z-14.331 I-1.494 J0.208
X61.886 Y52.292 Z-14.496 I1.494 J-0.208
X58.898 Y52.708 Z-14.662 I-1.494 J0.208
X61.886 Y52.292 Z-14.827 I1.494 J-0.208
X60.496 Y54.005 Z-14.914 I-1.494 J0.208
X58.884 Y52.5 Z-15 I-0.104 J-1.505
S15000
G1 Y52.412 F800
G3 X59.412 Y51.884 I0.528
G1 X190.588
G3 X191.116 Y52.412 J0.528
G1 Y52.588
G3 X190.588 Y53.116 I-0.528
G1 X59.412
G3 X58.884 Y52.588 J-0.528
G1 Y52.5
G2 X58.342 Y51.604 I-1.011
G3 X58.592 Y50.588 I0.25 J-0.478
G1 X192.413
Y54.412
X57.588
Y50.588
X58.592
G3 X58.662 Y50.595 Z-14.992 J0.317 F1000
X58.726 Y50.617 Z-14.969 I-0.07 J0.31
X58.777 Y50.647 Z-14.931 I-0.133 J0.288
X58.816 Y50.68 Z-14.88 I-0.185 J0.258
X58.841 Y50.708 Z-14.82 I-0.224 J0.225
X58.855 Y50.727 Z-14.753 I-0.249 J0.197
G1 X58.859 Y50.733 Z-14.682
G0 Z5
X54.505 Y36.483
Z3.467
S5000
G1 X54.511 Y36.488 Z3.398 F333.3
G3 X54.525 Y36.505 Z3.332 I-1.118 J1.012
X54.549 Y36.533 Z3.273 I-1.133 J0.995
X54.579 Y36.57 Z3.223 I-1.157 J0.967
X54.614 Y36.617 Z3.185 I-1.187 J0.93
X54.651 Y36.67 Z3.16 I-1.222 J0.883
X54.688 Y36.728 Z3.15 I-1.259 J0.83
X52.096 Y38.272 Z2.985 I-1.296 J0.772
X54.688 Y36.728 Z2.819 I1.296 J-0.772
X52.096 Y38.272 Z2.654 I-1.296 J0.772
X54.688 Y36.728 Z2.488 I1.296 J-0.772
X52.096 Y38.272 Z2.323 I-1.296 J0.772
X54.688 Y36.728 Z2.157 I1.296 J-0.772
X52.096 Y38.272 Z1.992 I-1.296 J0.772
X54.688 Y36.728 Z1.826 I1.296 J-0.772
X52.096 Y38.272 Z1.661 I-1.296 J0.772
X54.688 Y36.728 Z1.495 I1.296 J-0.772
X52.096 Y38.272 Z1.33 I-1.296 J0.772
X54.688 Y36.728 Z1.165 I1.296 J-0.772
X52.096 Y38.272 Z0.999 I-1.296 J0.772
X54.688 Y36.728 Z0.834 I1.296 J-0.772
X52.096 Y38.272 Z0.668 I-1.296 J0.772
X54.688 Y36.728 Z0.503 I1.296 J-0.772
X52.096 Y38.272 Z0.337 I-1.296 J0.772
X54.688 Y36.728 Z0.172 I1.296 J-0.772
X52.096 Y38.272 Z0.006 I-1.296 J0.772
X54.688 Y36.728 Z-0.159 I1.296 J-0.772
X52.096 Y38.272 Z-0.324 I-1.296 J0.772
X54.688 Y36.728 Z-0.49 I1.296 J-0.772
X52.096 Y38.272 Z-0.655 I-1.296 J0.772
X54.688 Y36.728 Z-0.821 I1.296 J-0.772
X52.096 Y38.272 Z-0.986 I-1.296 J0.772
X54.688 Y36.728 Z-1.152 I1.296 J-0.772
X52.096 Y38.272 Z-1.317 I-1.296 J0.772
X54.688 Y36.728 Z-1.483 I1.296 J-0.772
X52.096 Y38.272 Z-1.648 I-1.296 J0.772
X54.688 Y36.728 Z-1.814 I1.296 J-0.772
X52.096 Y38.272 Z-1.979 I-1.296 J0.772
X54.688 Y36.728 Z-2.144 I1.296 J-0.772
X52.096 Y38.272 Z-2.31 I-1.296 J0.772
X54.688 Y36.728 Z-2.475 I1.296 J-0.772
X52.096 Y38.272 Z-2.641 I-1.296 J0.772
X54.688 Y36.728 Z-2.806 I1.296 J-0.772
X52.096 Y38.272 Z-2.972 I-1.296 J0.772
X51.884 Y37.5 Z-3 I1.296 J-0.772
S15000
G1 Y37.412 F800
G3 X52.412 Y36.884 I0.528
G1 X197.588
G3 X198.116 Y37.412 J0.528
G1 Y37.588
G3 X197.588 Y38.116 I-0.528
G1 X52.412
G3 X51.884 Y37.588 J-0.528
G1 Y37.5
G2 X51.342 Y36.604 I-1.011
G3 X51.592 Y35.588 I0.25 J-0.478
G1 X199.413
Y39.412
X50.588
Y35.588
X51.592
G3 X51.746 Y35.708 J0.159
G1 X52.312 Y38.006
G3 X52.012 Y38.108 I-0.154 J0.038
S5000
X54.772 Y36.892 Z-3.165 I1.38 J-0.608 F333.3
X52.012 Y38.108 Z-3.331 I-1.38 J0.608
X54.772 Y36.892 Z-3.496 I1.38 J-0.608
X52.012 Y38.108 Z-3.662 I-1.38 J0.608
X54.772 Y36.892 Z-3.827 I1.38 J-0.608
X52.012 Y38.108 Z-3.993 I-1.38 J0.608
X54.772 Y36.892 Z-4.158 I1.38 J-0.608
X52.012 Y38.108 Z-4.324 I-1.38 J0.608
X54.772 Y36.892 Z-4.489 I1.38 J-0.608
X52.012 Y38.108 Z-4.655 I-1.38 J0.608
X54.772 Y36.892 Z-4.82 I1.38 J-0.608
X52.012 Y38.108 Z-4.985 I-1.38 J0.608
X54.772 Y36.892 Z-5.151 I1.38 J-0.608
X52.012 Y38.108 Z-5.316 I-1.38 J0.608
X54.772 Y36.892 Z-5.482 I1.38 J-0.608
X52.012 Y38.108 Z-5.647 I-1.38 J0.608
X54.772 Y36.892 Z-5.813 I1.38 J-0.608
X52.012 Y38.108 Z-5.978 I-1.38 J0.608
X51.884 Y37.5 Z-6 I1.38 J-0.608
S15000
G1 Y37.412 F800
G3 X52.412 Y36.884 I0.528
G1 X197.588
G3 X198.116 Y37.412 J0.528
G1 Y37.588
G3 X197.588 Y38.116 I-0.528
G1 X52.412
G3 X51.884 Y37.588 J-0.528
G1 Y37.5
G2 X51.342 Y36.604 I-1.011
G3 X51.592 Y35.588 I0.25 J-0.478
G1 X199.413
Y39.412
X50.588
Y35.588
X51.592
G3 X51.747 Y35.71 J0.159
G1 X52.249 Y37.832
G3 X51.941 Y37.912 I-0.154 J0.037
S5000
X54.843 Y37.088 Z-6.165 I1.451 J-0.412 F333.3
X51.941 Y37.912 Z-6.331 I-1.451 J0.412
X54.843 Y37.088 Z-6.496 I1.451 J-0.412
X51.941 Y37.912 Z-6.662 I-1.451 J0.412
X54.843 Y37.088 Z-6.827 I1.451 J-0.412
X51.941 Y37.912 Z-6.993 I-1.451 J0.412
X54.843 Y37.088 Z-7.158 I1.451 J-0.412
X51.941 Y37.912 Z-7.324 I-1.451 J0.412
X54.843 Y37.088 Z-7.489 I1.451 J-0.412
X51.941 Y37.912 Z-7.655 I-1.451 J0.412
X54.843 Y37.088 Z-7.82 I1.451 J-0.412
X53.6 Y38.994 Z-7.91 I-1.451 J0.412
X51.884 Y37.5 Z-8 I-0.208 J-1.494
S15000
G1 Y37.412 F800
G3 X52.412 Y36.884 I0.528
G1 X197.588
G3 X198.116 Y37.412 J0.528
G1 Y37.588
G3 X197.588 Y38.116 I-0.528
G1 X52.412
G3 X51.884 Y37.588 J-0.528
G1 Y37.5
G2 X51.342 Y36.604 I-1.011
G3 X51.592 Y35.588 I0.25 J-0.478
G1 X199.413
Y39.412
X50.588
Y35.588
X51.592
G3 X51.648 Y35.598 J0.159
G1 X58.81 Y38.321
G2 X59.012 Y38.108 I0.056 J-0.148
S5000
G3 X61.772 Y36.892 Z-8.165 I1.38 J-0.608 F333.3
X59.012 Y38.108 Z-8.331 I-1.38 J0.608
X61.772 Y36.892 Z-8.496 I1.38 J-0.608
X59.012 Y38.108 Z-8.662 I-1.38 J0.608
X61.772 Y36.892 Z-8.827 I1.38 J-0.608
X59.012 Y38.108 Z-8.993 I-1.38 J0.608
X61.772 Y36.892 Z-9.158 I1.38 J-0.608
X59.012 Y38.108 Z-9.324 I-1.38 J0.608
X61.772 Y36.892 Z-9.489 I1.38 J-0.608
X59.012 Y38.108 Z-9.655 I-1.38 J0.608
X61.772 Y36.892 Z-9.82 I1.38 J-0.608
X59.012 Y38.108 Z-9.985 I-1.38 J0.608
X61.772 Y36.892 Z-10.151 I1.38 J-0.608
X59.012 Y38.108 Z-10.316 I-1.38 J0.608
X61.772 Y36.892 Z-10.482 I1.38 J-0.608
X59.012 Y38.108 Z-10.647 I-1.38 J0.608
X61.772 Y36.892 Z-10.813 I1.38 J-0.608
X59.012 Y38.108 Z-10.978 I-1.38 J0.608
X58.884 Y37.5 Z-11 I1.38 J-0.608
S15000
G1 Y37.412 F800
G3 X59.412 Y36.884 I0.528
G1 X190.588
G3 X191.116 Y37.412 J0.528
G1 Y37.588
G3 X190.588 Y38.116 I-0.528
G1 X59.412
G3 X58.884 Y37.588 J-0.528
G1 Y37.5
G2 X58.342 Y36.604 I-1.011
G3 X58.592 Y35.588 I0.25 J-0.478
G1 X192.413
Y39.412
X57.588
Y35.588
X58.592
G3 X58.746 Y35.708 J0.159
G1 X59.312 Y38.006
G3 X59.012 Y38.108 I-0.154 J0.038
S5000
X61.772 Y36.892 Z-11.165 I1.38 J-0.608 F333.3
X59.012 Y38.108 Z-11.331 I-1.38 J0.608
X61.772 Y36.892 Z-11.496 I1.38 J-0.608
X59.012 Y38.108 Z-11.662 I-1.38 J0.608
X61.772 Y36.892 Z-11.827 I1.38 J-0.608
X59.012 Y38.108 Z-11.993 I-1.38 J0.608
X61.772 Y36.892 Z-12.158 I1.38 J-0.608
X59.012 Y38.108 Z-12.324 I-1.38 J0.608
X61.772 Y36.892 Z-12.489 I1.38 J-0.608
X59.012 Y38.108 Z-12.655 I-1.38 J0.608
X61.772 Y36.892 Z-12.82 I1.38 J-0.608
X59.012 Y38.108 Z-12.985 I-1.38 J0.608
X61.772 Y36.892 Z-13.151 I1.38 J-0.608
X59.012 Y38.108 Z-13.316 I-1.38 J0.608
X61.772 Y36.892 Z-13.482 I1.38 J-0.608
X59.012 Y38.108 Z-13.647 I-1.38 J0.608
X61.772 Y36.892 Z-13.813 I1.38 J-0.608
X59.012 Y38.108 Z-13.978 I-1.38 J0.608
X58.884 Y37.5 Z-14 I1.38 J-0.608
S15000
G1 Y37.412 F800
G3 X59.412 Y36.884 I0.528
G1 X190.588
G3 X191.116 Y37.412 J0.528
G1 Y37.588
G3 X190.588 Y38.116 I-0.528
G1 X59.412
G3 X58.884 Y37.588 J-0.528
G1 Y37.5
G2 X58.342 Y36.604 I-1.011
G3 X58.592 Y35.588 I0.25 J-0.478
G1 X192.413
Y39.412
X57.588
Y35.588
X58.592
G3 X58.746 Y35.709 J0.159
G1 X59.21 Y37.649
G3 X59.085 Y37.842 I-0.154 J0.037
X58.898 Y37.708 I-0.029 J-0.156
S5000
X61.886 Y37.292 Z-14.165 I1.494 J-0.208 F333.3
X58.898 Y37.708 Z-14.331 I-1.494 J0.208
X61.886 Y37.292 Z-14.496 I1.494 J-0.208
X58.898 Y37.708 Z-14.662 I-1.494 J0.208
X61.886 Y37.292 Z-14.827 I1.494 J-0.208
X60.496 Y39.005 Z-14.914 I-1.494 J0.208
X58.884 Y37.5 Z-15 I-0.104 J-1.505
S15000
G1 Y37.412 F800
G3 X59.412 Y36.884 I0.528
G1 X190.588
G3 X191.116 Y37.412 J0.528
G1 Y37.588
G3 X190.588 Y38.116 I-0.528
G1 X59.412
G3 X58.884 Y37.588 J-0.528
G1 Y37.5
G2 X58.342 Y36.604 I-1.011
G3 X58.592 Y35.588 I0.25 J-0.478
G1 X192.413
Y39.412
X57.588
Y35.588
X58.592
G3 X58.662 Y35.595 Z-14.992 J0.317 F1000
X58.726 Y35.617 Z-14.969 I-0.07 J0.31
X58.777 Y35.647 Z-14.931 I-0.133 J0.288
X58.816 Y35.68 Z-14.88 I-0.185 J0.258
X58.841 Y35.708 Z-14.82 I-0.224 J0.225
X58.855 Y35.727 Z-14.753 I-0.249 J0.197
G1 X58.859 Y35.733 Z-14.682
G0 Z5
X198.517 Y23.209
Z3.467
S5000
G1 X198.512 Y23.214 Z3.398 F333.3
G3 X198.495 Y23.229 Z3.332 I-1.012 J-1.118
X198.467 Y23.253 Z3.273 I-0.995 J-1.133
X198.43 Y23.283 Z3.223 I-0.967 J-1.157
X198.383 Y23.318 Z3.185 I-0.93 J-1.187
X198.33 Y23.355 Z3.16 I-0.883 J-1.222
X198.272 Y23.391 Z3.15 I-0.83 J-1.259
X196.728 Y20.8 Z2.985 I-0.772 J-1.296
X198.272 Y23.391 Z2.819 I0.772 J1.296
X196.728 Y20.8 Z2.654 I-0.772 J-1.296
X198.272 Y23.391 Z2.488 I0.772 J1.296
X196.728 Y20.8 Z2.323 I-0.772 J-1.296
X198.272 Y23.391 Z2.157 I0.772 J1.296
X196.728 Y20.8 Z1.992 I-0.772 J-1.296
X198.272 Y23.391 Z1.826 I0.772 J1.296
X196.728 Y20.8 Z1.661 I-0.772 J-1.296
X198.272 Y23.391 Z1.495 I0.772 J1.296
X196.728 Y20.8 Z1.33 I-0.772 J-1.296
X198.272 Y23.391 Z1.165 I0.772 J1.296
X196.728 Y20.8 Z0.999 I-0.772 J-1.296
X198.272 Y23.391 Z0.834 I0.772 J1.296
X196.728 Y20.8 Z0.668 I-0.772 J-1.296
X198.272 Y23.391 Z0.503 I0.772 J1.296
X196.728 Y20.8 Z0.337 I-0.772 J-1.296
X198.272 Y23.391 Z0.172 I0.772 J1.296
X196.728 Y20.8 Z0.006 I-0.772 J-1.296
X198.272 Y23.391 Z-0.159 I0.772 J1.296
X196.728 Y20.8 Z-0.324 I-0.772 J-1.296
X198.272 Y23.391 Z-0.49 I0.772 J1.296
X196.728 Y20.8 Z-0.655 I-0.772 J-1.296
X198.272 Y23.391 Z-0.821 I0.772 J1.296
X196.728 Y20.8 Z-0.986 I-0.772 J-1.296
X198.272 Y23.391 Z-1.152 I0.772 J1.296
X196.728 Y20.8 Z-1.317 I-0.772 J-1.296
X198.272 Y23.391 Z-1.483 I0.772 J1.296
X196.728 Y20.8 Z-1.648 I-0.772 J-1.296
X198.272 Y23.391 Z-1.814 I0.772 J1.296
X196.728 Y20.8 Z-1.979 I-0.772 J-1.296
X198.272 Y23.391 Z-2.144 I0.772 J1.296
X196.728 Y20.8 Z-2.31 I-0.772 J-1.296
X198.272 Y23.391 Z-2.475 I0.772 J1.296
X196.728 Y20.8 Z-2.641 I-0.772 J-1.296
X198.272 Y23.391 Z-2.806 I0.772 J1.296
X196.728 Y20.8 Z-2.972 I-0.772 J-1.296
X197.5 Y20.588 Z-3 I0.772 J1.296
Y23.116 J1.264
S15000
G1 X52.5 F800
G3 Y21.884 J-0.616
G1 X197.588
G3 X198.116 Y22.412 J0.528
G1 Y22.588
G3 X197.588 Y23.116 I-0.528
G1 X197.5
G2 X196.528 Y23.764 J1.053
G3 X195.555 Y24.413 I-0.972 J-0.405
G1 X50.588
Y20.587
X199.413
Y24.413
X195.555
G3 X195.409 Y24.193 J-0.159
G1 X196.809 Y20.801
G3 X196.892 Y20.716 I0.147 J0.061
S5000
X198.108 Y23.476 Z-3.165 I0.608 J1.38 F333.3
X196.892 Y20.716 Z-3.331 I-0.608 J-1.38
X198.108 Y23.476 Z-3.496 I0.608 J1.38
X196.892 Y20.716 Z-3.662 I-0.608 J-1.38
X198.108 Y23.476 Z-3.827 I0.608 J1.38
X196.892 Y20.716 Z-3.993 I-0.608 J-1.38
X198.108 Y23.476 Z-4.158 I0.608 J1.38
X196.892 Y20.716 Z-4.324 I-0.608 J-1.38
X198.108 Y23.476 Z-4.489 I0.608 J1.38
X196.892 Y20.716 Z-4.655 I-0.608 J-1.38
X198.108 Y23.476 Z-4.82 I0.608 J1.38
X196.892 Y20.716 Z-4.985 I-0.608 J-1.38
X198.108 Y23.476 Z-5.151 I0.608 J1.38
X196.892 Y20.716 Z-5.316 I-0.608 J-1.38
X198.108 Y23.476 Z-5.482 I0.608 J1.38
X196.892 Y20.716 Z-5.647 I-0.608 J-1.38
X198.108 Y23.476 Z-5.813 I0.608 J1.38
X196.892 Y20.716 Z-5.978 I-0.608 J-1.38
X197.5 Y20.588 Z-6 I0.608 J1.38
Y23.116 J1.264
S15000
G1 X52.5 F800
G3 Y21.884 J-0.616
G1 X197.588
G3 X198.116 Y22.412 J0.528
G1 Y22.588
G3 X197.588 Y23.116 I-0.528
G1 X197.5
G2 X196.528 Y23.764 J1.053
G3 X195.555 Y24.413 I-0.972 J-0.405
G1 X50.588
Y20.587
X199.413
Y24.413
X195.555
G3 X195.411 Y24.188 J-0.159
G1 X196.987 Y20.732
G3 X197.088 Y20.645 I0.144 J0.066
S5000
X197.912 Y23.546 Z-6.165 I0.412 J1.451 F333.3
X197.088 Y20.645 Z-6.331 I-0.412 J-1.451
X197.912 Y23.546 Z-6.496 I0.412 J1.451
X197.088 Y20.645 Z-6.662 I-0.412 J-1.451
X197.912 Y23.546 Z-6.827 I0.412 J1.451
X197.088 Y20.645 Z-6.993 I-0.412 J-1.451
X197.912 Y23.546 Z-7.158 I0.412 J1.451
X197.088 Y20.645 Z-7.324 I-0.412 J-1.451
X197.912 Y23.546 Z-7.489 I0.412 J1.451
X197.088 Y20.645 Z-7.655 I-0.412 J-1.451
X197.912 Y23.546 Z-7.82 I0.412 J1.451
X196.006 Y22.304 Z-7.91 I-0.412 J-1.451
X197.5 Y20.588 Z-8 I1.494 J-0.208
Y23.116 J1.264
S15000
G1 X52.5 F800
G3 Y21.884 J-0.616
G1 X197.588
G3 X198.116 Y22.412 J0.528
G1 Y22.588
G3 X197.588 Y23.116 I-0.528
G1 X197.5
G2 X196.528 Y23.764 J1.053
G3 X195.555 Y24.413 I-0.972 J-0.405
G1 X50.588
Y20.587
X199.413
Y24.413
X195.555
X191.178 Y24.271
G2 X191.108 Y24.284 I-0.005 J0.159
S5000
G3 X189.892 Y21.524 Z-8.165 I-0.608 J-1.38 F333.3
X191.108 Y24.284 Z-8.331 I0.608 J1.38
X189.892 Y21.524 Z-8.496 I-0.608 J-1.38
X191.108 Y24.284 Z-8.662 I0.608 J1.38
X189.892 Y21.524 Z-8.827 I-0.608 J-1.38
X191.108 Y24.284 Z-8.993 I0.608 J1.38
X189.892 Y21.524 Z-9.158 I-0.608 J-1.38
X191.108 Y24.284 Z-9.324 I0.608 J1.38
X189.892 Y21.524 Z-9.489 I-0.608 J-1.38
X191.108 Y24.284 Z-9.655 I0.608 J1.38
X189.892 Y21.524 Z-9.82 I-0.608 J-1.38
X191.108 Y24.284 Z-9.985 I0.608 J1.38
X189.892 Y21.524 Z-10.151 I-0.608 J-1.38
X191.108 Y24.284 Z-10.316 I0.608 J1.38
X189.892 Y21.524 Z-10.482 I-0.608 J-1.38
X191.108 Y24.284 Z-10.647 I0.608 J1.38
X189.892 Y21.524 Z-10.813 I-0.608 J-1.38
X191.108 Y24.284 Z-10.978 I0.608 J1.38
X190.5 Y24.412 Z-11 I-0.608 J-1.38
Y21.884 J-1.264
S15000
G1 X190.588 F800
G3 X191.116 Y22.412 J0.528
G1 Y22.588
G3 X190.588 Y23.116 I-0.528
G1 X59.5
G3 Y21.884 J-0.616
G1 X190.5
G2 X191.396 Y21.342 J-1.011
G3 X192.413 Y21.592 I0.478 J0.25
G1 Y24.413
X57.588
Y20.587
X192.413
Y21.592
G3 X192.397 Y21.66 I-0.159
G1 X191.188 Y24.207
G3 X191.108 Y24.284 I-0.143 J-0.068
S5000
X189.892 Y21.524 Z-11.165 I-0.608 J-1.38 F333.3
X191.108 Y24.284 Z-11.331 I0.608 J1.38
X189.892 Y21.524 Z-11.496 I-0.608 J-1.38
X191.108 Y24.284 Z-11.662 I0.608 J1.38
X189.892 Y21.524 Z-11.827 I-0.608 J-1.38
X191.108 Y24.284 Z-11.993 I0.608 J1.38
X189.892 Y21.524 Z-12.158 I-0.608 J-1.38
X191.108 Y24.284 Z-12.324 I0.608 J1.38
X189.892 Y21.524 Z-12.489 I-0.608 J-1.38
X191.108 Y24.284 Z-12.655 I0.608 J1.38
X189.892 Y21.524 Z-12.82 I-0.608 J-1.38
X191.108 Y24.284 Z-12.985 I0.608 J1.38
X189.892 Y21.524 Z-13.151 I-0.608 J-1.38
X191.108 Y24.284 Z-13.316 I0.608 J1.38
X189.892 Y21.524 Z-13.482 I-0.608 J-1.38
X191.108 Y24.284 Z-13.647 I0.608 J1.38
X189.892 Y21.524 Z-13.813 I-0.608 J-1.38
X191.108 Y24.284 Z-13.978 I0.608 J1.38
X190.5 Y24.412 Z-14 I-0.608 J-1.38
Y21.884 J-1.264
S15000
G1 X190.588 F800
G3 X191.116 Y22.412 J0.528
G1 Y22.588
G3 X190.588 Y23.116 I-0.528
G1 X59.5
G3 Y21.884 J-0.616
G1 X190.5
G2 X191.396 Y21.342 J-1.011
G3 X192.413 Y21.592 I0.478 J0.25
G1 Y24.413
X57.588
Y20.587
X192.413
Y21.592
G3 X192.39 Y21.673 I-0.159
G1 X190.823 Y24.322
G3 X190.708 Y24.398 I-0.137 J-0.081
S5000
X190.292 Y21.411 Z-14.165 I-0.208 J-1.494 F333.3
X190.708 Y24.398 Z-14.331 I0.208 J1.494
X190.292 Y21.411 Z-14.496 I-0.208 J-1.494
X190.708 Y24.398 Z-14.662 I0.208 J1.494
X190.292 Y21.411 Z-14.827 I-0.208 J-1.494
X192.005 Y22.8 Z-14.914 I0.208 J1.494
X190.5 Y24.412 Z-15 I-1.505 J0.104
Y21.884 J-1.264
S15000
G1 X190.588 F800
G3 X191.116 Y22.412 J0.528
G1 Y22.588
G3 X190.588 Y23.116 I-0.528
G1 X59.5
G3 Y21.884 J-0.616
G1 X190.5
G2 X191.396 Y21.342 J-1.011
G3 X192.413 Y21.592 I0.478 J0.25
G1 Y24.413
X57.588
Y20.587
X192.413
Y21.592
G3 X192.405 Y21.662 Z-14.992 I-0.318 F1000
X192.383 Y21.726 Z-14.969 I-0.31 J-0.07
X192.353 Y21.777 Z-14.931 I-0.288 J-0.133
X192.32 Y21.816 Z-14.88 I-0.258 J-0.185
X192.292 Y21.841 Z-14.82 I-0.225 J-0.224
X192.273 Y21.855 Z-14.753 I-0.197 J-0.249
G1 X192.267 Y21.859 Z-14.682
G0 Z5
X230.159 Y36.483
Z3.467
S5000
G1 X230.165 Y36.489 Z3.398 F333.3
G3 X230.18 Y36.505 Z3.332 I-1.118 J1.012
X230.203 Y36.533 Z3.273 I-1.133 J0.995
X230.233 Y36.571 Z3.223 I-1.157 J0.967
X230.268 Y36.617 Z3.185 I-1.187 J0.93
X230.305 Y36.67 Z3.16 I-1.222 J0.883
X230.342 Y36.729 Z3.15 I-1.259 J0.83
X227.75 Y38.272 Z2.985 I-1.296 J0.772
X227.538 Y37.5 Z2.956 I1.296 J-0.772
X230.554 Z2.791 I1.508
X229.951 Y38.707 Z2.742 I-1.508
X227.538 Y37.5 Z2.625 I-0.905 J-1.207
X230.554 Z2.46 I1.508
X229.951 Y38.707 Z2.411 I-1.508
X227.538 Y37.5 Z2.294 I-0.905 J-1.207
X230.554 Z2.129 I1.508
X229.951 Y38.707 Z2.08 I-1.508
X227.538 Y37.5 Z1.964 I-0.905 J-1.207
X230.554 Z1.798 I1.508
X229.951 Y38.707 Z1.749 I-1.508
X227.538 Y37.5 Z1.633 I-0.905 J-1.207
X230.554 Z1.467 I1.508
X229.951 Y38.707 Z1.418 I-1.508
X227.538 Y37.5 Z1.302 I-0.905 J-1.207
X230.554 Z1.136 I1.508
X229.951 Y38.707 Z1.087 I-1.508
X227.538 Y37.5 Z0.971 I-0.905 J-1.207
X230.554 Z0.805 I1.508
X229.951 Y38.707 Z0.757 I-1.508
X227.538 Y37.5 Z0.64 I-0.905 J-1.207
X230.554 Z0.474 I1.508
X229.951 Y38.707 Z0.426 I-1.508
X227.538 Y37.5 Z0.309 I-0.905 J-1.207
X230.554 Z0.144 I1.508
X229.951 Y38.707 Z0.095 I-1.508
X227.538 Y37.5 Z-0.022 I-0.905 J-1.207
X230.554 Z-0.187 I1.508
X229.951 Y38.707 Z-0.236 I-1.508
X227.538 Y37.5 Z-0.353 I-0.905 J-1.207
X230.554 Z-0.518 I1.508
X229.951 Y38.707 Z-0.567 I-1.508
X227.538 Y37.5 Z-0.684 I-0.905 J-1.207
X230.554 Z-0.849 I1.508
X229.951 Y38.707 Z-0.898 I-1.508
X227.538 Y37.5 Z-1.015 I-0.905 J-1.207
X230.554 Z-1.18 I1.508
X229.951 Y38.707 Z-1.229 I-1.508
X227.538 Y37.5 Z-1.345 I-0.905 J-1.207
X230.554 Z-1.511 I1.508
X229.951 Y38.707 Z-1.56 I-1.508
X227.538 Y37.5 Z-1.676 I-0.905 J-1.207
X230.554 Z-1.842 I1.508
X229.951 Y38.707 Z-1.891 I-1.508
X227.538 Y37.5 Z-2.007 I-0.905 J-1.207
X230.554 Z-2.173 I1.508
X229.951 Y38.707 Z-2.222 I-1.508
X227.538 Y37.5 Z-2.338 I-0.905 J-1.207
X230.554 Z-2.504 I1.508
X229.951 Y38.707 Z-2.552 I-1.508
X227.538 Y37.5 Z-2.669 I-0.905 J-1.207
X230.554 Z-2.835 I1.508
X229.951 Y38.707 Z-2.883 I-1.508
X227.538 Y37.5 Z-3 I-0.905 J-1.207
S15000
X228.531 I0.496 F800
X224.522 I-2.005
X231.547 I3.513
X221.505 I-5.021
X231.547 I5.021
G2 X232.666 Y39.449 I2.257
G3 X233.268 Y41.614 I-0.813 J1.392
G1 X233.186 Y41.764
X233.134 Y41.837
X232.511 Y42.668
X232.476 Y42.706
X231.713 Y43.469
X230.799 Y44.155
X229.797 Y44.699
X228.739 Y45.091
X227.644 Y45.328
X226.524 Y45.408
X225.408 Y45.328
X224.283 Y45.082
X223.23 Y44.688
X222.253 Y44.154
X221.347 Y43.477
X220.56 Y42.689
X220.502 Y42.615
X219.879 Y41.784
X219.861 Y41.753
X219.333 Y40.787
X218.944 Y39.743
X218.699 Y38.626
X218.619 Y37.512
X218.702 Y36.358
X218.892 Y35.485
X218.937 Y35.278
X219.329 Y34.223
X219.343 Y34.195
X219.871 Y33.229
X220.561 Y32.31
X221.355 Y31.518
X222.245 Y30.851
X223.245 Y30.305
X224.289 Y29.915
X225.408 Y29.672
X226.524 Y29.592
X227.64 Y29.671
X228.758 Y29.913
X229.802 Y30.303
X230.805 Y30.849
X231.697 Y31.517
X232.499 Y32.317
X232.513 Y32.335
X233.181 Y33.228
X233.712 Y34.2
X233.887 Y34.662
X234.115 Y35.275
X234.351 Y36.358
X234.434 Y37.512
X234.354 Y38.626
X234.109 Y39.743
X233.719 Y40.787
X233.268 Y41.614
G3 X233.041 Y41.671 I-0.139 J-0.076
G1 X227.724 Y38.177
G3 X227.666 Y38.109 I0.087 J-0.133
S5000
X230.426 Y36.892 Z-3.165 I1.38 J-0.608 F333.3
X229.951 Y38.707 Z-3.236 I-1.38 J0.608
X227.538 Y37.5 Z-3.353 I-0.905 J-1.207
X230.554 Z-3.518 I1.508
X229.951 Y38.707 Z-3.567 I-1.508
X227.538 Y37.5 Z-3.684 I-0.905 J-1.207
X230.554 Z-3.849 I1.508
X229.951 Y38.707 Z-3.898 I-1.508
X227.538 Y37.5 Z-4.015 I-0.905 J-1.207
X230.554 Z-4.18 I1.508
X229.951 Y38.707 Z-4.229 I-1.508
X227.538 Y37.5 Z-4.345 I-0.905 J-1.207
X230.554 Z-4.511 I1.508
X229.951 Y38.707 Z-4.56 I-1.508
X227.538 Y37.5 Z-4.676 I-0.905 J-1.207
X230.554 Z-4.842 I1.508
X229.951 Y38.707 Z-4.891 I-1.508
X227.538 Y37.5 Z-5.007 I-0.905 J-1.207
X230.554 Z-5.173 I1.508
X229.951 Y38.707 Z-5.222 I-1.508
X227.538 Y37.5 Z-5.338 I-0.905 J-1.207
X230.554 Z-5.504 I1.508
X229.951 Y38.707 Z-5.552 I-1.508
X227.538 Y37.5 Z-5.669 I-0.905 J-1.207
X230.554 Z-5.835 I1.508
X229.951 Y38.707 Z-5.883 I-1.508
X227.538 Y37.5 Z-6 I-0.905 J-1.207
S15000
X228.531 I0.496 F800
X224.522 I-2.005
X231.547 I3.513
X221.505 I-5.021
X231.547 I5.021
G2 X232.666 Y39.449 I2.257
G3 X233.268 Y41.614 I-0.813 J1.392
G1 X233.186 Y41.764
X233.134 Y41.837
X232.511 Y42.668
X232.476 Y42.706
X231.713 Y43.469
X230.799 Y44.155
X229.797 Y44.699
X228.739 Y45.091
X227.644 Y45.328
X226.524 Y45.408
X225.408 Y45.328
X224.283 Y45.082
X223.23 Y44.688
X222.253 Y44.154
X221.347 Y43.477
X220.56 Y42.689
X220.502 Y42.615
X219.879 Y41.784
X219.861 Y41.753
X219.333 Y40.787
X218.944 Y39.743
X218.699 Y38.626
X218.619 Y37.512
X218.702 Y36.358
X218.892 Y35.485
X218.937 Y35.278
X219.329 Y34.223
X219.343 Y34.195
X219.871 Y33.229
X220.561 Y32.31
X221.355 Y31.518
X222.245 Y30.851
X223.245 Y30.305
X224.289 Y29.915
X225.408 Y29.672
X226.524 Y29.592
X227.64 Y29.671
X228.758 Y29.913
X229.802 Y30.303
X230.805 Y30.849
X231.697 Y31.517
X232.499 Y32.317
X232.513 Y32.335
X233.181 Y33.228
X233.712 Y34.2
X233.887 Y34.662
X234.115 Y35.275
X234.351 Y36.358
X234.434 Y37.512
X234.354 Y38.626
X234.109 Y39.743
X233.719 Y40.787
X233.268 Y41.614
G3 X233.039 Y41.669 I-0.139 J-0.076
G1 X227.659 Y38
G3 X227.595 Y37.913 I0.089 J-0.131
S5000
X227.538 Y37.5 Z-6.015 I1.451 J-0.412 F333.3
X230.554 Z-6.18 I1.508
X229.951 Y38.707 Z-6.229 I-1.508
X227.538 Y37.5 Z-6.345 I-0.905 J-1.207
X230.554 Z-6.511 I1.508
X229.951 Y38.707 Z-6.56 I-1.508
X227.538 Y37.5 Z-6.676 I-0.905 J-1.207
X230.554 Z-6.842 I1.508
X229.951 Y38.707 Z-6.891 I-1.508
X227.538 Y37.5 Z-7.007 I-0.905 J-1.207
X230.554 Z-7.173 I1.508
X229.951 Y38.707 Z-7.222 I-1.508
X227.538 Y37.5 Z-7.338 I-0.905 J-1.207
X230.554 Z-7.504 I1.508
X229.951 Y38.707 Z-7.552 I-1.508
X227.538 Y37.5 Z-7.669 I-0.905 J-1.207
X230.554 Z-7.835 I1.508
X229.951 Y38.707 Z-7.883 I-1.508
X227.538 Y37.5 Z-8 I-0.905 J-1.207
S15000
X228.531 I0.496 F800
X224.522 I-2.005
X231.547 I3.513
X221.505 I-5.021
X231.547 I5.021
G2 X232.666 Y39.449 I2.257
G3 X233.268 Y41.614 I-0.813 J1.392
G1 X233.186 Y41.764
X233.134 Y41.837
X232.511 Y42.668
X232.476 Y42.706
X231.713 Y43.469
X230.799 Y44.155
X229.797 Y44.699
X228.739 Y45.091
X227.644 Y45.328
X226.524 Y45.408
X225.408 Y45.328
X224.283 Y45.082
X223.23 Y44.688
X222.253 Y44.154
X221.347 Y43.477
X220.56 Y42.689
X220.502 Y42.615
X219.879 Y41.784
X219.861 Y41.753
X219.333 Y40.787
X218.944 Y39.743
X218.699 Y38.626
X218.619 Y37.512
X218.702 Y36.358
X218.892 Y35.485
X218.937 Y35.278
X219.329 Y34.223
X219.343 Y34.195
X219.871 Y33.229
X220.561 Y32.31
X221.355 Y31.518
X222.245 Y30.851
X223.245 Y30.305
X224.289 Y29.915
X225.408 Y29.672
X226.524 Y29.592
X227.64 Y29.671
X228.758 Y29.913
X229.802 Y30.303
X230.805 Y30.849
X231.697 Y31.517
X232.499 Y32.317
X232.513 Y32.335
X233.181 Y33.228
X233.712 Y34.2
X233.887 Y34.662
X234.115 Y35.275
X234.351 Y36.358
X234.434 Y37.512
X234.354 Y38.626
X234.109 Y39.743
X233.719 Y40.787
X233.268 Y41.614
G3 X233.041 Y41.671 I-0.139 J-0.076
G1 X227.724 Y38.177
G3 X227.666 Y38.109 I0.087 J-0.133
S5000
X230.426 Y36.892 Z-8.165 I1.38 J-0.608 F333.3
X229.951 Y38.707 Z-8.236 I-1.38 J0.608
X227.538 Y37.5 Z-8.353 I-0.905 J-1.207
X230.554 Z-8.518 I1.508
X229.951 Y38.707 Z-8.567 I-1.508
X227.538 Y37.5 Z-8.684 I-0.905 J-1.207
X230.554 Z-8.849 I1.508
X229.951 Y38.707 Z-8.898 I-1.508
X227.538 Y37.5 Z-9.015 I-0.905 J-1.207
X230.554 Z-9.18 I1.508
X229.951 Y38.707 Z-9.229 I-1.508
X227.538 Y37.5 Z-9.345 I-0.905 J-1.207
X230.554 Z-9.511 I1.508
X229.951 Y38.707 Z-9.56 I-1.508
X227.538 Y37.5 Z-9.676 I-0.905 J-1.207
X230.554 Z-9.842 I1.508
X229.951 Y38.707 Z-9.891 I-1.508
X227.538 Y37.5 Z-10.007 I-0.905 J-1.207
X230.554 Z-10.173 I1.508
X229.951 Y38.707 Z-10.222 I-1.508
X227.538 Y37.5 Z-10.338 I-0.905 J-1.207
X230.554 Z-10.504 I1.508
X229.951 Y38.707 Z-10.552 I-1.508
X227.538 Y37.5 Z-10.669 I-0.905 J-1.207
X230.554 Z-10.835 I1.508
X229.951 Y38.707 Z-10.883 I-1.508
X227.538 Y37.5 Z-11 I-0.905 J-1.207
S15000
X228.531 I0.496 F800
X224.522 I-2.005
X231.547 I3.513
X221.505 I-5.021
X231.547 I5.021
G2 X232.666 Y39.449 I2.257
G3 X233.268 Y41.614 I-0.813 J1.392
G1 X233.186 Y41.764
X233.134 Y41.837
X232.511 Y42.668
X232.476 Y42.706
X231.713 Y43.469
X230.799 Y44.155
X229.797 Y44.699
X228.739 Y45.091
X227.644 Y45.328
X226.524 Y45.408
X225.408 Y45.328
X224.283 Y45.082
X223.23 Y44.688
X222.253 Y44.154
X221.347 Y43.477
X220.56 Y42.689
X220.502 Y42.615
X219.879 Y41.784
X219.861 Y41.753
X219.333 Y40.787
X218.944 Y39.743
X218.699 Y38.626
X218.619 Y37.512
X218.702 Y36.358
X218.892 Y35.485
X218.937 Y35.278
X219.329 Y34.223
X219.343 Y34.195
X219.871 Y33.229
X220.561 Y32.31
X221.355 Y31.518
X222.245 Y30.851
X223.245 Y30.305
X224.289 Y29.915
X225.408 Y29.672
X226.524 Y29.592
X227.64 Y29.671
X228.758 Y29.913
X229.802 Y30.303
X230.805 Y30.849
X231.697 Y31.517
X232.499 Y32.317
X232.513 Y32.335
X233.181 Y33.228
X233.712 Y34.2
X233.887 Y34.662
X234.115 Y35.275
X234.351 Y36.358
X234.434 Y37.512
X234.354 Y38.626
X234.109 Y39.743
X233.719 Y40.787
X233.268 Y41.614
G3 X233.041 Y41.671 I-0.139 J-0.076
G1 X227.724 Y38.177
G3 X227.666 Y38.109 I0.087 J-0.133
S5000
X230.426 Y36.892 Z-11.165 I1.38 J-0.608 F333.3
X229.951 Y38.707 Z-11.236 I-1.38 J0.608
X227.538 Y37.5 Z-11.353 I-0.905 J-1.207
X230.554 Z-11.518 I1.508
X229.951 Y38.707 Z-11.567 I-1.508
X227.538 Y37.5 Z-11.684 I-0.905 J-1.207
X230.554 Z-11.849 I1.508
X229.951 Y38.707 Z-11.898 I-1.508
X227.538 Y37.5 Z-12.015 I-0.905 J-1.207
X230.554 Z-12.18 I1.508
X229.951 Y38.707 Z-12.229 I-1.508
X227.538 Y37.5 Z-12.345 I-0.905 J-1.207
X230.554 Z-12.511 I1.508
X229.951 Y38.707 Z-12.56 I-1.508
X227.538 Y37.5 Z-12.676 I-0.905 J-1.207
X230.554 Z-12.842 I1.508
X229.951 Y38.707 Z-12.891 I-1.508
X227.538 Y37.5 Z-13.007 I-0.905 J-1.207
X230.554 Z-13.173 I1.508
X229.951 Y38.707 Z-13.222 I-1.508
X227.538 Y37.5 Z-13.338 I-0.905 J-1.207
X230.554 Z-13.504 I1.508
X229.951 Y38.707 Z-13.552 I-1.508
X227.538 Y37.5 Z-13.669 I-0.905 J-1.207
X230.554 Z-13.835 I1.508
X229.951 Y38.707 Z-13.883 I-1.508
X227.538 Y37.5 Z-14 I-0.905 J-1.207
S15000
X228.531 I0.496 F800
X224.522 I-2.005
X231.547 I3.513
X221.505 I-5.021
X231.547 I5.021
G2 X232.666 Y39.449 I2.257
G3 X233.268 Y41.614 I-0.813 J1.392
G1 X233.186 Y41.764
X233.134 Y41.837
X232.511 Y42.668
X232.476 Y42.706
X231.713 Y43.469
X230.799 Y44.155
X229.797 Y44.699
X228.739 Y45.091
X227.644 Y45.328
X226.524 Y45.408
X225.408 Y45.328
X224.283 Y45.082
X223.23 Y44.688
X222.253 Y44.154
X221.347 Y43.477
X220.56 Y42.689
X220.502 Y42.615
X219.879 Y41.784
X219.861 Y41.753
X219.333 Y40.787
X218.944 Y39.743
X218.699 Y38.626
X218.619 Y37.512
X218.702 Y36.358
X218.892 Y35.485
X218.937 Y35.278
X219.329 Y34.223
X219.343 Y34.195
X219.871 Y33.229
X220.561 Y32.31
X221.355 Y31.518
X222.245 Y30.851
X223.245 Y30.305
X224.289 Y29.915
X225.408 Y29.672
X226.524 Y29.592
X227.64 Y29.671
X228.758 Y29.913
X229.802 Y30.303
X230.805 Y30.849
X231.697 Y31.517
X232.499 Y32.317
X232.513 Y32.335
X233.181 Y33.228
X233.712 Y34.2
X233.887 Y34.662
X234.115 Y35.275
X234.351 Y36.358
X234.434 Y37.512
X234.354 Y38.626
X234.109 Y39.743
X233.719 Y40.787
X233.268 Y41.614
G3 X233.036 Y41.667 I-0.139 J-0.076
G1 X227.618 Y37.816
G3 X227.552 Y37.708 I0.092 J-0.129
S5000
X230.54 Y37.292 Z-14.165 I1.494 J-0.208 F333.3
X227.552 Y37.708 Z-14.331 I-1.494 J0.208
X230.54 Y37.292 Z-14.496 I1.494 J-0.208
X227.552 Y37.708 Z-14.662 I-1.494 J0.208
X230.54 Y37.292 Z-14.827 I1.494 J-0.208
X229.15 Y39.005 Z-14.914 I-1.494 J0.208
X227.538 Y37.5 Z-15 I-0.104 J-1.505
S15000
X228.531 I0.496 F800
X224.522 I-2.005
X231.547 I3.513
X221.505 I-5.021
X231.547 I5.021
G2 X232.666 Y39.449 I2.257
G3 X233.268 Y41.614 I-0.813 J1.392
G1 X233.186 Y41.764
X233.134 Y41.837
X232.511 Y42.668
X232.476 Y42.706
X231.713 Y43.469
X230.799 Y44.155
X229.797 Y44.699
X228.739 Y45.091
X227.644 Y45.328
X226.524 Y45.408
X225.408 Y45.328
X224.283 Y45.082
X223.23 Y44.688
X222.253 Y44.154
X221.347 Y43.477
X220.56 Y42.689
X220.502 Y42.615
X219.879 Y41.784
X219.861 Y41.753
X219.333 Y40.787
X218.944 Y39.743
X218.699 Y38.626
X218.619 Y37.512
X218.702 Y36.358
X218.892 Y35.485
X218.937 Y35.278
X219.329 Y34.223
X219.343 Y34.195
X219.871 Y33.229
X220.561 Y32.31
X221.355 Y31.518
X222.245 Y30.851
X223.245 Y30.305
X224.289 Y29.915
X225.408 Y29.672
X226.524 Y29.592
X227.64 Y29.671
X228.758 Y29.913
X229.802 Y30.303
X230.805 Y30.849
X231.697 Y31.517
X232.499 Y32.317
X232.513 Y32.335
X233.181 Y33.228
X233.712 Y34.2
X233.887 Y34.662
X234.115 Y35.275
X234.351 Y36.358
X234.434 Y37.512
X234.354 Y38.626
X234.109 Y39.743
X233.719 Y40.787
X233.268 Y41.614
G3 X233.227 Y41.672 Z-14.992 I-0.279 J-0.152 F1000
X233.178 Y41.717 Z-14.969 I-0.238 J-0.21
X233.126 Y41.748 Z-14.931 I-0.189 J-0.255
X233.079 Y41.766 Z-14.88 I-0.137 J-0.286
X233.043 Y41.775 Z-14.82 I-0.091 J-0.304
X233.019 Y41.778 Z-14.753 I-0.054 J-0.313
G1 X233.011 Y41.779 Z-14.682
G0 Z15
M9
G28 G91 Z0
G28 X0 Y0
M30
%
